MEDT/Pirringer/Unterricht/2025-01-29/GFXRAFjpgSamplesTiltShiftACR/B0000994.xmp
<x:xmpmeta xmlns:x="adobe:ns:meta/" x:xmptk="Adobe XMP Core 7.0-c000 1.000000, 0000/00/00-00:00:00        ">
 <rdf:RDF xmlns:rdf="http://www.w3.org/1999/02/22-rdf-syntax-ns#">
  <rdf:Description rdf:about=""
    xmlns:tiff="http://ns.adobe.com/tiff/1.0/"
    xmlns:exif="http://ns.adobe.com/exif/1.0/"
    xmlns:xmp="http://ns.adobe.com/xap/1.0/"
    xmlns:dc="http://purl.org/dc/elements/1.1/"
    xmlns:aux="http://ns.adobe.com/exif/1.0/aux/"
    xmlns:exifEX="http://cipa.jp/exif/1.0/"
    xmlns:photoshop="http://ns.adobe.com/photoshop/1.0/"
    xmlns:xmpMM="http://ns.adobe.com/xap/1.0/mm/"
    xmlns:stEvt="http://ns.adobe.com/xap/1.0/sType/ResourceEvent#"
    xmlns:crd="http://ns.adobe.com/camera-raw-defaults/1.0/"
    xmlns:crs="http://ns.adobe.com/camera-raw-settings/1.0/"
   tiff:Make="Hasselblad"
   tiff:Model="Hasselblad X1D"
   tiff:Orientation="1"
   exif:ExifVersion="0230"
   exif:ExposureTime="25/10"
   exif:ShutterSpeedValue="-1321928/1000000"
   exif:FNumber="8/1"
   exif:ApertureValue="6/1"
   exif:ExposureProgram="1"
   exif:ExposureBiasValue="0/1"
   exif:SubjectDistance="4294967295/1"
   exif:MeteringMode="2"
   exif:FocalLength="21/1"
   exif:FocalLengthIn35mmFilm="17"
   exif:FocalPlaneXResolution="61826415/32768"
   exif:FocalPlaneYResolution="61826415/32768"
   exif:FocalPlaneResolutionUnit="3"
   exif:LensMake="Hasselblad"
   exif:ImageUniqueID="0000000000005551019D86CD000009A1"
   exif:DateTimeOriginal="2018-02-26T18:30:09"
   xmp:CreatorTool="v1.20.1-22"
   xmp:ModifyDate="2018-02-26T18:30:09"
   xmp:Rating="5"
   xmp:MetadataDate="2025-01-29T14:33:16+01:00"
   dc:format="image/x-hasselblad-raw"
   aux:Lens="XCD 21"
   aux:ApproximateFocusDistance="4294967295/1"
   exifEX:LensModel="XCD 21"
   exifEX:LensMake="Hasselblad"
   photoshop:DateCreated="2018-02-26T18:30:09"
   photoshop:SidecarForExtension="3FR"
   photoshop:EmbeddedXMPDigest="29E56AA9F0CCEAD75092EC471DF23A00"
   xmpMM:DocumentID="30313944383643443030303030394131"
   xmpMM:OriginalDocumentID="30313944383643443030303030394131"
   xmpMM:InstanceID="xmp.iid:9427de7e-95d7-ca43-850b-04bb1f9b0b9a"
   crd:CameraProfile="Camera Standard"
   crd:LookName=""
   crs:Version="16.5"
   crs:ProcessVersion="15.4"
   crs:WhiteBalance="As Shot"
   crs:Temperature="3550"
   crs:Tint="+34"
   crs:Exposure2012="0.00"
   crs:Contrast2012="0"
   crs:Highlights2012="0"
   crs:Shadows2012="0"
   crs:Whites2012="0"
   crs:Blacks2012="0"
   crs:Texture="+21"
   crs:Clarity2012="+9"
   crs:Dehaze="0"
   crs:Vibrance="0"
   crs:Saturation="0"
   crs:ParametricShadows="0"
   crs:ParametricDarks="0"
   crs:ParametricLights="0"
   crs:ParametricHighlights="0"
   crs:ParametricShadowSplit="70"
   crs:ParametricMidtoneSplit="80"
   crs:ParametricHighlightSplit="90"
   crs:Sharpness="88"
   crs:SharpenRadius="+1.2"
   crs:SharpenDetail="28"
   crs:SharpenEdgeMasking="16"
   crs:LuminanceSmoothing="0"
   crs:ColorNoiseReduction="25"
   crs:ColorNoiseReductionDetail="50"
   crs:ColorNoiseReductionSmoothness="50"
   crs:HueAdjustmentRed="0"
   crs:HueAdjustmentOrange="0"
   crs:HueAdjustmentYellow="0"
   crs:HueAdjustmentGreen="0"
   crs:HueAdjustmentAqua="0"
   crs:HueAdjustmentBlue="0"
   crs:HueAdjustmentPurple="0"
   crs:HueAdjustmentMagenta="0"
   crs:SaturationAdjustmentRed="0"
   crs:SaturationAdjustmentOrange="0"
   crs:SaturationAdjustmentYellow="0"
   crs:SaturationAdjustmentGreen="0"
   crs:SaturationAdjustmentAqua="0"
   crs:SaturationAdjustmentBlue="0"
   crs:SaturationAdjustmentPurple="0"
   crs:SaturationAdjustmentMagenta="0"
   crs:LuminanceAdjustmentRed="0"
   crs:LuminanceAdjustmentOrange="0"
   crs:LuminanceAdjustmentYellow="0"
   crs:LuminanceAdjustmentGreen="0"
   crs:LuminanceAdjustmentAqua="0"
   crs:LuminanceAdjustmentBlue="0"
   crs:LuminanceAdjustmentPurple="0"
   crs:LuminanceAdjustmentMagenta="0"
   crs:SplitToningShadowHue="0"
   crs:SplitToningShadowSaturation="0"
   crs:SplitToningHighlightHue="0"
   crs:SplitToningHighlightSaturation="0"
   crs:SplitToningBalance="0"
   crs:ColorGradeMidtoneHue="14"
   crs:ColorGradeMidtoneSat="0"
   crs:ColorGradeShadowLum="0"
   crs:ColorGradeMidtoneLum="0"
   crs:ColorGradeHighlightLum="0"
   crs:ColorGradeBlending="50"
   crs:ColorGradeGlobalHue="0"
   crs:ColorGradeGlobalSat="0"
   crs:ColorGradeGlobalLum="0"
   crs:AutoLateralCA="1"
   crs:LensProfileEnable="1"
   crs:LensManualDistortionAmount="0"
   crs:VignetteAmount="0"
   crs:DefringePurpleAmount="0"
   crs:DefringePurpleHueLo="30"
   crs:DefringePurpleHueHi="70"
   crs:DefringeGreenAmount="0"
   crs:DefringeGreenHueLo="40"
   crs:DefringeGreenHueHi="60"
   crs:PerspectiveUpright="0"
   crs:PerspectiveVertical="0"
   crs:PerspectiveHorizontal="0"
   crs:PerspectiveRotate="0.0"
   crs:PerspectiveAspect="0"
   crs:PerspectiveScale="100"
   crs:PerspectiveX="0.00"
   crs:PerspectiveY="0.00"
   crs:GrainAmount="0"
   crs:PostCropVignetteAmount="0"
   crs:ShadowTint="0"
   crs:RedHue="0"
   crs:RedSaturation="0"
   crs:GreenHue="0"
   crs:GreenSaturation="0"
   crs:BlueHue="0"
   crs:BlueSaturation="0"
   crs:HDREditMode="0"
   crs:ConvertToGrayscale="False"
   crs:OverrideLookVignette="False"
   crs:ToneCurveName2012="Linear"
   crs:CameraProfile="Camera Standard"
   crs:CameraProfileDigest="FA401BB3ADB9630D5AF577E3A7BD8680"
   crs:LensProfileSetup="Auto"
   crs:LensProfileName="Adobe (Hasselblad XCD 4/21mm)"
   crs:LensProfileFilename="Hasselblad (Hasselblad XCD 4_21mm) - RAW.lcp"
   crs:LensProfileDigest="B08CB69C2B27564139BF13D4E21A8AD6"
   crs:LensProfileIsEmbedded="False"
   crs:LensProfileDistortionScale="100"
   crs:LensProfileVignettingScale="100"
   crs:HasSettings="True"
   crs:HasCrop="False"
   crs:AlreadyApplied="False">
   <exif:ISOSpeedRatings>
    <rdf:Seq>
     <rdf:li>100</rdf:li>
    </rdf:Seq>
   </exif:ISOSpeedRatings>
   <dc:rights>
    <rdf:Alt>
     <rdf:li xml:lang="x-default">Hasselblad X1D</rdf:li>
    </rdf:Alt>
   </dc:rights>
   <xmpMM:History>
    <rdf:Seq>
     <rdf:li
      stEvt:action="saved"
      stEvt:instanceID="xmp.iid:149a2564-d269-c24e-b650-6b1c6a9b68d0"
      stEvt:when="2025-01-29T14:26:55+01:00"
      stEvt:softwareAgent="Adobe Photoshop Camera Raw 16.5 (Windows)"
      stEvt:changed="/metadata"/>
     <rdf:li
      stEvt:action="saved"
      stEvt:instanceID="xmp.iid:9427de7e-95d7-ca43-850b-04bb1f9b0b9a"
      stEvt:when="2025-01-29T14:33:16+01:00"
      stEvt:softwareAgent="Adobe Photoshop Camera Raw 16.5 (Windows)"
      stEvt:changed="/metadata"/>
    </rdf:Seq>
   </xmpMM:History>
   <crs:ToneCurvePV2012>
    <rdf:Seq>
     <rdf:li>0, 0</rdf:li>
     <rdf:li>255, 255</rdf:li>
    </rdf:Seq>
   </crs:ToneCurvePV2012>
   <crs:ToneCurvePV2012Red>
    <rdf:Seq>
     <rdf:li>0, 0</rdf:li>
     <rdf:li>255, 255</rdf:li>
    </rdf:Seq>
   </crs:ToneCurvePV2012Red>
   <crs:ToneCurvePV2012Green>
    <rdf:Seq>
     <rdf:li>0, 0</rdf:li>
     <rdf:li>255, 255</rdf:li>
    </rdf:Seq>
   </crs:ToneCurvePV2012Green>
   <crs:ToneCurvePV2012Blue>
    <rdf:Seq>
     <rdf:li>0, 0</rdf:li>
     <rdf:li>255, 255</rdf:li>
    </rdf:Seq>
   </crs:ToneCurvePV2012Blue>
   <crs:PointColors>
    <rdf:Seq>
     <rdf:li>-1.000000, -1.000000, -1.000000, -1.000000, -1.000000, -1.000000, -1.000000, -1.000000, -1.000000, -1.000000, -1.000000, -1.000000, -1.000000, -1.000000, -1.000000, -1.000000, -1.000000, -1.000000, -1.000000</rdf:li>
    </rdf:Seq>
   </crs:PointColors>
  </rdf:Description>
 </rdf:RDF>
</x:xmpmeta>
