MEDT/Pirringer/Unterricht/2025-02-26/Korrektur und Grading FootageFotos-20250226T115430Z-001/Korrektur und Grading FootageFotos/Bounce Color True Basic Log Conversion LUTs/Monitor LUTs 17x17/Arri Log-C to Rec.709 LUT.cube
# Converted by Briz LUT Converter
LUT_3D_SIZE 17
0.000000 0.000000 0.000000
0.000000 0.000000 0.000000
0.047242 0.000000 0.000000
0.137514 0.000000 0.000000
0.233631 0.000000 0.000000
0.344656 0.000000 0.000000
0.473854 0.000000 0.000000
0.619669 0.000000 0.000000
0.774151 0.000000 0.000000
0.923339 0.000000 0.000000
1.000000 0.000000 0.000000
1.000000 0.000000 0.000000
1.000000 0.000000 0.000000
1.000000 0.000000 0.000000
1.000000 0.000000 0.000000
1.000000 0.000000 0.000000
1.000000 0.000000 0.000000
0.000000 0.000000 0.000000
0.000000 0.000000 0.000000
0.047242 0.000000 0.000000
0.137514 0.000000 0.000000
0.233631 0.000000 0.000000
0.344656 0.000000 0.000000
0.473854 0.000000 0.000000
0.619669 0.000000 0.000000
0.774151 0.000000 0.000000
0.923339 0.000000 0.000000
1.000000 0.000000 0.000000
1.000000 0.000000 0.000000
1.000000 0.000000 0.000000
1.000000 0.000000 0.000000
1.000000 0.000000 0.000000
1.000000 0.000000 0.000000
1.000000 0.000000 0.000000
0.000000 0.038971 0.000000
0.000000 0.038971 0.000000
0.031540 0.036912 0.000000
0.125887 0.032517 0.000000
0.226108 0.025193 0.000000
0.339391 0.012818 0.000000
0.470024 0.000000 0.000000
0.616754 0.000000 0.000000
0.771862 0.000000 0.000000
0.921447 0.000000 0.000000
1.000000 0.000000 0.000000
1.000000 0.000000 0.000000
1.000000 0.000000 0.000000
1.000000 0.000000 0.000000
1.000000 0.000000 0.000000
1.000000 0.000000 0.000000
1.000000 0.000000 0.000000
0.000000 0.117906 0.000000
0.000000 0.117906 0.000000
0.000000 0.116258 0.000000
0.098222 0.112673 0.000000
0.209247 0.106538 0.000000
0.327886 0.095628 0.000000
0.461707 0.076066 0.000000
0.610498 0.045838 0.000000
0.766949 0.004471 0.000000
0.917403 0.000000 0.000000
1.000000 0.000000 0.000000
1.000000 0.000000 0.000000
1.000000 0.000000 0.000000
1.000000 0.000000 0.000000
1.000000 0.000000 0.000000
1.000000 0.000000 0.000000
1.000000 0.000000 0.000000
0.000000 0.206073 0.000000
0.000000 0.206073 0.000000
0.000000 0.204974 0.000000
0.043137 0.202640 0.000000
0.178378 0.198703 0.000000
0.307836 0.191897 0.000000
0.447532 0.180468 0.000000
0.599939 0.162005 0.000000
0.758694 0.133822 0.000000
0.910628 0.093385 0.000000
1.000000 0.043214 0.000000
1.000000 0.000000 0.000000
1.000000 0.000000 0.000000
1.000000 0.000000 0.000000
1.000000 0.000000 0.000000
1.000000 0.000000 0.000000
1.000000 0.000000 0.000000
0.000000 0.307897 0.000000
0.000000 0.307897 0.000000
0.000000 0.307134 0.000000
0.000000 0.305486 0.000000
0.113649 0.302754 0.000000
0.270954 0.298070 0.000000
0.422538 0.290349 0.000000
0.581659 0.278309 0.000000
0.744549 0.261036 0.000000
0.899077 0.238956 0.000000
1.000000 0.214466 0.000000
1.000000 0.191165 0.000000
1.000000 0.172000 0.000000
1.000000 0.158068 0.000000
1.000000 0.157275 0.000000
1.000000 0.157275 0.000000
1.000000 0.157275 0.000000
0.000000 0.426383 0.000000
0.000000 0.426383 0.000000
0.000000 0.425818 0.000000
0.000000 0.424628 0.000000
0.000000 0.422629 0.000000
0.199283 0.419242 0.000000
0.378698 0.413687 0.000000
0.550759 0.405173 0.000000
0.721019 0.393210 0.000000
0.880034 0.378439 0.000000
1.000000 0.362783 0.000000
1.000000 0.348653 0.000000
1.000000 0.337667 0.000000
1.000000 0.330053 0.000000
1.000000 0.329625 0.000000
1.000000 0.329625 0.000000
1.000000 0.329625 0.000000
0.000000 0.560098 0.000000
0.000000 0.560098 0.000000
0.000000 0.559686 0.000000
0.000000 0.558770 0.000000
0.000000 0.557260 0.000000
0.017884 0.554711 0.000000
0.301015 0.550546 0.000000
0.500282 0.544182 0.000000
0.683803 0.535363 0.000000
0.850340 0.524620 0.000000
0.989563 0.513420 0.000000
1.000000 0.503517 0.000000
1.000000 0.495918 0.000000
1.000000 0.490730 0.000000
1.000000 0.490440 0.000000
1.000000 0.490440 0.000000
1.000000 0.490440 0.000000
0.000000 0.701778 0.000000
0.000000 0.701778 0.000000
0.000000 0.701442 0.000000
0.000000 0.700740 0.000000
0.000000 0.699550 0.000000
0.000000 0.697536 0.000000
0.146807 0.694270 0.000000
0.421378 0.689296 0.000000
0.629099 0.682445 0.000000
0.807797 0.674144 0.000000
0.953826 0.665568 0.000000
1.000000 0.658045 0.000000
1.000000 0.652323 0.000000
1.000000 0.648432 0.000000
1.000000 0.648219 0.000000
1.000000 0.648219 0.000000
1.000000 0.648219 0.000000
0.000000 0.838605 0.000000
0.000000 0.838605 0.000000
0.000000 0.838331 0.000000
0.000000 0.837751 0.000000
0.000000 0.836759 0.000000
0.000000 0.835111 0.000000
0.000000 0.832425 0.000000
0.301717 0.828351 0.000000
0.556252 0.822736 0.000000
0.753506 0.815961 0.000000
0.909087 0.809003 0.000000
1.000000 0.802915 0.000000
1.000000 0.798291 0.000000
1.000000 0.795163 0.000000
1.000000 0.794995 0.000000
1.000000 0.794995 0.000000
1.000000 0.794995 0.000000
0.000000 0.956634 0.000000
0.000000 0.956634 0.000000
0.000000 0.956390 0.000000
0.000000 0.955886 0.000000
0.000000 0.955047 0.000000
0.000000 0.953613 0.000000
0.000000 0.951293 0.000000
0.094087 0.947768 0.000000
0.470054 0.942931 0.000000
0.693401 0.937118 0.000000
0.860807 0.931136 0.000000
0.981353 0.925917 0.000000
1.000000 0.921981 0.000000
1.000000 0.919310 0.000000
1.000000 0.919158 0.000000
1.000000 0.919158 0.000000
1.000000 0.919158 0.000000
0.000000 1.000000 0.000000
0.000000 1.000000 0.000000
0.000000 1.000000 0.000000
0.000000 1.000000 0.000000
0.000000 1.000000 0.000000
0.000000 1.000000 0.000000
0.000000 1.000000 0.000000
0.000000 1.000000 0.000000
0.379660 1.000000 0.000000
0.636378 1.000000 0.000000
0.816419 1.000000 0.000000
0.943206 1.000000 0.000000
1.000000 1.000000 0.000000
1.000000 1.000000 0.000000
1.000000 1.000000 0.000000
1.000000 1.000000 0.000000
1.000000 1.000000 0.000000
0.000000 1.000000 0.000000
0.000000 1.000000 0.000000
0.000000 1.000000 0.000000
0.000000 1.000000 0.000000
0.000000 1.000000 0.000000
0.000000 1.000000 0.000000
0.000000 1.000000 0.000000
0.000000 1.000000 0.000000
0.294575 1.000000 0.000000
0.589624 1.000000 0.000000
0.781201 1.000000 0.000000
0.913329 1.000000 0.000000
1.000000 1.000000 0.000000
1.000000 1.000000 0.000000
1.000000 1.000000 0.000000
1.000000 1.000000 0.000000
1.000000 1.000000 0.000000
0.000000 1.000000 0.000000
0.000000 1.000000 0.000000
0.000000 1.000000 0.000000
0.000000 1.000000 0.000000
0.000000 1.000000 0.000000
0.000000 1.000000 0.000000
0.000000 1.000000 0.000000
0.000000 1.000000 0.000000
0.221195 1.000000 0.000000
0.555734 1.000000 0.000000
0.756420 1.000000 0.000000
0.892546 1.000000 0.000000
0.981537 1.000000 0.000000
1.000000 1.000000 0.000000
1.000000 1.000000 0.000000
1.000000 1.000000 0.000000
1.000000 1.000000 0.000000
0.000000 1.000000 0.000000
0.000000 1.000000 0.000000
0.000000 1.000000 0.000000
0.000000 1.000000 0.000000
0.000000 1.000000 0.000000
0.000000 1.000000 0.000000
0.000000 1.000000 0.000000
0.000000 1.000000 0.000000
0.216541 1.000000 0.000000
0.553811 1.000000 0.000000
0.755032 1.000000 0.000000
0.891386 1.000000 0.000000
0.980499 1.000000 0.000000
1.000000 1.000000 0.000000
1.000000 1.000000 0.000000
1.000000 1.000000 0.000000
1.000000 1.000000 0.000000
0.000000 1.000000 0.000000
0.000000 1.000000 0.000000
0.000000 1.000000 0.000000
0.000000 1.000000 0.000000
0.000000 1.000000 0.000000
0.000000 1.000000 0.000000
0.000000 1.000000 0.000000
0.000000 1.000000 0.000000
0.216541 1.000000 0.000000
0.553811 1.000000 0.000000
0.755032 1.000000 0.000000
0.891386 1.000000 0.000000
0.980499 1.000000 0.000000
1.000000 1.000000 0.000000
1.000000 1.000000 0.000000
1.000000 1.000000 0.000000
1.000000 1.000000 0.000000
0.000000 1.000000 0.000000
0.000000 1.000000 0.000000
0.000000 1.000000 0.000000
0.000000 1.000000 0.000000
0.000000 1.000000 0.000000
0.000000 1.000000 0.000000
0.000000 1.000000 0.000000
0.000000 1.000000 0.000000
0.216541 1.000000 0.000000
0.553811 1.000000 0.000000
0.755032 1.000000 0.000000
0.891386 1.000000 0.000000
0.980499 1.000000 0.000000
1.000000 1.000000 0.000000
1.000000 1.000000 0.000000
1.000000 1.000000 0.000000
1.000000 1.000000 0.000000
0.000000 0.000000 0.000000
0.000000 0.000000 0.000000
0.047242 0.000000 0.000000
0.137514 0.000000 0.000000
0.233631 0.000000 0.000000
0.344656 0.000000 0.000000
0.473854 0.000000 0.000000
0.619669 0.000000 0.000000
0.774151 0.000000 0.000000
0.923339 0.000000 0.000000
1.000000 0.000000 0.000000
1.000000 0.000000 0.000000
1.000000 0.000000 0.000000
1.000000 0.000000 0.000000
1.000000 0.000000 0.000000
1.000000 0.000000 0.000000
1.000000 0.000000 0.000000
0.000000 0.000000 0.000000
0.000000 0.000000 0.000000
0.047242 0.000000 0.000000
0.137514 0.000000 0.000000
0.233631 0.000000 0.000000
0.344656 0.000000 0.000000
0.473854 0.000000 0.000000
0.619669 0.000000 0.000000
0.774151 0.000000 0.000000
0.923339 0.000000 0.000000
1.000000 0.000000 0.000000
1.000000 0.000000 0.000000
1.000000 0.000000 0.000000
1.000000 0.000000 0.000000
1.000000 0.000000 0.000000
1.000000 0.000000 0.000000
1.000000 0.000000 0.000000
0.000000 0.038971 0.000000
0.000000 0.038971 0.000000
0.031540 0.036912 0.000000
0.125887 0.032517 0.000000
0.226108 0.025193 0.000000
0.339391 0.012818 0.000000
0.470024 0.000000 0.000000
0.616754 0.000000 0.000000
0.771862 0.000000 0.000000
0.921447 0.000000 0.000000
1.000000 0.000000 0.000000
1.000000 0.000000 0.000000
1.000000 0.000000 0.000000
1.000000 0.000000 0.000000
1.000000 0.000000 0.000000
1.000000 0.000000 0.000000
1.000000 0.000000 0.000000
0.000000 0.117906 0.000000
0.000000 0.117906 0.000000
0.000000 0.116258 0.000000
0.098222 0.112673 0.000000
0.209247 0.106538 0.000000
0.327886 0.095628 0.000000
0.461707 0.076066 0.000000
0.610498 0.045838 0.000000
0.766949 0.004471 0.000000
0.917403 0.000000 0.000000
1.000000 0.000000 0.000000
1.000000 0.000000 0.000000
1.000000 0.000000 0.000000
1.000000 0.000000 0.000000
1.000000 0.000000 0.000000
1.000000 0.000000 0.000000
1.000000 0.000000 0.000000
0.000000 0.206073 0.000000
0.000000 0.206073 0.000000
0.000000 0.204974 0.000000
0.043137 0.202640 0.000000
0.178378 0.198703 0.000000
0.307836 0.191897 0.000000
0.447532 0.180468 0.000000
0.599939 0.162005 0.000000
0.758694 0.133822 0.000000
0.910628 0.093385 0.000000
1.000000 0.043214 0.000000
1.000000 0.000000 0.000000
1.000000 0.000000 0.000000
1.000000 0.000000 0.000000
1.000000 0.000000 0.000000
1.000000 0.000000 0.000000
1.000000 0.000000 0.000000
0.000000 0.307897 0.000000
0.000000 0.307897 0.000000
0.000000 0.307134 0.000000
0.000000 0.305486 0.000000
0.113649 0.302754 0.000000
0.270954 0.298070 0.000000
0.422538 0.290349 0.000000
0.581659 0.278309 0.000000
0.744549 0.261036 0.000000
0.899077 0.238956 0.000000
1.000000 0.214466 0.000000
1.000000 0.191165 0.000000
1.000000 0.172000 0.000000
1.000000 0.158068 0.000000
1.000000 0.157275 0.000000
1.000000 0.157275 0.000000
1.000000 0.157275 0.000000
0.000000 0.426383 0.000000
0.000000 0.426383 0.000000
0.000000 0.425818 0.000000
0.000000 0.424628 0.000000
0.000000 0.422629 0.000000
0.199283 0.419242 0.000000
0.378698 0.413687 0.000000
0.550759 0.405173 0.000000
0.721019 0.393210 0.000000
0.880034 0.378439 0.000000
1.000000 0.362783 0.000000
1.000000 0.348653 0.000000
1.000000 0.337667 0.000000
1.000000 0.330053 0.000000
1.000000 0.329625 0.000000
1.000000 0.329625 0.000000
1.000000 0.329625 0.000000
0.000000 0.560098 0.000000
0.000000 0.560098 0.000000
0.000000 0.559686 0.000000
0.000000 0.558770 0.000000
0.000000 0.557260 0.000000
0.017884 0.554711 0.000000
0.301015 0.550546 0.000000
0.500282 0.544182 0.000000
0.683803 0.535363 0.000000
0.850340 0.524620 0.000000
0.989563 0.513420 0.000000
1.000000 0.503517 0.000000
1.000000 0.495918 0.000000
1.000000 0.490730 0.000000
1.000000 0.490440 0.000000
1.000000 0.490440 0.000000
1.000000 0.490440 0.000000
0.000000 0.701778 0.000000
0.000000 0.701778 0.000000
0.000000 0.701442 0.000000
0.000000 0.700740 0.000000
0.000000 0.699550 0.000000
0.000000 0.697536 0.000000
0.146807 0.694270 0.000000
0.421378 0.689296 0.000000
0.629099 0.682445 0.000000
0.807797 0.674144 0.000000
0.953826 0.665568 0.000000
1.000000 0.658045 0.000000
1.000000 0.652323 0.000000
1.000000 0.648432 0.000000
1.000000 0.648219 0.000000
1.000000 0.648219 0.000000
1.000000 0.648219 0.000000
0.000000 0.838605 0.000000
0.000000 0.838605 0.000000
0.000000 0.838331 0.000000
0.000000 0.837751 0.000000
0.000000 0.836759 0.000000
0.000000 0.835111 0.000000
0.000000 0.832425 0.000000
0.301717 0.828351 0.000000
0.556252 0.822736 0.000000
0.753506 0.815961 0.000000
0.909087 0.809003 0.000000
1.000000 0.802915 0.000000
1.000000 0.798291 0.000000
1.000000 0.795163 0.000000
1.000000 0.794995 0.000000
1.000000 0.794995 0.000000
1.000000 0.794995 0.000000
0.000000 0.956634 0.000000
0.000000 0.956634 0.000000
0.000000 0.956390 0.000000
0.000000 0.955886 0.000000
0.000000 0.955047 0.000000
0.000000 0.953613 0.000000
0.000000 0.951293 0.000000
0.094087 0.947768 0.000000
0.470054 0.942931 0.000000
0.693401 0.937118 0.000000
0.860807 0.931136 0.000000
0.981353 0.925917 0.000000
1.000000 0.921981 0.000000
1.000000 0.919310 0.000000
1.000000 0.919158 0.000000
1.000000 0.919158 0.000000
1.000000 0.919158 0.000000
0.000000 1.000000 0.000000
0.000000 1.000000 0.000000
0.000000 1.000000 0.000000
0.000000 1.000000 0.000000
0.000000 1.000000 0.000000
0.000000 1.000000 0.000000
0.000000 1.000000 0.000000
0.000000 1.000000 0.000000
0.379660 1.000000 0.000000
0.636378 1.000000 0.000000
0.816419 1.000000 0.000000
0.943206 1.000000 0.000000
1.000000 1.000000 0.000000
1.000000 1.000000 0.000000
1.000000 1.000000 0.000000
1.000000 1.000000 0.000000
1.000000 1.000000 0.000000
0.000000 1.000000 0.000000
0.000000 1.000000 0.000000
0.000000 1.000000 0.000000
0.000000 1.000000 0.000000
0.000000 1.000000 0.000000
0.000000 1.000000 0.000000
0.000000 1.000000 0.000000
0.000000 1.000000 0.000000
0.294575 1.000000 0.000000
0.589624 1.000000 0.000000
0.781201 1.000000 0.000000
0.913329 1.000000 0.000000
1.000000 1.000000 0.000000
1.000000 1.000000 0.000000
1.000000 1.000000 0.000000
1.000000 1.000000 0.000000
1.000000 1.000000 0.000000
0.000000 1.000000 0.000000
0.000000 1.000000 0.000000
0.000000 1.000000 0.000000
0.000000 1.000000 0.000000
0.000000 1.000000 0.000000
0.000000 1.000000 0.000000
0.000000 1.000000 0.000000
0.000000 1.000000 0.000000
0.221195 1.000000 0.000000
0.555734 1.000000 0.000000
0.756420 1.000000 0.000000
0.892546 1.000000 0.000000
0.981537 1.000000 0.000000
1.000000 1.000000 0.000000
1.000000 1.000000 0.000000
1.000000 1.000000 0.000000
1.000000 1.000000 0.000000
0.000000 1.000000 0.000000
0.000000 1.000000 0.000000
0.000000 1.000000 0.000000
0.000000 1.000000 0.000000
0.000000 1.000000 0.000000
0.000000 1.000000 0.000000
0.000000 1.000000 0.000000
0.000000 1.000000 0.000000
0.216541 1.000000 0.000000
0.553811 1.000000 0.000000
0.755032 1.000000 0.000000
0.891386 1.000000 0.000000
0.980499 1.000000 0.000000
1.000000 1.000000 0.000000
1.000000 1.000000 0.000000
1.000000 1.000000 0.000000
1.000000 1.000000 0.000000
0.000000 1.000000 0.000000
0.000000 1.000000 0.000000
0.000000 1.000000 0.000000
0.000000 1.000000 0.000000
0.000000 1.000000 0.000000
0.000000 1.000000 0.000000
0.000000 1.000000 0.000000
0.000000 1.000000 0.000000
0.216541 1.000000 0.000000
0.553811 1.000000 0.000000
0.755032 1.000000 0.000000
0.891386 1.000000 0.000000
0.980499 1.000000 0.000000
1.000000 1.000000 0.000000
1.000000 1.000000 0.000000
1.000000 1.000000 0.000000
1.000000 1.000000 0.000000
0.000000 1.000000 0.000000
0.000000 1.000000 0.000000
0.000000 1.000000 0.000000
0.000000 1.000000 0.000000
0.000000 1.000000 0.000000
0.000000 1.000000 0.000000
0.000000 1.000000 0.000000
0.000000 1.000000 0.000000
0.216541 1.000000 0.000000
0.553811 1.000000 0.000000
0.755032 1.000000 0.000000
0.891386 1.000000 0.000000
0.980499 1.000000 0.000000
1.000000 1.000000 0.000000
1.000000 1.000000 0.000000
1.000000 1.000000 0.000000
1.000000 1.000000 0.000000
0.000000 0.000000 0.036454
0.000000 0.000000 0.036454
0.044892 0.000000 0.035828
0.135821 0.000000 0.034516
0.232517 0.000000 0.032319
0.343877 0.000000 0.028626
0.473289 0.000000 0.022644
0.619226 0.000000 0.013611
0.773800 0.000000 0.001236
0.923049 0.000000 0.000000
1.000000 0.000000 0.000000
1.000000 0.000000 0.000000
1.000000 0.000000 0.000000
1.000000 0.000000 0.000000
1.000000 0.000000 0.000000
1.000000 0.000000 0.000000
1.000000 0.000000 0.000000
0.000000 0.000000 0.036454
0.000000 0.000000 0.036454
0.044892 0.000000 0.035828
0.135821 0.000000 0.034516
0.232517 0.000000 0.032319
0.343877 0.000000 0.028626
0.473289 0.000000 0.022644
0.619226 0.000000 0.013611
0.773800 0.000000 0.001236
0.923049 0.000000 0.000000
1.000000 0.000000 0.000000
1.000000 0.000000 0.000000
1.000000 0.000000 0.000000
1.000000 0.000000 0.000000
1.000000 0.000000 0.000000
1.000000 0.000000 0.000000
1.000000 0.000000 0.000000
0.000000 0.031266 0.029816
0.000000 0.031266 0.029816
0.029206 0.029206 0.029206
0.124086 0.024796 0.027894
0.224964 0.017472 0.025696
0.338598 0.005112 0.022003
0.469444 0.000000 0.016022
0.616327 0.000000 0.006973
0.771511 0.000000 0.000000
0.921172 0.000000 0.000000
1.000000 0.000000 0.000000
1.000000 0.000000 0.000000
1.000000 0.000000 0.000000
1.000000 0.000000 0.000000
1.000000 0.000000 0.000000
1.000000 0.000000 0.000000
1.000000 0.000000 0.000000
0.000000 0.111635 0.015671
0.000000 0.111635 0.015671
0.000000 0.109926 0.015045
0.096101 0.106203 0.013733
0.208026 0.099824 0.011536
0.327062 0.088441 0.007843
0.461128 0.068360 0.001862
0.610071 0.038117 0.000000
0.766598 0.000000 0.000000
0.917128 0.000000 0.000000
1.000000 0.000000 0.000000
1.000000 0.000000 0.000000
1.000000 0.000000 0.000000
1.000000 0.000000 0.000000
1.000000 0.000000 0.000000
1.000000 0.000000 0.000000
1.000000 0.000000 0.000000
0.000000 0.201968 0.000000
0.000000 0.201968 0.000000
0.000000 0.200870 0.000000
0.040803 0.198489 0.000000
0.176989 0.194476 0.000000
0.306966 0.187564 0.000000
0.446937 0.175906 0.000000
0.599496 0.157046 0.000000
0.758343 0.128084 0.000000
0.910353 0.086076 0.000000
1.000000 0.035508 0.000000
1.000000 0.000000 0.000000
1.000000 0.000000 0.000000
1.000000 0.000000 0.000000
1.000000 0.000000 0.000000
1.000000 0.000000 0.000000
1.000000 0.000000 0.000000
0.000000 0.305028 0.000000
0.000000 0.305028 0.000000
0.000000 0.304250 0.000000
0.000000 0.302602 0.000000
0.111727 0.299840 0.000000
0.269978 0.295109 0.000000
0.421897 0.287312 0.000000
0.581201 0.275166 0.000000
0.744183 0.257694 0.000000
0.898787 0.235355 0.000000
1.000000 0.210513 0.000000
1.000000 0.186816 0.000000
1.000000 0.167254 0.000000
1.000000 0.153002 0.000000
1.000000 0.152193 0.000000
1.000000 0.152193 0.000000
1.000000 0.152193 0.000000
0.000000 0.424292 0.000000
0.000000 0.424292 0.000000
0.000000 0.423728 0.000000
0.000000 0.422522 0.000000
0.000000 0.420508 0.000000
0.198016 0.417105 0.000000
0.377981 0.411536 0.000000
0.550271 0.402960 0.000000
0.720653 0.390936 0.000000
0.879744 0.376089 0.000000
1.000000 0.360327 0.000000
1.000000 0.346105 0.000000
1.000000 0.335042 0.000000
1.000000 0.327367 0.000000
1.000000 0.326940 0.000000
1.000000 0.326940 0.000000
1.000000 0.326940 0.000000
0.000000 0.558511 0.000000
0.000000 0.558511 0.000000
0.000000 0.558099 0.000000
0.000000 0.557183 0.000000
0.000000 0.555673 0.000000
0.015534 0.553109 0.000000
0.300130 0.548928 0.000000
0.499733 0.542550 0.000000
0.683421 0.533700 0.000000
0.850034 0.522911 0.000000
0.989303 0.511681 0.000000
1.000000 0.501747 0.000000
1.000000 0.494118 0.000000
1.000000 0.488914 0.000000
1.000000 0.488624 0.000000
1.000000 0.488624 0.000000
1.000000 0.488624 0.000000
0.000000 0.700526 0.000000
0.000000 0.700526 0.000000
0.000000 0.700206 0.000000
0.000000 0.699489 0.000000
0.000000 0.698299 0.000000
0.000000 0.696284 0.000000
0.145190 0.693004 0.000000
0.420737 0.688029 0.000000
0.628672 0.681163 0.000000
0.807477 0.672847 0.000000
0.953567 0.664256 0.000000
1.000000 0.656703 0.000000
1.000000 0.650965 0.000000
1.000000 0.647074 0.000000
1.000000 0.646860 0.000000
1.000000 0.646860 0.000000
1.000000 0.646860 0.000000
0.000000 0.837583 0.000000
0.000000 0.837583 0.000000
0.000000 0.837308 0.000000
0.000000 0.836713 0.000000
0.000000 0.835737 0.000000
0.000000 0.834073 0.000000
0.000000 0.831388 0.000000
0.300832 0.827298 0.000000
0.555779 0.821683 0.000000
0.753155 0.814908 0.000000
0.908797 0.807935 0.000000
1.000000 0.801831 0.000000
1.000000 0.797208 0.000000
1.000000 0.794079 0.000000
1.000000 0.793896 0.000000
1.000000 0.793896 0.000000
1.000000 0.793896 0.000000
0.000000 0.955749 0.000000
0.000000 0.955749 0.000000
0.000000 0.955505 0.000000
0.000000 0.955001 0.000000
0.000000 0.954147 0.000000
0.000000 0.952712 0.000000
0.000000 0.950393 0.000000
0.091920 0.946868 0.000000
0.469490 0.942031 0.000000
0.693019 0.936202 0.000000
0.860502 0.930220 0.000000
0.981094 0.925002 0.000000
1.000000 0.921050 0.000000
1.000000 0.918379 0.000000
1.000000 0.918227 0.000000
1.000000 0.918227 0.000000
1.000000 0.918227 0.000000
0.000000 1.000000 0.000000
0.000000 1.000000 0.000000
0.000000 1.000000 0.000000
0.000000 1.000000 0.000000
0.000000 1.000000 0.000000
0.000000 1.000000 0.000000
0.000000 1.000000 0.000000
0.000000 1.000000 0.000000
0.378943 1.000000 0.000000
0.635966 1.000000 0.000000
0.816098 1.000000 0.000000
0.942931 1.000000 0.000000
1.000000 1.000000 0.000000
1.000000 1.000000 0.000000
1.000000 1.000000 0.000000
1.000000 1.000000 0.000000
1.000000 1.000000 0.000000
0.000000 1.000000 0.000000
0.000000 1.000000 0.000000
0.000000 1.000000 0.000000
0.000000 1.000000 0.000000
0.000000 1.000000 0.000000
0.000000 1.000000 0.000000
0.000000 1.000000 0.000000
0.000000 1.000000 0.000000
0.293675 1.000000 0.000000
0.589166 1.000000 0.000000
0.780865 1.000000 0.000000
0.913054 1.000000 0.000000
1.000000 1.000000 0.000000
1.000000 1.000000 0.000000
1.000000 1.000000 0.000000
1.000000 1.000000 0.000000
1.000000 1.000000 0.000000
0.000000 1.000000 0.000000
0.000000 1.000000 0.000000
0.000000 1.000000 0.000000
0.000000 1.000000 0.000000
0.000000 1.000000 0.000000
0.000000 1.000000 0.000000
0.000000 1.000000 0.000000
0.000000 1.000000 0.000000
0.220035 1.000000 0.000000
0.555245 1.000000 0.000000
0.756069 1.000000 0.000000
0.892256 1.000000 0.000000
0.981277 1.000000 0.000000
1.000000 1.000000 0.000000
1.000000 1.000000 0.000000
1.000000 1.000000 0.000000
1.000000 1.000000 0.000000
0.000000 1.000000 0.000000
0.000000 1.000000 0.000000
0.000000 1.000000 0.000000
0.000000 1.000000 0.000000
0.000000 1.000000 0.000000
0.000000 1.000000 0.000000
0.000000 1.000000 0.000000
0.000000 1.000000 0.000000
0.215351 1.000000 0.000000
0.553323 1.000000 0.000000
0.754681 1.000000 0.000000
0.891096 1.000000 0.000000
0.980240 1.000000 0.000000
1.000000 1.000000 0.000000
1.000000 1.000000 0.000000
1.000000 1.000000 0.000000
1.000000 1.000000 0.000000
0.000000 1.000000 0.000000
0.000000 1.000000 0.000000
0.000000 1.000000 0.000000
0.000000 1.000000 0.000000
0.000000 1.000000 0.000000
0.000000 1.000000 0.000000
0.000000 1.000000 0.000000
0.000000 1.000000 0.000000
0.215351 1.000000 0.000000
0.553323 1.000000 0.000000
0.754681 1.000000 0.000000
0.891096 1.000000 0.000000
0.980240 1.000000 0.000000
1.000000 1.000000 0.000000
1.000000 1.000000 0.000000
1.000000 1.000000 0.000000
1.000000 1.000000 0.000000
0.000000 1.000000 0.000000
0.000000 1.000000 0.000000
0.000000 1.000000 0.000000
0.000000 1.000000 0.000000
0.000000 1.000000 0.000000
0.000000 1.000000 0.000000
0.000000 1.000000 0.000000
0.000000 1.000000 0.000000
0.215351 1.000000 0.000000
0.553323 1.000000 0.000000
0.754681 1.000000 0.000000
0.891096 1.000000 0.000000
0.980240 1.000000 0.000000
1.000000 1.000000 0.000000
1.000000 1.000000 0.000000
1.000000 1.000000 0.000000
1.000000 1.000000 0.000000
0.000000 0.000000 0.111467
0.000000 0.000000 0.111467
0.039887 0.000000 0.110948
0.132158 0.000000 0.109850
0.230137 0.000000 0.108003
0.342199 0.000000 0.104860
0.472068 0.000000 0.099626
0.618311 0.000000 0.091371
0.773083 0.000000 0.079088
0.922454 0.000000 0.064317
1.000000 0.000000 0.049241
1.000000 0.000000 0.036179
1.000000 0.000000 0.026337
1.000000 0.000000 0.019715
1.000000 0.000000 0.019348
1.000000 0.000000 0.019348
1.000000 0.000000 0.019348
0.000000 0.000000 0.111467
0.000000 0.000000 0.111467
0.039887 0.000000 0.110948
