MEDT/Pirringer/Unterricht/2025-02-26/Korrektur und Grading FootageFotos-20250226T115430Z-001/Korrektur und Grading FootageFotos/Bounce Color True Basic Log Conversion LUTs/Monitor LUTs 17x17/Blackmagic 4.6K Film Gen3 to Rec.709 LUT.cube
# Converted by Briz LUT Converter
LUT_3D_SIZE 17
0.000000 0.000000 0.000000
0.000000 0.000000 0.000000
0.061875 0.000000 0.000000
0.147784 0.000000 0.000000
0.228840 0.000000 0.000000
0.311757 0.000000 0.000000
0.398718 0.000000 0.000000
0.489555 0.000000 0.000000
0.582330 0.000000 0.000000
0.673747 0.000000 0.000000
0.759777 0.000000 0.000000
0.836606 0.000000 0.000000
0.901640 0.000000 0.000000
0.953994 0.000000 0.000000
0.994293 0.000000 0.000000
1.000000 0.000000 0.000000
1.000000 0.000000 0.000000
0.000000 0.000000 0.000000
0.000000 0.000000 0.000000
0.061875 0.000000 0.000000
0.147784 0.000000 0.000000
0.228840 0.000000 0.000000
0.311757 0.000000 0.000000
0.398718 0.000000 0.000000
0.489555 0.000000 0.000000
0.582330 0.000000 0.000000
0.673747 0.000000 0.000000
0.759777 0.000000 0.000000
0.836606 0.000000 0.000000
0.901640 0.000000 0.000000
0.953994 0.000000 0.000000
0.994293 0.000000 0.000000
1.000000 0.000000 0.000000
1.000000 0.000000 0.000000
0.007034 0.066117 0.000000
0.007034 0.066117 0.000000
0.068910 0.062104 0.000000
0.152529 0.055543 0.000000
0.232212 0.046235 0.000000
0.314321 0.033295 0.000000
0.400748 0.015808 0.000000
0.491203 0.000000 0.000000
0.583719 0.000000 0.000000
0.674937 0.000000 0.000000
0.760815 0.000000 0.000000
0.837537 0.000000 0.000000
0.902510 0.000000 0.000000
0.954803 0.000000 0.000000
0.995071 0.000000 0.000000
1.000000 0.000000 0.000000
1.000000 0.000000 0.000000
0.018524 0.155261 0.000000
0.018524 0.155261 0.000000
0.080400 0.152590 0.000000
0.160037 0.148180 0.000000
0.237629 0.141741 0.000000
0.318471 0.132418 0.000000
0.404044 0.119051 0.000000
0.493904 0.100038 0.000000
0.585977 0.072892 0.000000
0.676875 0.040269 0.000000
0.762524 0.004913 0.000000
0.839078 0.000000 0.000000
0.903929 0.000000 0.000000
0.956130 0.000000 0.000000
0.996353 0.000000 0.000000
1.000000 0.000000 0.000000
1.000000 0.000000 0.000000
0.034806 0.238758 0.000000
0.034806 0.238758 0.000000
0.096193 0.236881 0.000000
0.170260 0.233799 0.000000
0.245121 0.229358 0.000000
0.324254 0.223056 0.000000
0.408667 0.214313 0.000000
0.497688 0.202472 0.000000
0.589151 0.186999 0.000000
0.679606 0.167605 0.000000
0.764920 0.144442 0.000000
0.841245 0.118135 0.000000
0.905928 0.089586 0.000000
0.958007 0.061067 0.000000
0.998138 0.037919 0.000000
1.000000 0.020035 0.000000
1.000000 0.007919 0.000000
0.057450 0.324193 0.000000
0.057450 0.324193 0.000000
0.115587 0.322774 0.000000
0.183734 0.320439 0.000000
0.255222 0.317098 0.000000
0.332158 0.312413 0.000000
0.415015 0.305959 0.000000
0.502907 0.297398 0.000000
0.593545 0.286488 0.000000
0.683391 0.273304 0.000000
0.768261 0.258366 0.000000
0.844251 0.242557 0.000000
0.908690 0.227008 0.000000
0.960616 0.212818 0.000000
1.000000 0.200656 0.000000
1.000000 0.190829 0.000000
1.000000 0.183948 0.000000
0.088121 0.413779 0.000000
0.088121 0.413779 0.000000
0.138781 0.412665 0.000000
0.200763 0.410819 0.000000
0.268345 0.408194 0.000000
0.342550 0.404517 0.000000
0.423438 0.399512 0.000000
0.509880 0.392889 0.000000
0.599420 0.384573 0.000000
0.688457 0.374670 0.000000
0.772732 0.363638 0.000000
0.848295 0.352255 0.000000
0.912413 0.341344 0.000000
0.964126 0.331640 0.000000
1.000000 0.323552 0.000000
1.000000 0.317159 0.000000
1.000000 0.312779 0.000000
0.122271 0.507362 0.000000
0.122271 0.507362 0.000000
0.165316 0.506447 0.000000
0.221271 0.504952 0.000000
0.284566 0.502831 0.000000
0.355627 0.499855 0.000000
0.434134 0.495796 0.000000
0.518776 0.490486 0.000000
0.606973 0.483833 0.000000
0.694987 0.475975 0.000000
0.778500 0.467323 0.000000
0.853513 0.458488 0.000000
0.917235 0.450111 0.000000
0.968658 0.442741 0.000000
1.000000 0.436652 0.000000
1.000000 0.431891 0.000000
1.000000 0.428641 0.000000
0.157153 0.602960 0.000000
0.157153 0.602960 0.000000
0.194186 0.602197 0.000000
0.244587 0.600946 0.000000
0.303532 0.599161 0.000000
0.371176 0.596689 0.000000
0.447013 0.593317 0.000000
0.529580 0.588907 0.000000
0.616175 0.583413 0.000000
0.702968 0.576959 0.000000
0.785580 0.569863 0.000000
0.859907 0.562676 0.000000
0.923156 0.555901 0.000000
0.974227 0.549966 0.000000
1.000000 0.545098 0.000000
1.000000 0.541314 0.000000
1.000000 0.538735 0.000000
0.191531 0.697139 0.000000
0.191531 0.697139 0.000000
0.223880 0.696483 0.000000
0.269474 0.695415 0.000000
0.324300 0.693889 0.000000
0.388495 0.691768 0.000000
0.461540 0.688899 0.000000
0.541863 0.685130 0.000000
0.626688 0.680461 0.000000
0.712139 0.674983 0.000000
0.793713 0.668986 0.000000
0.867292 0.662913 0.000000
0.929992 0.657221 0.000000
0.980667 0.652262 0.000000
1.000000 0.648203 0.000000
1.000000 0.645045 0.000000
1.000000 0.642893 0.000000
0.223865 0.785763 0.000000
0.223865 0.785763 0.000000
0.252674 0.785199 0.000000
0.294301 0.784253 0.000000
0.345464 0.782910 0.000000
0.406455 0.781048 0.000000
0.476768 0.778531 0.000000
0.554833 0.775235 0.000000
0.637873 0.771145 0.000000
0.721920 0.766354 0.000000
0.802426 0.761135 0.000000
0.875212 0.755856 0.000000
0.937331 0.750912 0.000000
0.987594 0.746624 0.000000
1.000000 0.743099 0.000000
1.000000 0.740383 0.000000
1.000000 0.738521 0.000000
0.252750 0.864927 0.000000
0.252750 0.864927 0.000000
0.278935 0.864408 0.000000
0.317418 0.863554 0.000000
0.365530 0.862348 0.000000
0.423713 0.860685 0.000000
0.491554 0.858412 0.000000
0.567559 0.855451 0.000000
0.648890 0.851774 0.000000
0.731579 0.847486 0.000000
0.811063 0.842802 0.000000
0.883070 0.838087 0.000000
0.944625 0.833677 0.000000
0.994476 0.829831 0.000000
1.000000 0.826703 0.000000
1.000000 0.824277 0.000000
1.000000 0.822629 0.000000
0.277211 0.931930 0.000000
0.277211 0.931930 0.000000
0.301457 0.931456 0.000000
0.337560 0.930678 0.000000
0.383261 0.929564 0.000000
0.439155 0.928023 0.000000
0.504906 0.925933 0.000000
0.579110 0.923217 0.000000
0.658946 0.919829 0.000000
0.740444 0.915892 0.000000
0.818998 0.911604 0.000000
0.890303 0.907271 0.000000
0.951339 0.903227 0.000000
1.000000 0.899718 0.000000
1.000000 0.896849 0.000000
1.000000 0.894636 0.000000
1.000000 0.893126 0.000000
0.296895 0.985870 0.000000
0.296895 0.985870 0.000000
0.319768 0.985412 0.000000
0.354116 0.984680 0.000000
0.397986 0.983642 0.000000
0.452079 0.982193 0.000000
0.516167 0.980224 0.000000
0.588907 0.977676 0.000000
0.667521 0.974502 0.000000
0.748028 0.970810 0.000000
0.825803 0.966781 0.000000
0.896513 0.962737 0.000000
0.957107 0.958938 0.000000
1.000000 0.955657 0.000000
1.000000 0.952972 0.000000
1.000000 0.950896 0.000000
1.000000 0.949493 0.000000
0.312047 1.000000 0.000000
0.312047 1.000000 0.000000
0.333959 1.000000 0.000000
0.367041 1.000000 0.000000
0.409567 1.000000 0.000000
0.462303 1.000000 0.000000
0.525139 1.000000 0.000000
0.596750 1.000000 0.000000
0.674388 1.000000 0.000000
0.754116 1.000000 0.000000
0.831281 1.000000 0.000000
0.901518 1.000000 0.000000
0.961776 1.000000 0.000000
1.000000 0.998581 0.000000
1.000000 0.996033 0.000000
1.000000 0.994049 0.000000
1.000000 0.992721 0.000000
0.323308 1.000000 0.000000
0.323308 1.000000 0.000000
0.344533 1.000000 0.000000
0.376730 1.000000 0.000000
0.418296 1.000000 0.000000
0.470069 1.000000 0.000000
0.531960 1.000000 0.000000
0.602731 1.000000 0.000000
0.679652 1.000000 0.000000
0.758785 1.000000 0.000000
0.835477 1.000000 0.000000
0.905379 1.000000 0.000000
0.965362 1.000000 0.000000
1.000000 1.000000 0.000000
1.000000 1.000000 0.000000
1.000000 1.000000 0.000000
1.000000 1.000000 0.000000
0.330709 1.000000 0.000000
0.330709 1.000000 0.000000
0.351522 1.000000 0.000000
0.383154 1.000000 0.000000
0.424109 1.000000 0.000000
0.475242 1.000000 0.000000
0.536538 1.000000 0.000000
0.606744 1.000000 0.000000
0.683192 1.000000 0.000000
0.761929 1.000000 0.000000
0.838315 1.000000 0.000000
0.907973 1.000000 0.000000
0.967773 1.000000 0.000000
1.000000 1.000000 0.000000
1.000000 1.000000 0.000000
1.000000 1.000000 0.000000
1.000000 1.000000 0.000000
0.000000 0.000000 0.000000
0.000000 0.000000 0.000000
0.061875 0.000000 0.000000
0.147784 0.000000 0.000000
0.228840 0.000000 0.000000
0.311757 0.000000 0.000000
0.398718 0.000000 0.000000
0.489555 0.000000 0.000000
0.582330 0.000000 0.000000
0.673747 0.000000 0.000000
0.759777 0.000000 0.000000
0.836606 0.000000 0.000000
0.901640 0.000000 0.000000
0.953994 0.000000 0.000000
0.994293 0.000000 0.000000
1.000000 0.000000 0.000000
1.000000 0.000000 0.000000
0.000000 0.000000 0.000000
0.000000 0.000000 0.000000
0.061875 0.000000 0.000000
0.147784 0.000000 0.000000
0.228840 0.000000 0.000000
0.311757 0.000000 0.000000
0.398718 0.000000 0.000000
0.489555 0.000000 0.000000
0.582330 0.000000 0.000000
0.673747 0.000000 0.000000
0.759777 0.000000 0.000000
0.836606 0.000000 0.000000
0.901640 0.000000 0.000000
0.953994 0.000000 0.000000
0.994293 0.000000 0.000000
1.000000 0.000000 0.000000
1.000000 0.000000 0.000000
0.007034 0.066117 0.000000
0.007034 0.066117 0.000000
0.068910 0.062104 0.000000
0.152529 0.055543 0.000000
0.232212 0.046235 0.000000
0.314321 0.033295 0.000000
0.400748 0.015808 0.000000
0.491203 0.000000 0.000000
0.583719 0.000000 0.000000
0.674937 0.000000 0.000000
0.760815 0.000000 0.000000
0.837537 0.000000 0.000000
0.902510 0.000000 0.000000
0.954803 0.000000 0.000000
0.995071 0.000000 0.000000
1.000000 0.000000 0.000000
1.000000 0.000000 0.000000
0.018524 0.155261 0.000000
0.018524 0.155261 0.000000
0.080400 0.152590 0.000000
0.160037 0.148180 0.000000
0.237629 0.141741 0.000000
0.318471 0.132418 0.000000
0.404044 0.119051 0.000000
0.493904 0.100038 0.000000
0.585977 0.072892 0.000000
0.676875 0.040269 0.000000
0.762524 0.004913 0.000000
0.839078 0.000000 0.000000
0.903929 0.000000 0.000000
0.956130 0.000000 0.000000
0.996353 0.000000 0.000000
1.000000 0.000000 0.000000
1.000000 0.000000 0.000000
0.034806 0.238758 0.000000
0.034806 0.238758 0.000000
0.096193 0.236881 0.000000
0.170260 0.233799 0.000000
0.245121 0.229358 0.000000
0.324254 0.223056 0.000000
0.408667 0.214313 0.000000
0.497688 0.202472 0.000000
0.589151 0.186999 0.000000
0.679606 0.167605 0.000000
0.764920 0.144442 0.000000
0.841245 0.118135 0.000000
0.905928 0.089586 0.000000
0.958007 0.061067 0.000000
0.998138 0.037919 0.000000
1.000000 0.020035 0.000000
1.000000 0.007919 0.000000
0.057450 0.324193 0.000000
0.057450 0.324193 0.000000
0.115587 0.322774 0.000000
0.183734 0.320439 0.000000
0.255222 0.317098 0.000000
0.332158 0.312413 0.000000
0.415015 0.305959 0.000000
0.502907 0.297398 0.000000
0.593545 0.286488 0.000000
0.683391 0.273304 0.000000
0.768261 0.258366 0.000000
0.844251 0.242557 0.000000
0.908690 0.227008 0.000000
0.960616 0.212818 0.000000
1.000000 0.200656 0.000000
1.000000 0.190829 0.000000
1.000000 0.183948 0.000000
0.088121 0.413779 0.000000
0.088121 0.413779 0.000000
0.138781 0.412665 0.000000
0.200763 0.410819 0.000000
0.268345 0.408194 0.000000
0.342550 0.404517 0.000000
0.423438 0.399512 0.000000
0.509880 0.392889 0.000000
0.599420 0.384573 0.000000
0.688457 0.374670 0.000000
0.772732 0.363638 0.000000
0.848295 0.352255 0.000000
0.912413 0.341344 0.000000
0.964126 0.331640 0.000000
1.000000 0.323552 0.000000
1.000000 0.317159 0.000000
1.000000 0.312779 0.000000
0.122271 0.507362 0.000000
0.122271 0.507362 0.000000
0.165316 0.506447 0.000000
0.221271 0.504952 0.000000
0.284566 0.502831 0.000000
0.355627 0.499855 0.000000
0.434134 0.495796 0.000000
0.518776 0.490486 0.000000
0.606973 0.483833 0.000000
0.694987 0.475975 0.000000
0.778500 0.467323 0.000000
0.853513 0.458488 0.000000
0.917235 0.450111 0.000000
0.968658 0.442741 0.000000
1.000000 0.436652 0.000000
1.000000 0.431891 0.000000
1.000000 0.428641 0.000000
0.157153 0.602960 0.000000
0.157153 0.602960 0.000000
0.194186 0.602197 0.000000
0.244587 0.600946 0.000000
0.303532 0.599161 0.000000
0.371176 0.596689 0.000000
0.447013 0.593317 0.000000
0.529580 0.588907 0.000000
0.616175 0.583413 0.000000
0.702968 0.576959 0.000000
0.785580 0.569863 0.000000
0.859907 0.562676 0.000000
0.923156 0.555901 0.000000
0.974227 0.549966 0.000000
1.000000 0.545098 0.000000
1.000000 0.541314 0.000000
1.000000 0.538735 0.000000
0.191531 0.697139 0.000000
0.191531 0.697139 0.000000
0.223880 0.696483 0.000000
0.269474 0.695415 0.000000
0.324300 0.693889 0.000000
0.388495 0.691768 0.000000
0.461540 0.688899 0.000000
0.541863 0.685130 0.000000
0.626688 0.680461 0.000000
0.712139 0.674983 0.000000
0.793713 0.668986 0.000000
0.867292 0.662913 0.000000
0.929992 0.657221 0.000000
0.980667 0.652262 0.000000
1.000000 0.648203 0.000000
1.000000 0.645045 0.000000
1.000000 0.642893 0.000000
0.223865 0.785763 0.000000
0.223865 0.785763 0.000000
0.252674 0.785199 0.000000
0.294301 0.784253 0.000000
0.345464 0.782910 0.000000
0.406455 0.781048 0.000000
0.476768 0.778531 0.000000
0.554833 0.775235 0.000000
0.637873 0.771145 0.000000
0.721920 0.766354 0.000000
0.802426 0.761135 0.000000
0.875212 0.755856 0.000000
0.937331 0.750912 0.000000
0.987594 0.746624 0.000000
1.000000 0.743099 0.000000
1.000000 0.740383 0.000000
1.000000 0.738521 0.000000
0.252750 0.864927 0.000000
0.252750 0.864927 0.000000
0.278935 0.864408 0.000000
0.317418 0.863554 0.000000
0.365530 0.862348 0.000000
0.423713 0.860685 0.000000
0.491554 0.858412 0.000000
0.567559 0.855451 0.000000
0.648890 0.851774 0.000000
0.731579 0.847486 0.000000
0.811063 0.842802 0.000000
0.883070 0.838087 0.000000
0.944625 0.833677 0.000000
0.994476 0.829831 0.000000
1.000000 0.826703 0.000000
1.000000 0.824277 0.000000
1.000000 0.822629 0.000000
0.277211 0.931930 0.000000
0.277211 0.931930 0.000000
0.301457 0.931456 0.000000
0.337560 0.930678 0.000000
0.383261 0.929564 0.000000
0.439155 0.928023 0.000000
0.504906 0.925933 0.000000
0.579110 0.923217 0.000000
0.658946 0.919829 0.000000
0.740444 0.915892 0.000000
0.818998 0.911604 0.000000
0.890303 0.907271 0.000000
0.951339 0.903227 0.000000
1.000000 0.899718 0.000000
1.000000 0.896849 0.000000
1.000000 0.894636 0.000000
1.000000 0.893126 0.000000
0.296895 0.985870 0.000000
0.296895 0.985870 0.000000
0.319768 0.985412 0.000000
0.354116 0.984680 0.000000
0.397986 0.983642 0.000000
0.452079 0.982193 0.000000
0.516167 0.980224 0.000000
0.588907 0.977676 0.000000
0.667521 0.974502 0.000000
0.748028 0.970810 0.000000
0.825803 0.966781 0.000000
0.896513 0.962737 0.000000
0.957107 0.958938 0.000000
1.000000 0.955657 0.000000
1.000000 0.952972 0.000000
1.000000 0.950896 0.000000
1.000000 0.949493 0.000000
0.312047 1.000000 0.000000
0.312047 1.000000 0.000000
0.333959 1.000000 0.000000
0.367041 1.000000 0.000000
0.409567 1.000000 0.000000
0.462303 1.000000 0.000000
0.525139 1.000000 0.000000
0.596750 1.000000 0.000000
0.674388 1.000000 0.000000
0.754116 1.000000 0.000000
0.831281 1.000000 0.000000
0.901518 1.000000 0.000000
0.961776 1.000000 0.000000
1.000000 0.998581 0.000000
1.000000 0.996033 0.000000
1.000000 0.994049 0.000000
1.000000 0.992721 0.000000
0.323308 1.000000 0.000000
0.323308 1.000000 0.000000
0.344533 1.000000 0.000000
0.376730 1.000000 0.000000
0.418296 1.000000 0.000000
0.470069 1.000000 0.000000
0.531960 1.000000 0.000000
0.602731 1.000000 0.000000
0.679652 1.000000 0.000000
0.758785 1.000000 0.000000
0.835477 1.000000 0.000000
0.905379 1.000000 0.000000
0.965362 1.000000 0.000000
1.000000 1.000000 0.000000
1.000000 1.000000 0.000000
1.000000 1.000000 0.000000
1.000000 1.000000 0.000000
0.330709 1.000000 0.000000
0.330709 1.000000 0.000000
0.351522 1.000000 0.000000
0.383154 1.000000 0.000000
0.424109 1.000000 0.000000
0.475242 1.000000 0.000000
0.536538 1.000000 0.000000
0.606744 1.000000 0.000000
0.683192 1.000000 0.000000
0.761929 1.000000 0.000000
0.838315 1.000000 0.000000
0.907973 1.000000 0.000000
0.967773 1.000000 0.000000
1.000000 1.000000 0.000000
1.000000 1.000000 0.000000
1.000000 1.000000 0.000000
1.000000 1.000000 0.000000
0.000000 0.000000 0.067643
0.000000 0.000000 0.067643
0.049683 0.000000 0.060487
0.139284 0.000000 0.048829
0.222889 0.000000 0.032273
0.307256 0.000000 0.009262
0.395178 0.000000 0.000000
0.486671 0.000000 0.000000
0.579919 0.000000 0.000000
0.671687 0.000000 0.000000
0.757961 0.000000 0.000000
0.834974 0.000000 0.000000
0.900130 0.000000 0.000000
0.952575 0.000000 0.000000
0.992950 0.000000 0.000000
1.000000 0.000000 0.000000
1.000000 0.000000 0.000000
0.000000 0.000000 0.067643
0.000000 0.000000 0.067643
0.049683 0.000000 0.060487
0.139284 0.000000 0.048829
0.222889 0.000000 0.032273
0.307256 0.000000 0.009262
0.395178 0.000000 0.000000
0.486671 0.000000 0.000000
0.579919 0.000000 0.000000
0.671687 0.000000 0.000000
0.757961 0.000000 0.000000
0.834974 0.000000 0.000000
0.900130 0.000000 0.000000
0.952575 0.000000 0.000000
0.992950 0.000000 0.000000
1.000000 0.000000 0.000000
1.000000 0.000000 0.000000
0.000000 0.060731 0.063859
0.000000 0.060731 0.063859
0.056718 0.056718 0.056718
0.144228 0.050156 0.045045
0.226337 0.040848 0.028489
0.309865 0.027909 0.005493
0.397223 0.010437 0.000000
0.488334 0.000000 0.000000
0.581308 0.000000 0.000000
0.672877 0.000000 0.000000
0.758999 0.000000 0.000000
0.835904 0.000000 0.000000
0.900999 0.000000 0.000000
0.953399 0.000000 0.000000
0.993729 0.000000 0.000000
1.000000 0.000000 0.000000
1.000000 0.000000 0.000000
0.006317 0.151690 0.057710
0.006317 0.151690 0.057710
0.068193 0.148974 0.050553
0.152041 0.144472 0.038895
0.231861 0.137911 0.022339
0.314061 0.128405 0.000000
0.400549 0.114733 0.000000
0.491035 0.095186 0.000000
0.583581 0.067521 0.000000
0.674815 0.034882 0.000000
0.760708 0.000000 0.000000
0.837446 0.000000 0.000000
0.902419 0.000000 0.000000
0.954726 0.000000 0.000000
0.994995 0.000000 0.000000
1.000000 0.000000 0.000000
1.000000 0.000000 0.000000
0.022614 0.236255 0.048966
0.022614 0.236255 0.048966
0.084703 0.234363 0.041810
0.162661 0.231235 0.030152
0.239521 0.226764 0.013596
0.319936 0.220401 0.000000
0.405203 0.211551 0.000000
0.494850 0.199573 0.000000
0.586770 0.183902 0.000000
0.677562 0.164233 0.000000
0.763119 0.140673 0.000000
0.839628 0.113787 0.000000
0.904418 0.084398 0.000000
0.956603 0.055695 0.000000
0.996796 0.032532 0.000000
1.000000 0.014649 0.000000
1.000000 0.002548 0.000000
0.045243 0.322286 0.036820
0.045243 0.322286 0.036820
0.105409 0.320851 0.029663
0.176577 0.318517 0.018006
0.249821 0.315160 0.001450
0.327932 0.310430 0.000000
0.411612 0.303960 0.000000
0.500099 0.295338 0.000000
0.591180 0.284352 0.000000
0.681361 0.271077 0.000000
0.766461 0.256016 0.000000
0.842634 0.240070 0.000000
0.907195 0.224384 0.000000
0.959213 0.210040 0.000000
0.999298 0.197742 0.000000
1.000000 0.187793 0.000000
1.000000 0.180819 0.000000
0.075822 0.412284 0.020417
0.075822 0.412284 0.020417
0.129870 0.411154 0.013260
0.194125 0.409308 0.001602
0.263172 0.406668 0.000000
0.338445 0.402991 0.000000
0.420096 0.397955 0.000000
0.507103 0.391318 0.000000
0.597086 0.382956 0.000000
0.686442 0.373007 0.000000
0.770947 0.361929 0.000000
0.846677 0.350484 0.000000
0.910933 0.339529 0.000000
0.962722 0.329778 0.000000
1.000000 0.321645 0.000000
1.000000 0.315221 0.000000
1.000000 0.310811 0.000000
0.112505 0.506142 0.000000
0.112505 0.506142 0.000000
0.157519 0.505226 0.000000
0.215152 0.503731 0.000000
0.279667 0.501595 0.000000
0.351659 0.498604 0.000000
0.430884 0.494545 0.000000
0.516060 0.489219 0.000000
0.604669 0.482551 0.000000
0.692988 0.474678 0.000000
0.776730 0.465995 0.000000
0.851911 0.457130 0.000000
0.915770 0.448722 0.000000
0.967269 0.441321 0.000000
1.000000 0.435218 0.000000
1.000000 0.430457 0.000000
1.000000 0.427192 0.000000
0.149050 0.601938 0.000000
0.149050 0.601938 0.000000
0.187335 0.601160 0.000000
0.238987 0.599908 0.000000
0.298924 0.598138 0.000000
0.367376 0.595651 0.000000
0.443854 0.592279 0.000000
0.526925 0.587854 0.000000
0.613901 0.582345 0.000000
0.700999 0.575875 0.000000
0.783825 0.568780 0.000000
0.858320 0.561578 0.000000
0.921691 0.554788 0.000000
0.972854 0.548852 0.000000
1.000000 0.543969 0.000000
1.000000 0.540169 0.000000
1.000000 0.537575 0.000000
0.184619 0.696269 0.000000
0.184619 0.696269 0.000000
0.217823 0.695613 0.000000
0.264332 0.694530 0.000000
0.319966 0.693019 0.000000
0.384863 0.690883 0.000000
0.458473 0.687999 0.000000
0.539254 0.684245 0.000000
0.624460 0.679561 0.000000
0.710185 0.674067 0.000000
0.791989 0.668070 0.000000
0.865721 0.661997 0.000000
0.928527 0.656291 0.000000
0.979294 0.651316 0.000000
1.000000 0.647242 0.000000
1.000000 0.644083 0.000000
1.000000 0.641932 0.000000
0.217807 0.785000 0.000000
0.217807 0.785000 0.000000
0.247227 0.784421 0.000000
0.289555 0.783475 0.000000
0.341390 0.782147 0.000000
0.402975 0.780270 0.000000
0.473808 0.777752 0.000000
0.552300 0.774456 0.000000
0.635676 0.770352 0.000000
0.719997 0.765560 0.000000
0.800717 0.760342 0.000000
0.873655 0.755047 0.000000
0.935882 0.750103 0.000000
0.986236 0.745800 0.000000
1.000000 0.742290 0.000000
1.000000 0.739559 0.000000
1.000000 0.737697 0.000000
0.247303 0.864225 0.000000
0.247303 0.864225 0.000000
0.273945 0.863706 0.000000
0.312993 0.862867 0.000000
0.361669 0.861662 0.000000
0.420371 0.859983 0.000000
0.488685 0.857710 0.000000
0.565072 0.854749 0.000000
0.646738 0.851072 0.000000
0.729686 0.846769 0.000000
0.809369 0.842084 0.000000
0.881529 0.837369 0.000000
0.943191 0.832944 0.000000
0.993133 0.829114 0.000000
1.000000 0.825971 0.000000
1.000000 0.823545 0.000000
1.000000 0.821897 0.000000
0.272206 0.931289 0.000000
0.272206 0.931289 0.000000
0.296818 0.930816 0.000000
0.333394 0.930037 0.000000
0.379583 0.928923 0.000000
0.435920 0.927382 0.000000
0.502113 0.925292 0.000000
0.576684 0.922560 0.000000
0.656825 0.919188 0.000000
0.738582 0.915236 0.000000
0.817334 0.910948 0.000000
0.888777 0.906615 0.000000
0.949920 0.902571 0.000000
0.999496 0.899046 0.000000
1.000000 0.896178 0.000000
1.000000 0.893965 0.000000
1.000000 0.892454 0.000000
0.292180 0.985260 0.000000
0.292180 0.985260 0.000000
0.315373 0.984817 0.000000
0.350134 0.984085 0.000000
0.394430 0.983047 0.000000
0.448936 0.981582 0.000000
0.513436 0.979629 0.000000
0.586526 0.977066 0.000000
0.665431 0.973892 0.000000
0.746181 0.970199 0.000000
0.824140 0.966171 0.000000
0.895003 0.962112 0.000000
0.955703 0.958328 0.000000
1.000000 0.955032 0.000000
1.000000 0.952361 0.000000
1.000000 0.950271 0.000000
1.000000 0.948867 0.000000
0.307561 1.000000 0.000000
0.307561 1.000000 0.000000
0.329747 1.000000 0.000000
0.363195 1.000000 0.000000
0.406119 1.000000 0.000000
0.459251 1.000000 0.000000
0.522454 1.000000 0.000000
0.594400 1.000000 0.000000
0.672328 1.000000 0.000000
0.752285 1.000000 0.000000
0.829633 1.000000 0.000000
0.900023 1.000000 0.000000
0.960372 1.000000 0.000000
1.000000 0.997986 0.000000
1.000000 0.995438 0.000000
1.000000 0.993454 0.000000
1.000000 0.992126 0.000000
0.318959 1.000000 0.000000
0.318959 1.000000 0.000000
0.340444 1.000000 0.000000
0.372976 1.000000 0.000000
0.414908 1.000000 0.000000
0.467048 1.000000 0.000000
0.529320 1.000000 0.000000
0.600397 1.000000 0.000000
0.677607 1.000000 0.000000
0.756970 1.000000 0.000000
0.833844 1.000000 0.000000
0.903883 1.000000 0.000000
0.963958 1.000000 0.000000
1.000000 1.000000 0.000000
1.000000 1.000000 0.000000
1.000000 1.000000 0.000000
1.000000 1.000000 0.000000
0.326467 1.000000 0.000000
0.326467 1.000000 0.000000
0.347509 1.000000 0.000000
0.379461 1.000000 0.000000
0.420768 1.000000 0.000000
0.472267 1.000000 0.000000
0.533913 1.000000 0.000000
0.604440 1.000000 0.000000
0.681163 1.000000 0.000000
0.760128 1.000000 0.000000
0.836683 1.000000 0.000000
0.906477 1.000000 0.000000
0.966384 1.000000 0.000000
1.000000 1.000000 0.000000
1.000000 1.000000 0.000000
1.000000 1.000000 0.000000
1.000000 1.000000 0.000000
0.000000 0.000000 0.157870
0.000000 0.000000 0.157870
0.029770 0.000000 0.153185
0.124559 0.000000 0.145281
0.212894 0.000000 0.133501
0.299794 0.000000 0.115801
0.389319 0.000000 0.088609
0.481926 0.000000 0.048157
0.575967 0.000000 0.000000
0.668299 0.000000 0.000000
0.754986 0.000000 0.000000
0.832288 0.000000 0.000000
0.897673 0.000000 0.000000
0.950271 0.000000 0.000000
0.990738 0.000000 0.000000
1.000000 0.000000 0.000000
1.000000 0.000000 0.000000
0.000000 0.000000 0.157870
0.000000 0.000000 0.157870
0.029770 0.000000 0.153185
