MEDT/Pirringer/Unterricht/2025-02-26/Korrektur und Grading FootageFotos-20250226T115430Z-001/Korrektur und Grading FootageFotos/Bounce Color True Basic Log Conversion LUTs/Monitor LUTs 17x17/BMPCC 4K Gen5 BMDFilm to Rec.709 LUT.cube
# Converted by Briz LUT Converter
LUT_3D_SIZE 17
0.000000 0.000000 0.000000
0.000000 0.000000 0.000000
0.004303 0.000000 0.000000
0.098695 0.000000 0.000000
0.204562 0.000000 0.000000
0.320165 0.000000 0.000000
0.455421 0.000000 0.000000
0.605402 0.000000 0.000000
0.752590 0.000000 0.000000
0.878965 0.000000 0.000000
0.982467 0.000000 0.000000
1.000000 0.000000 0.000000
1.000000 0.000000 0.000000
1.000000 0.000000 0.000000
1.000000 0.000000 0.000000
1.000000 0.000000 0.000000
1.000000 0.000000 0.000000
0.000000 0.000000 0.000000
0.000000 0.000000 0.000000
0.004044 0.000000 0.000000
0.097948 0.000000 0.000000
0.204471 0.000000 0.000000
0.321172 0.000000 0.000000
0.457816 0.000000 0.000000
0.610666 0.000000 0.000000
0.761105 0.000000 0.000000
0.890028 0.000000 0.000000
0.996139 0.000000 0.000000
1.000000 0.000000 0.000000
1.000000 0.000000 0.000000
1.000000 0.000000 0.000000
1.000000 0.000000 0.000000
1.000000 0.000000 0.000000
1.000000 0.000000 0.000000
0.000000 0.002380 0.000000
0.000000 0.002625 0.000000
0.002487 0.002991 0.000000
0.099840 0.000000 0.000000
0.208774 0.000000 0.000000
0.328664 0.000000 0.000000
0.469917 0.000000 0.000000
0.627832 0.000000 0.000000
0.781674 0.000000 0.000000
0.913207 0.000000 0.000000
1.000000 0.000000 0.000000
1.000000 0.000000 0.000000
1.000000 0.000000 0.000000
1.000000 0.000000 0.000000
1.000000 0.000000 0.000000
1.000000 0.000000 0.000000
1.000000 0.000000 0.000000
0.000000 0.074662 0.000000
0.000000 0.078706 0.000000
0.000000 0.083741 0.000000
0.065797 0.079194 0.000000
0.194690 0.065995 0.000000
0.325673 0.041230 0.000000
0.475441 0.001007 0.000000
0.639506 0.000000 0.000000
0.798611 0.000000 0.000000
0.931487 0.000000 0.000000
1.000000 0.000000 0.000000
1.000000 0.000000 0.000000
1.000000 0.000000 0.000000
1.000000 0.000000 0.000000
1.000000 0.000000 0.000000
1.000000 0.000000 0.000000
1.000000 0.000000 0.000000
0.000000 0.168368 0.000000
0.000000 0.175525 0.000000
0.000000 0.183093 0.000000
0.001846 0.184939 0.000000
0.157366 0.179660 0.000000
0.305608 0.165835 0.000000
0.465766 0.138415 0.000000
0.638560 0.091478 0.000000
0.802762 0.025437 0.000000
0.939040 0.000000 0.000000
1.000000 0.000000 0.000000
1.000000 0.000000 0.000000
1.000000 0.000000 0.000000
1.000000 0.000000 0.000000
1.000000 0.000000 0.000000
1.000000 0.000000 0.000000
1.000000 0.028672 0.000000
0.000000 0.270527 0.000000
0.000000 0.280644 0.000000
0.000000 0.291951 0.000000
0.000000 0.297948 0.000000
0.063661 0.298253 0.000000
0.260670 0.291951 0.000000
0.439689 0.276722 0.000000
0.623682 0.252232 0.000000
0.795758 0.222629 0.000000
0.935851 0.194812 0.000000
1.000000 0.172808 0.000000
1.000000 0.164523 0.000000
1.000000 0.171756 0.000000
1.000000 0.194034 0.000000
1.000000 0.227314 0.000000
1.000000 0.263554 0.000000
1.000000 0.300984 0.000000
0.000000 0.390417 0.000000
0.000000 0.405219 0.000000
0.000000 0.419806 0.000000
0.000000 0.430915 0.000000
0.000000 0.436271 0.000000
0.159197 0.435187 0.000000
0.384909 0.426978 0.000000
0.588830 0.412772 0.000000
0.771298 0.396231 0.000000
0.916808 0.383413 0.000000
1.000000 0.377127 0.000000
1.000000 0.378576 0.000000
1.000000 0.389654 0.000000
1.000000 0.410468 0.000000
1.000000 0.437400 0.000000
1.000000 0.467216 0.000000
1.000000 0.498512 0.000000
0.000000 0.531838 0.000000
0.000000 0.549966 0.000000
0.000000 0.568963 0.000000
0.000000 0.584344 0.000000
0.000000 0.593042 0.000000
0.000000 0.595880 0.000000
0.284245 0.592447 0.000000
0.528557 0.583139 0.000000
0.727596 0.572671 0.000000
0.881361 0.566506 0.000000
0.994324 0.564340 0.000000
1.000000 0.568719 0.000000
1.000000 0.579690 0.000000
1.000000 0.597620 0.000000
1.000000 0.620584 0.000000
1.000000 0.645411 0.000000
1.000000 0.669810 0.000000
0.000000 0.684947 0.000000
0.000000 0.706203 0.000000
0.000000 0.727108 0.000000
0.000000 0.743267 0.000000
0.000000 0.753613 0.000000
0.000000 0.757763 0.000000
0.080446 0.755077 0.000000
0.447364 0.747799 0.000000
0.672251 0.739315 0.000000
0.835355 0.733684 0.000000
0.953033 0.732052 0.000000
1.000000 0.734203 0.000000
1.000000 0.742168 0.000000
1.000000 0.755642 0.000000
1.000000 0.772763 0.000000
1.000000 0.791211 0.000000
1.000000 0.810452 0.000000
0.000000 0.833158 0.000000
0.000000 0.852750 0.000000
0.000000 0.871305 0.000000
0.000000 0.885695 0.000000
0.000000 0.893706 0.000000
0.000000 0.895872 0.000000
0.000000 0.892805 0.000000
0.358602 0.884474 0.000000
0.617533 0.875090 0.000000
0.791257 0.868666 0.000000
0.912261 0.864164 0.000000
0.993072 0.863767 0.000000
1.000000 0.868437 0.000000
1.000000 0.877501 0.000000
1.000000 0.890166 0.000000
1.000000 0.904173 0.000000
1.000000 0.918059 0.000000
0.000000 0.956664 0.000000
0.000000 0.971618 0.000000
0.000000 0.985641 0.000000
0.000000 0.994980 0.000000
0.000000 0.999298 0.000000
0.000000 0.999451 0.000000
0.000000 0.994125 0.000000
0.266316 0.984894 0.000000
0.568856 0.975265 0.000000
0.751949 0.967407 0.000000
0.877272 0.962173 0.000000
0.960311 0.960494 0.000000
1.000000 0.962493 0.000000
1.000000 0.968292 0.000000
1.000000 0.976837 0.000000
1.000000 0.985992 0.000000
1.000000 0.994934 0.000000
0.000000 1.000000 0.000000
0.000000 1.000000 0.000000
0.000000 1.000000 0.000000
0.000000 1.000000 0.000000
0.000000 1.000000 0.000000
0.000000 1.000000 0.000000
0.000000 1.000000 0.000000
0.197452 1.000000 0.000000
0.539132 1.000000 0.000000
0.728557 1.000000 0.000000
0.855161 1.000000 0.000000
0.937896 1.000000 0.000000
0.989548 1.000000 0.000000
1.000000 1.000000 0.000000
1.000000 1.000000 0.000000
1.000000 1.000000 0.000000
1.000000 1.000000 0.000000
0.000000 1.000000 0.000000
0.000000 1.000000 0.000000
0.000000 1.000000 0.000000
0.000000 1.000000 0.000000
0.000000 1.000000 0.000000
0.000000 1.000000 0.000000
0.000000 1.000000 0.000000
0.191318 1.000000 0.000000
0.538552 1.000000 0.000000
0.724773 1.000000 0.000000
0.847303 1.000000 0.000000
0.927321 1.000000 0.000000
0.976913 1.000000 0.000000
1.000000 1.000000 0.000000
1.000000 1.000000 0.000000
1.000000 1.000000 0.000000
1.000000 1.000000 0.000000
0.000000 1.000000 0.000000
0.000000 1.000000 0.000000
0.000000 1.000000 0.000000
0.000000 1.000000 0.000000
0.000000 1.000000 0.000000
0.000000 1.000000 0.000000
0.000000 1.000000 0.000000
0.248646 1.000000 0.000000
0.562066 1.000000 0.000000
0.737118 1.000000 0.000000
0.852262 1.000000 0.000000
0.926574 1.000000 0.000000
0.973083 1.000000 0.000000
1.000000 1.000000 0.000000
1.000000 1.000000 0.000000
1.000000 1.000000 0.000000
1.000000 1.000000 0.000000
0.000000 1.000000 0.000000
0.000000 1.000000 0.000000
0.000000 1.000000 0.000000
0.000000 1.000000 0.000000
0.000000 1.000000 0.000000
0.000000 1.000000 0.000000
0.000000 1.000000 0.000000
0.326802 1.000000 0.000000
0.597864 1.000000 0.000000
0.758816 1.000000 0.000000
0.863783 1.000000 0.000000
0.931991 1.000000 0.000000
0.974395 1.000000 0.000000
0.999771 1.000000 0.000000
1.000000 1.000000 0.000000
1.000000 1.000000 0.000000
1.000000 1.000000 0.000000
0.000000 1.000000 0.000000
0.000000 1.000000 0.000000
0.000000 1.000000 0.000000
0.000000 1.000000 0.000000
0.000000 1.000000 0.000000
0.000000 1.000000 0.000000
0.000000 1.000000 0.000000
0.401358 1.000000 0.000000
0.638056 1.000000 0.000000
0.781521 1.000000 0.000000
0.876326 1.000000 0.000000
0.937758 1.000000 0.000000
0.976135 1.000000 0.000000
0.999512 1.000000 0.000000
1.000000 1.000000 0.000000
1.000000 1.000000 0.000000
1.000000 1.000000 0.000000
0.000000 1.000000 0.000000
0.000000 1.000000 0.000000
0.000000 1.000000 0.000000
0.000000 1.000000 0.000000
0.000000 1.000000 0.000000
0.000000 1.000000 0.000000
0.000000 1.000000 0.000000
0.443107 1.000000 0.000000
0.659129 1.000000 0.000000
0.794156 1.000000 0.000000
0.883482 1.000000 0.000000
0.941741 1.000000 0.000000
0.978515 1.000000 0.000000
1.000000 1.000000 0.000000
1.000000 1.000000 0.000000
1.000000 1.000000 0.000000
1.000000 1.000000 0.000000
0.000000 0.000000 0.000000
0.000000 0.000000 0.000000
0.004501 0.000000 0.000000
0.098543 0.000000 0.000000
0.204593 0.000000 0.000000
0.320195 0.000000 0.000000
0.455314 0.000000 0.000000
0.605646 0.000000 0.000000
0.752880 0.000000 0.000000
0.879347 0.000000 0.000000
0.983459 0.000000 0.000000
1.000000 0.000000 0.000000
1.000000 0.000000 0.000000
1.000000 0.000000 0.000000
1.000000 0.000000 0.000000
1.000000 0.000000 0.000000
1.000000 0.000000 0.000000
0.000000 0.000000 0.000000
0.000000 0.000000 0.000000
0.003906 0.000000 0.000000
0.098131 0.000000 0.000000
0.204593 0.000000 0.000000
0.321508 0.000000 0.000000
0.458610 0.000000 0.000000
0.611856 0.000000 0.000000
0.762509 0.000000 0.000000
0.892119 0.000000 0.000000
0.998047 0.000000 0.000000
1.000000 0.000000 0.000000
1.000000 0.000000 0.000000
1.000000 0.000000 0.000000
1.000000 0.000000 0.000000
1.000000 0.000000 0.000000
1.000000 0.000000 0.000000
0.000000 0.002319 0.000000
0.000000 0.002884 0.000000
0.002976 0.003571 0.000000
0.100450 0.000000 0.000000
0.210086 0.000000 0.000000
0.330419 0.000000 0.000000
0.472068 0.000000 0.000000
0.630381 0.000000 0.000000
0.784924 0.000000 0.000000
0.916167 0.000000 0.000000
1.000000 0.000000 0.000000
1.000000 0.000000 0.000000
1.000000 0.000000 0.000000
1.000000 0.000000 0.000000
1.000000 0.000000 0.000000
1.000000 0.000000 0.000000
1.000000 0.000000 0.000000
0.000000 0.076020 0.000000
0.000000 0.080568 0.000000
0.000000 0.085603 0.000000
0.068131 0.082246 0.000000
0.197009 0.068940 0.000000
0.328222 0.044083 0.000000
0.478752 0.003983 0.000000
0.643534 0.000000 0.000000
0.802563 0.000000 0.000000
0.935424 0.000000 0.000000
1.000000 0.000000 0.000000
1.000000 0.000000 0.000000
1.000000 0.000000 0.000000
1.000000 0.000000 0.000000
1.000000 0.000000 0.000000
1.000000 0.000000 0.000000
1.000000 0.000000 0.000000
0.000000 0.170779 0.000000
0.000000 0.177966 0.000000
0.000000 0.186404 0.000000
0.004273 0.188128 0.000000
0.160525 0.183093 0.000000
0.309468 0.170016 0.000000
0.470207 0.142992 0.000000
0.643442 0.097047 0.000000
0.808148 0.031815 0.000000
0.943755 0.000000 0.000000
1.000000 0.000000 0.000000
1.000000 0.000000 0.000000
1.000000 0.000000 0.000000
1.000000 0.000000 0.000000
1.000000 0.000000 0.000000
1.000000 0.000000 0.000000
1.000000 0.038621 0.000000
0.000000 0.273655 0.000000
0.000000 0.284718 0.000000
0.000000 0.295750 0.000000
0.000000 0.302129 0.000000
0.068803 0.303212 0.000000
0.265064 0.296727 0.000000
0.444938 0.281926 0.000000
0.629969 0.258228 0.000000
0.801663 0.228901 0.000000
0.941070 0.202045 0.000000
1.000000 0.182223 0.000000
1.000000 0.174456 0.000000
1.000000 0.182254 0.000000
1.000000 0.205585 0.000000
1.000000 0.237232 0.000000
1.000000 0.271687 0.000000
1.000000 0.307317 0.000000
0.000000 0.395529 0.000000
0.000000 0.410025 0.000000
0.000000 0.425315 0.000000
0.000000 0.437034 0.000000
0.000000 0.442069 0.000000
0.165118 0.441550 0.000000
0.391211 0.433845 0.000000
0.595270 0.419364 0.000000
0.777691 0.403250 0.000000
0.922652 0.391363 0.000000
1.000000 0.384955 0.000000
1.000000 0.386862 0.000000
1.000000 0.398657 0.000000
1.000000 0.418891 0.000000
1.000000 0.445762 0.000000
1.000000 0.474342 0.000000
1.000000 0.503471 0.000000
0.000000 0.537682 0.000000
0.000000 0.556832 0.000000
0.000000 0.576181 0.000000
0.000000 0.591028 0.000000
0.000000 0.600641 0.000000
0.000000 0.603540 0.000000
0.290852 0.599588 0.000000
0.535668 0.590860 0.000000
0.734310 0.580499 0.000000
0.886427 0.573770 0.000000
0.998276 0.572244 0.000000
1.000000 0.576165 0.000000
1.000000 0.586969 0.000000
1.000000 0.605203 0.000000
1.000000 0.627237 0.000000
1.000000 0.650904 0.000000
1.000000 0.674540 0.000000
0.000000 0.692393 0.000000
0.000000 0.713451 0.000000
0.000000 0.734096 0.000000
0.000000 0.750866 0.000000
0.000000 0.760830 0.000000
0.000000 0.764553 0.000000
0.095216 0.762387 0.000000
0.454520 0.754620 0.000000
0.678035 0.745602 0.000000
0.840360 0.740490 0.000000
0.956130 0.737972 0.000000
1.000000 0.740032 0.000000
1.000000 0.748196 0.000000
1.000000 0.760723 0.000000
1.000000 0.777661 0.000000
1.000000 0.796017 0.000000
1.000000 0.814038 0.000000
0.000000 0.839689 0.000000
0.000000 0.859083 0.000000
0.000000 0.877974 0.000000
0.000000 0.891569 0.000000
0.000000 0.899275 0.000000
0.000000 0.901717 0.000000
0.000000 0.897917 0.000000
0.366140 0.889250 0.000000
0.623682 0.880217 0.000000
0.795224 0.872984 0.000000
0.914992 0.868376 0.000000
0.994965 0.868269 0.000000
1.000000 0.872328 0.000000
1.000000 0.881285 0.000000
1.000000 0.894057 0.000000
1.000000 0.907423 0.000000
1.000000 0.920806 0.000000
0.000000 0.961730 0.000000
0.000000 0.976730 0.000000
0.000000 0.990066 0.000000
0.000000 0.999146 0.000000
0.000000 1.000000 0.000000
0.000000 1.000000 0.000000
0.000000 0.997467 0.000000
0.276677 0.988357 0.000000
0.574273 0.978286 0.000000
0.755993 0.970474 0.000000
0.880232 0.965393 0.000000
0.962036 0.963317 0.000000
1.000000 0.965301 0.000000
1.000000 0.970977 0.000000
1.000000 0.979156 0.000000
1.000000 0.988266 0.000000
1.000000 0.996674 0.000000
0.000000 1.000000 0.000000
0.000000 1.000000 0.000000
0.000000 1.000000 0.000000
0.000000 1.000000 0.000000
0.000000 1.000000 0.000000
0.000000 1.000000 0.000000
0.000000 1.000000 0.000000
0.209476 1.000000 0.000000
0.545327 1.000000 0.000000
0.732769 1.000000 0.000000
0.857633 1.000000 0.000000
0.939696 1.000000 0.000000
0.990524 1.000000 0.000000
1.000000 1.000000 0.000000
1.000000 1.000000 0.000000
1.000000 1.000000 0.000000
1.000000 1.000000 0.000000
0.000000 1.000000 0.000000
0.000000 1.000000 0.000000
0.000000 1.000000 0.000000
0.000000 1.000000 0.000000
0.000000 1.000000 0.000000
0.000000 1.000000 0.000000
0.000000 1.000000 0.000000
0.204547 1.000000 0.000000
0.543755 1.000000 0.000000
0.727855 1.000000 0.000000
0.849653 1.000000 0.000000
0.928542 1.000000 0.000000
0.977707 1.000000 0.000000
1.000000 1.000000 0.000000
1.000000 1.000000 0.000000
1.000000 1.000000 0.000000
1.000000 1.000000 0.000000
0.000000 1.000000 0.000000
0.000000 1.000000 0.000000
0.000000 1.000000 0.000000
0.000000 1.000000 0.000000
0.000000 1.000000 0.000000
0.000000 1.000000 0.000000
0.000000 1.000000 0.000000
0.256382 1.000000 0.000000
0.565438 1.000000 0.000000
0.739727 1.000000 0.000000
0.853529 1.000000 0.000000
0.927367 1.000000 0.000000
0.973632 1.000000 0.000000
1.000000 1.000000 0.000000
1.000000 1.000000 0.000000
1.000000 1.000000 0.000000
1.000000 1.000000 0.000000
0.000000 1.000000 0.000000
0.000000 1.000000 0.000000
0.000000 1.000000 0.000000
0.000000 1.000000 0.000000
0.000000 1.000000 0.000000
0.000000 1.000000 0.000000
0.000000 1.000000 0.000000
0.331136 1.000000 0.000000
0.600183 1.000000 0.000000
0.759731 1.000000 0.000000
0.864408 1.000000 0.000000
0.932311 1.000000 0.000000
0.974365 1.000000 0.000000
0.999741 1.000000 0.000000
1.000000 1.000000 0.000000
1.000000 1.000000 0.000000
1.000000 1.000000 0.000000
0.000000 1.000000 0.000000
0.000000 1.000000 0.000000
0.000000 1.000000 0.000000
0.000000 1.000000 0.000000
0.000000 1.000000 0.000000
0.000000 1.000000 0.000000
0.000000 1.000000 0.000000
0.403082 1.000000 0.000000
0.638010 1.000000 0.000000
0.781445 1.000000 0.000000
0.876051 1.000000 0.000000
0.937224 1.000000 0.000000
0.975769 1.000000 0.000000
0.999023 1.000000 0.000000
1.000000 1.000000 0.000000
1.000000 1.000000 0.000000
1.000000 1.000000 0.000000
0.000000 1.000000 0.000000
0.000000 1.000000 0.000000
0.000000 1.000000 0.000000
0.000000 1.000000 0.000000
0.000000 1.000000 0.000000
0.000000 1.000000 0.000000
0.000000 1.000000 0.000000
0.441337 1.000000 0.000000
0.657893 1.000000 0.000000
0.792920 1.000000 0.000000
0.882353 1.000000 0.000000
0.940948 1.000000 0.000000
0.977752 1.000000 0.000000
1.000000 1.000000 0.000000
1.000000 1.000000 0.000000
1.000000 1.000000 0.000000
1.000000 1.000000 0.000000
0.000000 0.000000 0.003555
0.000000 0.000000 0.003815
0.004150 0.000000 0.003403
0.098405 0.000000 0.000000
0.204242 0.000000 0.000000
0.319905 0.000000 0.000000
0.455299 0.000000 0.000000
0.605539 0.000000 0.000000
0.753063 0.000000 0.000000
0.879911 0.000000 0.000000
0.984222 0.000000 0.000000
1.000000 0.000000 0.000000
1.000000 0.000000 0.000000
1.000000 0.000000 0.000000
1.000000 0.000000 0.000000
1.000000 0.000000 0.000000
1.000000 0.000000 0.000000
0.000000 0.000000 0.003906
0.000000 0.000000 0.003586
0.003754 0.000000 0.003067
0.097841 0.000000 0.000000
0.204761 0.000000 0.000000
0.321965 0.000000 0.000000
0.459129 0.000000 0.000000
0.613169 0.000000 0.000000
0.764172 0.000000 0.000000
0.893935 0.000000 0.000000
0.999969 0.000000 0.000000
1.000000 0.000000 0.000000
1.000000 0.000000 0.000000
1.000000 0.000000 0.000000
1.000000 0.000000 0.000000
1.000000 0.000000 0.000000
1.000000 0.000000 0.000000
0.000000 0.001785 0.001724
0.000000 0.002594 0.002502
0.003021 0.003021 0.003021
0.101305 0.000000 0.000000
0.211505 0.000000 0.000000
0.331853 0.000000 0.000000
0.474601 0.000000 0.000000
0.633158 0.000000 0.000000
0.787793 0.000000 0.000000
0.919371 0.000000 0.000000
1.000000 0.000000 0.000000
1.000000 0.000000 0.000000
1.000000 0.000000 0.000000
1.000000 0.000000 0.000000
1.000000 0.000000 0.000000
1.000000 0.000000 0.000000
1.000000 0.000000 0.000000
0.000000 0.077165 0.000000
0.000000 0.082185 0.000000
0.000000 0.087617 0.000000
0.070069 0.084047 0.000000
0.198962 0.071366 0.000000
0.331106 0.047364 0.000000
0.481788 0.006729 0.000000
0.647166 0.000000 0.000000
0.806821 0.000000 0.000000
0.939223 0.000000 0.000000
1.000000 0.000000 0.000000
1.000000 0.000000 0.000000
1.000000 0.000000 0.000000
1.000000 0.000000 0.000000
1.000000 0.000000 0.000000
1.000000 0.000000 0.000000
1.000000 0.000000 0.000000
0.000000 0.172854 0.000000
0.000000 0.180804 0.000000
0.000000 0.189212 0.000000
0.006546 0.191043 0.000000
0.164065 0.186877 0.000000
0.312825 0.173648 0.000000
0.474418 0.147311 0.000000
0.648722 0.102968 0.000000
0.813001 0.037736 0.000000
0.948379 0.000000 0.000000
1.000000 0.000000 0.000000
1.000000 0.000000 0.000000
1.000000 0.000000 0.000000
1.000000 0.000000 0.000000
1.000000 0.000000 0.000000
1.000000 0.000000 0.000000
1.000000 0.041855 0.000000
0.000000 0.277226 0.000000
0.000000 0.288289 0.000000
0.000000 0.299519 0.000000
0.000000 0.306813 0.000000
0.073411 0.307576 0.000000
0.269795 0.301854 0.000000
0.450599 0.287556 0.000000
0.635645 0.263661 0.000000
0.807828 0.235508 0.000000
0.946593 0.209812 0.000000
1.000000 0.190677 0.000000
1.000000 0.183352 0.000000
1.000000 0.190494 0.000000
1.000000 0.211124 0.000000
1.000000 0.241276 0.000000
1.000000 0.276036 0.000000
1.000000 0.310872 0.000000
0.000000 0.400092 0.000000
0.000000 0.415000 0.000000
0.000000 0.431022 0.000000
0.000000 0.442481 0.000000
0.000000 0.448478 0.000000
0.171145 0.448096 0.000000
0.396948 0.440070 0.000000
0.602213 0.426535 0.000000
0.784222 0.410498 0.000000
0.927871 0.398550 0.000000
1.000000 0.392966 0.000000
1.000000 0.394461 0.000000
1.000000 0.404944 0.000000
1.000000 0.424887 0.000000
1.000000 0.450065 0.000000
1.000000 0.478660 0.000000
1.000000 0.507897 0.000000
0.000000 0.544060 0.000000
0.000000 0.563134 0.000000
0.000000 0.582635 0.000000
0.000000 0.598321 0.000000
0.000000 0.607553 0.000000
0.000000 0.610452 0.000000
0.297963 0.607233 0.000000
0.542199 0.597955 0.000000
0.740261 0.587488 0.000000
0.891752 0.581521 0.000000
1.000000 0.579293 0.000000
1.000000 0.582574 0.000000
1.000000 0.593500 0.000000
1.000000 0.609979 0.000000
1.000000 0.631174 0.000000
1.000000 0.655039 0.000000
1.000000 0.677485 0.000000
0.000000 0.699138 0.000000
0.000000 0.720256 0.000000
0.000000 0.741573 0.000000
0.000000 0.757687 0.000000
0.000000 0.767544 0.000000
0.000000 0.771740 0.000000
0.107591 0.768872 0.000000
0.461173 0.760937 0.000000
0.684153 0.752270 0.000000
0.844709 0.746426 0.000000
0.959045 0.743542 0.000000
1.000000 0.745800 0.000000
1.000000 0.752621 0.000000
1.000000 0.764508 0.000000
1.000000 0.781125 0.000000
1.000000 0.798535 0.000000
1.000000 0.816297 0.000000
0.000000 0.846006 0.000000
0.000000 0.865766 0.000000
0.000000 0.883879 0.000000
0.000000 0.897200 0.000000
0.000000 0.904982 0.000000
0.000000 0.906645 0.000000
0.000000 0.902876 0.000000
0.374090 0.894148 0.000000
0.628946 0.884535 0.000000
0.799222 0.877256 0.000000
0.917830 0.872679 0.000000
0.996521 0.871839 0.000000
1.000000 0.875837 0.000000
1.000000 0.884428 0.000000
1.000000 0.896147 0.000000
1.000000 0.909194 0.000000
1.000000 0.922133 0.000000
0.000000 0.966995 0.000000
0.000000 0.981201 0.000000
0.000000 0.994461 0.000000
0.000000 1.000000 0.000000
0.000000 1.000000 0.000000
0.000000 1.000000 0.000000
0.000000 1.000000 0.000000
0.285283 0.990982 0.000000
0.579873 0.981186 0.000000
0.759960 0.973312 0.000000
0.882704 0.967910 0.000000
0.963790 0.966003 0.000000
1.000000 0.967605 0.000000
1.000000 0.972595 0.000000
1.000000 0.980545 0.000000
1.000000 0.988708 0.000000
1.000000 0.996948 0.000000
0.000000 1.000000 0.000000
0.000000 1.000000 0.000000
0.000000 1.000000 0.000000
0.000000 1.000000 0.000000
0.000000 1.000000 0.000000
0.000000 1.000000 0.000000
0.000000 1.000000 0.000000
0.221225 1.000000 0.000000
0.550500 1.000000 0.000000
0.736156 1.000000 0.000000
0.860182 1.000000 0.000000
0.941115 1.000000 0.000000
0.991318 1.000000 0.000000
1.000000 1.000000 0.000000
1.000000 1.000000 0.000000
1.000000 1.000000 0.000000
1.000000 1.000000 0.000000
0.000000 1.000000 0.000000
0.000000 1.000000 0.000000
0.000000 1.000000 0.000000
0.000000 1.000000 0.000000
0.000000 1.000000 0.000000
0.000000 1.000000 0.000000
0.000000 1.000000 0.000000
0.214405 1.000000 0.000000
0.548043 1.000000 0.000000
0.730922 1.000000 0.000000
0.851362 1.000000 0.000000
0.929534 1.000000 0.000000
0.978408 1.000000 0.000000
1.000000 1.000000 0.000000
1.000000 1.000000 0.000000
1.000000 1.000000 0.000000
1.000000 1.000000 0.000000
0.000000 1.000000 0.000000
0.000000 1.000000 0.000000
0.000000 1.000000 0.000000
0.000000 1.000000 0.000000
0.000000 1.000000 0.000000
0.000000 1.000000 0.000000
0.000000 1.000000 0.000000
0.263310 1.000000 0.000000
0.568643 1.000000 0.000000
0.741360 1.000000 0.000000
0.854551 1.000000 0.000000
0.928008 1.000000 0.000000
0.973770 1.000000 0.000000
1.000000 1.000000 0.000000
1.000000 1.000000 0.000000
1.000000 1.000000 0.000000
1.000000 1.000000 0.000000
0.000000 1.000000 0.000000
0.000000 1.000000 0.000000
0.000000 1.000000 0.000000
0.000000 1.000000 0.000000
0.000000 1.000000 0.000000
0.000000 1.000000 0.000000
0.000000 1.000000 0.000000
0.334600 1.000000 0.000000
0.601450 1.000000 0.000000
0.760433 1.000000 0.000000
0.864652 1.000000 0.000000
0.932097 1.000000 0.000000
0.974121 1.000000 0.000000
0.999405 1.000000 0.000000
1.000000 1.000000 0.000000
1.000000 1.000000 0.000000
1.000000 1.000000 0.000000
0.000000 1.000000 0.000000
0.000000 1.000000 0.000000
0.000000 1.000000 0.000000
0.000000 1.000000 0.000000
0.000000 1.000000 0.000000
0.000000 1.000000 0.000000
0.000000 1.000000 0.000000
0.403403 1.000000 0.000000
0.637736 1.000000 0.000000
0.780819 1.000000 0.000000
0.875212 1.000000 0.000000
0.936507 1.000000 0.000000
0.975006 1.000000 0.000000
0.998276 1.000000 0.000000
1.000000 1.000000 0.000000
1.000000 1.000000 0.000000
1.000000 1.000000 0.000000
0.000000 1.000000 0.000000
0.000000 1.000000 0.000000
0.000000 1.000000 0.000000
0.000000 1.000000 0.000000
0.000000 1.000000 0.000000
0.000000 1.000000 0.000000
0.000000 1.000000 0.000000
0.439170 1.000000 0.000000
0.656062 1.000000 0.000000
0.791348 1.000000 0.000000
0.881086 1.000000 0.000000
0.939803 1.000000 0.000000
0.976776 1.000000 0.000000
0.999298 1.000000 0.000000
1.000000 1.000000 0.000000
1.000000 1.000000 0.000000
1.000000 1.000000 0.000000
0.000000 0.000000 0.086000
0.000000 0.000000 0.086305
0.000000 0.000000 0.086061
0.093568 0.000000 0.076966
0.201114 0.000000 0.059968
0.317754 0.000000 0.034775
0.453239 0.000000 0.000000
0.604135 0.000000 0.000000
0.751995 0.000000 0.000000
0.878965 0.000000 0.000000
0.984100 0.000000 0.000000
1.000000 0.000000 0.000000
1.000000 0.000000 0.000000
1.000000 0.000000 0.000000
1.000000 0.000000 0.000000
1.000000 0.000000 0.000000
1.000000 0.000000 0.000000
0.000000 0.000000 0.086351
0.000000 0.000000 0.086122
0.000000 0.000000 0.085405
