MEDT/Pirringer/Unterricht/2025-02-26/Korrektur und Grading FootageFotos-20250226T115430Z-001/Korrektur und Grading FootageFotos/Bounce Color True Basic Log Conversion LUTs/Monitor LUTs 17x17/BMPCC 6K BMDFilm Gen4 to Arri Log-C LUT.cube
# Converted by Briz LUT Converter
LUT_3D_SIZE 5
0.092805 0.092805 0.092805
0.280003 0.086473 0.083436
0.475868 0.048188 0.026749
0.669490 0.000000 0.000000
0.995804 0.000000 0.000000
0.095994 0.284077 0.087404
0.280934 0.282246 0.078035
0.476020 0.270497 0.021347
0.669520 0.141604 0.000000
0.995804 0.000000 0.000000
0.115206 0.480476 0.054749
0.286458 0.480186 0.045365
0.476936 0.478416 0.000000
0.669657 0.467002 0.000000
0.995819 0.000000 0.000000
0.210437 0.674189 0.000000
0.314839 0.674144 0.000000
0.482307 0.673854 0.000000
0.670573 0.672084 0.000000
0.995865 0.618021 0.000000
0.505638 1.000000 0.000000
0.516365 1.000000 0.000000
0.565148 1.000000 0.000000
0.690272 1.000000 0.000000
0.996902 0.998413 0.000000
0.102007 0.097536 0.287770
0.282704 0.091203 0.285161
0.476295 0.052903 0.267781
0.669566 0.000000 0.022141
0.995819 0.000000 0.000000
0.105196 0.285420 0.286275
0.283619 0.283619 0.283619
0.476448 0.272007 0.265965
0.669581 0.146334 0.016739
0.995819 0.000000 0.000000
0.124407 0.480705 0.276707
0.288991 0.480415 0.273808
0.477363 0.478630 0.254292
0.669734 0.467247 0.000000
0.995819 0.000000 0.000000
0.215549 0.674235 0.187762
0.316793 0.674189 0.180972
0.482719 0.673899 0.129351
0.670649 0.672129 0.000000
0.995865 0.618082 0.000000
0.505974 1.000000 0.000000
0.516670 1.000000 0.000000
0.565332 1.000000 0.000000
0.690333 1.000000 0.000000
0.996902 0.998428 0.000000
0.157351 0.126101 0.484657
0.297704 0.119753 0.484245
0.478920 0.081468 0.481697
0.669993 0.000000 0.464897
0.995834 0.000000 0.000000
0.160266 0.293187 0.484413
0.298497 0.291524 0.484001
0.479072 0.280781 0.481453
0.670024 0.172320 0.464622
0.995834 0.000000 0.000000
0.176394 0.482002 0.482963
0.303197 0.481712 0.482536
0.479957 0.479957 0.479957
0.670176 0.468711 0.462867
0.995850 0.000000 0.000000
0.242084 0.674449 0.473716
0.327932 0.674403 0.473259
0.485191 0.674113 0.470451
0.671077 0.672343 0.451621
0.995880 0.618448 0.000000
0.507973 1.000000 0.000000
0.518486 1.000000 0.000000
0.566491 1.000000 0.000000
0.690700 1.000000 0.000000
0.996933 0.998428 0.000000
0.303899 0.243168 0.678447
0.360143 0.240482 0.678370
0.493538 0.222644 0.677958
0.672602 0.022629 0.675441
0.995956 0.000000 0.585397
0.304646 0.331029 0.678401
0.360586 0.329854 0.678340
0.493675 0.322454 0.677928
0.672633 0.261860 0.675395
0.995956 0.000000 0.585306
0.309087 0.489540 0.678172
0.363241 0.489281 0.678096
0.494438 0.487648 0.677684
0.672786 0.477211 0.675151
0.995972 0.000000 0.584741
0.332631 0.675746 0.676722
0.378073 0.675700 0.676646
0.499031 0.675410 0.676234
0.673671 0.673671 0.673671
0.996017 0.620615 0.581262
0.519295 1.000000 0.634806
0.528801 1.000000 0.634714
0.573205 1.000000 0.634089
0.692851 1.000000 0.630259
0.997055 0.998489 0.415473
0.618509 0.547570 1.000000
0.622385 0.547417 1.000000
0.643214 0.546471 1.000000
0.721157 0.540566 1.000000
0.998932 0.000000 1.000000
0.618555 0.555276 1.000000
0.622415 0.555123 1.000000
0.643259 0.554253 1.000000
0.721172 0.548760 1.000000
0.998947 0.000000 1.000000
0.618799 0.592782 1.000000
0.622660 0.592691 1.000000
0.643442 0.592065 1.000000
0.721279 0.588235 1.000000
0.998947 0.373999 1.000000
0.620249 0.702678 1.000000
0.624063 0.702647 1.000000
0.644602 0.702419 1.000000
0.721843 0.701076 1.000000
0.998993 0.662455 1.000000
0.650202 1.000000 1.000000
0.653101 1.000000 1.000000
0.669123 1.000000 1.000000
0.734478 1.000000 1.000000
1.000000 1.000000 1.000000
