MEDT/Pirringer/Unterricht/2025-02-26/Korrektur und Grading FootageFotos-20250226T115430Z-001/Korrektur und Grading FootageFotos/Bounce Color True Basic Log Conversion LUTs/Monitor LUTs 17x17/BMPCC 4K Gen5 BMDFilm to Rec.709 LUT.cube
# Converted by Briz LUT Converter
LUT_3D_SIZE 5
0.000000 0.000000 0.000000
0.204562 0.000000 0.000000
0.752590 0.000000 0.000000
1.000000 0.000000 0.000000
1.000000 0.000000 0.000000
0.000000 0.168368 0.000000
0.157366 0.179660 0.000000
0.802762 0.025437 0.000000
1.000000 0.000000 0.000000
1.000000 0.028672 0.000000
0.000000 0.684947 0.000000
0.000000 0.753613 0.000000
0.672251 0.739315 0.000000
1.000000 0.742168 0.000000
1.000000 0.810452 0.000000
0.000000 1.000000 0.000000
0.000000 1.000000 0.000000
0.538552 1.000000 0.000000
0.976913 1.000000 0.000000
1.000000 1.000000 0.000000
0.000000 1.000000 0.000000
0.000000 1.000000 0.000000
0.659129 1.000000 0.000000
0.978515 1.000000 0.000000
1.000000 1.000000 0.000000
0.000000 0.000000 0.189563
0.194995 0.000000 0.169924
0.748165 0.000000 0.016998
1.000000 0.000000 0.000000
1.000000 0.000000 0.000000
0.000000 0.148150 0.144610
0.161624 0.161624 0.161624
0.818189 0.003906 0.066270
1.000000 0.000000 0.000000
1.000000 0.000000 0.130800
0.000000 0.704784 0.000000
0.000000 0.770367 0.000000
0.690288 0.753307 0.000000
1.000000 0.750652 0.000000
1.000000 0.811521 0.000000
0.000000 1.000000 0.000000
0.000000 1.000000 0.000000
0.548440 1.000000 0.000000
0.977234 1.000000 0.000000
1.000000 1.000000 0.000000
0.000000 1.000000 0.000000
0.000000 1.000000 0.000000
0.644617 1.000000 0.000000
0.972061 1.000000 0.000000
1.000000 1.000000 0.000000
0.000000 0.000000 0.743282
0.112566 0.000000 0.727138
0.713405 0.000000 0.644144
1.000000 0.000000 0.600427
1.000000 0.000000 0.650446
0.000000 0.000000 0.729152
0.088182 0.000000 0.757031
0.804746 0.000000 0.732113
1.000000 0.000000 0.746227
1.000000 0.000000 0.829801
0.000000 0.637644 0.627085
0.000000 0.699260 0.688746
0.675410 0.675410 0.675410
1.000000 0.664927 0.676143
1.000000 0.720989 0.731594
0.000000 1.000000 0.633280
0.000000 1.000000 0.670924
0.510552 1.000000 0.616922
0.961074 1.000000 0.577005
1.000000 1.000000 0.599954
0.000000 1.000000 0.792203
0.000000 1.000000 0.780163
0.581064 1.000000 0.677409
0.946456 1.000000 0.586175
1.000000 1.000000 0.571435
0.000000 0.000000 1.000000
0.000000 0.000000 1.000000
0.686748 0.000000 1.000000
1.000000 0.000000 0.989990
1.000000 0.000000 1.000000
0.000000 0.000000 1.000000
0.002731 0.000000 1.000000
0.801236 0.000000 1.000000
1.000000 0.000000 1.000000
1.000000 0.000000 1.000000
0.000000 0.547372 1.000000
0.000000 0.624125 1.000000
0.667842 0.592508 1.000000
1.000000 0.577630 1.000000
1.000000 0.647227 1.000000
0.000000 0.996918 0.981201
0.000000 1.000000 0.990463
0.483238 0.974441 0.966964
0.947463 0.947463 0.947463
1.000000 0.949569 0.951141
0.000000 1.000000 1.000000
0.000000 1.000000 1.000000
0.530465 1.000000 0.974640
0.926589 1.000000 0.939620
0.997177 1.000000 0.933867
0.000000 0.000000 1.000000
0.000000 0.000000 1.000000
0.696239 0.000000 1.000000
1.000000 0.000000 1.000000
1.000000 0.000000 1.000000
0.000000 0.000000 1.000000
0.018662 0.000000 1.000000
0.828656 0.000000 1.000000
1.000000 0.000000 1.000000
1.000000 0.000000 1.000000
0.000000 0.562936 1.000000
0.000000 0.641123 1.000000
0.687816 0.602884 1.000000
1.000000 0.587900 1.000000
1.000000 0.660929 1.000000
0.000000 0.994980 1.000000
0.000000 1.000000 1.000000
0.499657 0.967880 1.000000
0.948150 0.938033 1.000000
1.000000 0.938399 1.000000
0.000000 1.000000 1.000000
0.000000 1.000000 1.000000
0.524056 1.000000 1.000000
0.923140 1.000000 0.998505
0.994553 0.994553 0.994553
