MEDT/Pirringer/Unterricht/2025-02-26/Korrektur und Grading FootageFotos-20250226T115430Z-001/Korrektur und Grading FootageFotos/Bounce Color True Basic Log Conversion LUTs/Monitor LUTs 17x17/BMPCC 6K Gen5 BMDFilm to Rec.709 LUT.cube
# Converted by Briz LUT Converter
LUT_3D_SIZE 5
0.000000 0.000000 0.000000
0.194888 0.000000 0.000000
0.771069 0.000000 0.000000
1.000000 0.000000 0.000000
1.000000 0.000000 0.000000
0.000000 0.159426 0.000000
0.149294 0.170886 0.000000
0.826673 0.002274 0.000000
1.000000 0.000000 0.000000
1.000000 0.008972 0.000000
0.000000 0.701381 0.000000
0.000000 0.775372 0.000000
0.692088 0.760876 0.000000
1.000000 0.765728 0.000000
1.000000 0.840085 0.000000
0.000000 1.000000 0.000000
0.000000 1.000000 0.000000
0.565591 1.000000 0.000000
0.997330 1.000000 0.000000
1.000000 1.000000 0.000000
0.000000 1.000000 0.000000
0.000000 1.000000 0.000000
0.706661 1.000000 0.000000
1.000000 1.000000 0.000000
1.000000 1.000000 0.000000
0.000000 0.000000 0.180652
0.185458 0.000000 0.161212
0.766400 0.000000 0.004486
1.000000 0.000000 0.000000
1.000000 0.000000 0.000000
0.000000 0.140002 0.136568
0.153704 0.153704 0.153704
0.843503 0.000000 0.048402
1.000000 0.000000 0.000000
1.000000 0.000000 0.118975
0.000000 0.723415 0.000000
0.000000 0.794385 0.000000
0.711513 0.776928 0.000000
1.000000 0.776120 0.000000
1.000000 0.842603 0.000000
0.000000 1.000000 0.000000
0.000000 1.000000 0.000000
0.576669 1.000000 0.000000
0.997574 1.000000 0.000000
1.000000 1.000000 0.000000
0.000000 1.000000 0.000000
0.000000 1.000000 0.000000
0.692607 1.000000 0.000000
1.000000 1.000000 0.000000
1.000000 1.000000 0.000000
0.000000 0.000000 0.764569
0.095460 0.000000 0.747478
0.729519 0.000000 0.658869
1.000000 0.000000 0.612421
1.000000 0.000000 0.667414
0.000000 0.000000 0.750347
0.070268 0.000000 0.780514
0.829511 0.000000 0.754314
1.000000 0.000000 0.770642
1.000000 0.000000 0.860105
0.000000 0.654414 0.643610
0.000000 0.720745 0.709834
0.696056 0.696056 0.696056
1.000000 0.686992 0.698070
1.000000 0.748577 0.757931
0.000000 1.000000 0.656962
0.000000 1.000000 0.697566
0.536934 1.000000 0.640482
0.981613 1.000000 0.599298
1.000000 1.000000 0.626123
0.000000 1.000000 0.827665
0.000000 1.000000 0.815854
0.629557 1.000000 0.711788
0.976730 1.000000 0.619303
1.000000 1.000000 0.605753
0.000000 0.000000 1.000000
0.000000 0.000000 1.000000
0.701350 0.000000 1.000000
1.000000 0.000000 1.000000
1.000000 0.000000 1.000000
0.000000 0.000000 1.000000
0.000000 0.000000 1.000000
0.826719 0.000000 1.000000
1.000000 0.000000 1.000000
1.000000 0.000000 1.000000
0.000000 0.563134 1.000000
0.000000 0.647227 1.000000
0.689067 0.614511 1.000000
1.000000 0.601633 1.000000
1.000000 0.678584 1.000000
0.000000 1.000000 1.000000
0.000000 1.000000 1.000000
0.509712 0.994385 0.986923
0.968353 0.968353 0.968353
1.000000 0.971435 0.972351
0.000000 1.000000 1.000000
0.000000 1.000000 1.000000
0.580835 1.000000 0.996963
0.956664 1.000000 0.964614
1.000000 1.000000 0.959731
0.000000 0.000000 1.000000
0.000000 0.000000 1.000000
0.712322 0.000000 1.000000
1.000000 0.000000 1.000000
1.000000 0.000000 1.000000
0.000000 0.000000 1.000000
0.004410 0.000000 1.000000
0.857450 0.000000 1.000000
1.000000 0.000000 1.000000
1.000000 0.000000 1.000000
0.000000 0.587442 1.000000
0.000000 0.674846 1.000000
0.711818 0.635767 1.000000
1.000000 0.622690 1.000000
1.000000 0.699886 1.000000
0.000000 1.000000 1.000000
0.000000 1.000000 1.000000
0.529641 0.992386 1.000000
0.969528 0.963195 1.000000
1.000000 0.965286 1.000000
0.000000 1.000000 1.000000
0.000000 1.000000 1.000000
0.576165 1.000000 1.000000
0.953933 1.000000 1.000000
1.000000 1.000000 1.000000
