MEDT/Pirringer/Unterricht/2025-02-26/Korrektur und Grading FootageFotos-20250226T115430Z-001/Korrektur und Grading FootageFotos/Bounce Color True Basic Log Conversion LUTs/Monitor LUTs 17x17/BMPCC 6K Gen5 BMDFilm to Rec.709 LUT.cube
# Converted by Briz LUT Converter
LUT_3D_SIZE 9
0.000000 0.000000 0.000000
0.003937 0.000000 0.000000
0.194888 0.000000 0.000000
0.452705 0.000000 0.000000
0.771069 0.000000 0.000000
1.000000 0.000000 0.000000
1.000000 0.000000 0.000000
1.000000 0.000000 0.000000
1.000000 0.000000 0.000000
0.000000 0.002182 0.000000
0.002274 0.002731 0.000000
0.199084 0.000000 0.000000
0.468025 0.000000 0.000000
0.802319 0.000000 0.000000
1.000000 0.000000 0.000000
1.000000 0.000000 0.000000
1.000000 0.000000 0.000000
1.000000 0.000000 0.000000
0.000000 0.159426 0.000000
0.000000 0.174075 0.000000
0.149294 0.170886 0.000000
0.466194 0.127626 0.000000
0.826673 0.002274 0.000000
1.000000 0.000000 0.000000
1.000000 0.000000 0.000000
1.000000 0.000000 0.000000
1.000000 0.008972 0.000000
0.000000 0.386419 0.000000
0.000000 0.417365 0.000000
0.000000 0.435187 0.000000
0.383902 0.425895 0.000000
0.796719 0.392111 0.000000
1.000000 0.371283 0.000000
1.000000 0.386831 0.000000
1.000000 0.441398 0.000000
1.000000 0.508385 0.000000
0.000000 0.701381 0.000000
0.000000 0.746685 0.000000
0.000000 0.775372 0.000000
0.016846 0.777554 0.000000
0.692088 0.760876 0.000000
0.982300 0.753674 0.000000
1.000000 0.765728 0.000000
1.000000 0.799451 0.000000
1.000000 0.840085 0.000000
0.000000 0.986770 0.000000
0.000000 1.000000 0.000000
0.000000 1.000000 0.000000
0.000000 1.000000 0.000000
0.586053 1.000000 0.000000
0.903899 0.991119 0.000000
1.000000 0.991745 0.000000
1.000000 1.000000 0.000000
1.000000 1.000000 0.000000
0.000000 1.000000 0.000000
0.000000 1.000000 0.000000
0.000000 1.000000 0.000000
0.000000 1.000000 0.000000
0.565591 1.000000 0.000000
0.877012 1.000000 0.000000
0.997330 1.000000 0.000000
1.000000 1.000000 0.000000
1.000000 1.000000 0.000000
0.000000 1.000000 0.000000
0.000000 1.000000 0.000000
0.000000 1.000000 0.000000
0.000000 1.000000 0.000000
0.645304 1.000000 0.000000
0.900938 1.000000 0.000000
0.999390 1.000000 0.000000
1.000000 1.000000 0.000000
1.000000 1.000000 0.000000
0.000000 1.000000 0.000000
0.000000 1.000000 0.000000
0.000000 1.000000 0.000000
0.008042 1.000000 0.000000
0.706661 1.000000 0.000000
0.921920 1.000000 0.000000
1.000000 1.000000 0.000000
1.000000 1.000000 0.000000
1.000000 1.000000 0.000000
0.000000 0.000000 0.003250
0.003799 0.000000 0.003113
0.194553 0.000000 0.000000
0.452583 0.000000 0.000000
0.771572 0.000000 0.000000
1.000000 0.000000 0.000000
1.000000 0.000000 0.000000
1.000000 0.000000 0.000000
1.000000 0.000000 0.000000
0.000000 0.001633 0.001587
0.002762 0.002762 0.002762
0.201801 0.000000 0.000000
0.472984 0.000000 0.000000
0.808865 0.000000 0.000000
1.000000 0.000000 0.000000
1.000000 0.000000 0.000000
1.000000 0.000000 0.000000
1.000000 0.000000 0.000000
0.000000 0.163882 0.000000
0.000000 0.180163 0.000000
0.155978 0.178103 0.000000
0.475486 0.136446 0.000000
0.837736 0.013321 0.000000
1.000000 0.000000 0.000000
1.000000 0.000000 0.000000
1.000000 0.000000 0.000000
1.000000 0.023911 0.000000
0.000000 0.396582 0.000000
0.000000 0.429191 0.000000
0.000000 0.448157 0.000000
0.396674 0.439780 0.000000
0.810575 0.407279 0.000000
1.000000 0.388479 0.000000
1.000000 0.403769 0.000000
1.000000 0.456275 0.000000
1.000000 0.519524 0.000000
0.000000 0.716640 0.000000
0.000000 0.762173 0.000000
0.000000 0.790280 0.000000
0.046342 0.792279 0.000000
0.704784 0.774685 0.000000
0.987915 0.765988 0.000000
1.000000 0.776989 0.000000
1.000000 0.808759 0.000000
1.000000 0.846601 0.000000
0.000000 0.997101 0.000000
0.000000 1.000000 0.000000
0.000000 1.000000 0.000000
0.000000 1.000000 0.000000
0.598169 1.000000 0.000000
0.909224 0.996750 0.000000
1.000000 0.996780 0.000000
1.000000 1.000000 0.000000
1.000000 1.000000 0.000000
0.000000 1.000000 0.000000
0.000000 1.000000 0.000000
0.000000 1.000000 0.000000
0.000000 1.000000 0.000000
0.575891 1.000000 0.000000
0.881041 1.000000 0.000000
0.998642 1.000000 0.000000
1.000000 1.000000 0.000000
1.000000 1.000000 0.000000
0.000000 1.000000 0.000000
0.000000 1.000000 0.000000
0.000000 1.000000 0.000000
0.000000 1.000000 0.000000
0.649500 1.000000 0.000000
0.901976 1.000000 0.000000
0.999146 1.000000 0.000000
1.000000 1.000000 0.000000
1.000000 1.000000 0.000000
0.000000 1.000000 0.000000
0.000000 1.000000 0.000000
0.000000 1.000000 0.000000
0.000000 1.000000 0.000000
0.703746 1.000000 0.000000
0.919738 1.000000 0.000000
1.000000 1.000000 0.000000
1.000000 1.000000 0.000000
1.000000 1.000000 0.000000
0.000000 0.000000 0.180652
0.000000 0.000000 0.180407
0.185458 0.000000 0.161212
0.445838 0.000000 0.107927
0.766400 0.000000 0.004486
1.000000 0.000000 0.000000
1.000000 0.000000 0.000000
1.000000 0.000000 0.000000
1.000000 0.000000 0.000000
0.000000 0.000000 0.179477
0.000000 0.000000 0.182071
0.195804 0.000000 0.170657
0.470954 0.000000 0.130205
0.809857 0.000000 0.040681
1.000000 0.000000 0.000000
1.000000 0.000000 0.000000
1.000000 0.000000 0.000000
1.000000 0.000000 0.018601
0.000000 0.140002 0.136568
0.000000 0.156039 0.152392
0.153704 0.153704 0.153704
0.478828 0.109163 0.125246
0.843503 0.000000 0.048402
1.000000 0.000000 0.000000
1.000000 0.000000 0.000000
1.000000 0.000000 0.026886
1.000000 0.000000 0.118975
0.000000 0.394446 0.000000
0.000000 0.427085 0.007446
0.000000 0.445457 0.015854
0.403143 0.437873 0.000000
0.818677 0.405280 0.000000
1.000000 0.385687 0.000000
1.000000 0.401541 0.000000
1.000000 0.452674 0.000000
1.000000 0.513161 0.000000
0.000000 0.723415 0.000000
0.000000 0.767712 0.000000
0.000000 0.794385 0.000000
0.059052 0.795422 0.000000
0.711513 0.776928 0.000000
0.990372 0.766857 0.000000
1.000000 0.776120 0.000000
1.000000 0.806424 0.000000
1.000000 0.842603 0.000000
0.000000 0.999802 0.000000
0.000000 1.000000 0.000000
0.000000 1.000000 0.000000
0.000000 1.000000 0.000000
0.602090 1.000000 0.000000
0.910643 0.994308 0.000000
1.000000 0.993637 0.000000
1.000000 1.000000 0.000000
1.000000 1.000000 0.000000
0.000000 1.000000 0.000000
0.000000 1.000000 0.000000
0.000000 1.000000 0.000000
0.000000 1.000000 0.000000
0.576669 1.000000 0.000000
0.880400 1.000000 0.000000
0.997574 1.000000 0.000000
1.000000 1.000000 0.000000
1.000000 1.000000 0.000000
0.000000 1.000000 0.000000
0.000000 1.000000 0.000000
0.000000 1.000000 0.000000
0.000000 1.000000 0.000000
0.644083 1.000000 0.000000
0.898100 1.000000 0.000000
0.996048 1.000000 0.000000
1.000000 1.000000 0.000000
1.000000 1.000000 0.000000
0.000000 1.000000 0.000000
0.000000 1.000000 0.000000
0.000000 1.000000 0.000000
0.000000 1.000000 0.000000
0.692607 1.000000 0.000000
0.913298 1.000000 0.000000
1.000000 1.000000 0.000000
1.000000 1.000000 0.000000
1.000000 1.000000 0.000000
0.000000 0.000000 0.442603
0.000000 0.000000 0.442176
0.157992 0.000000 0.424643
0.427466 0.000000 0.382574
0.751476 0.000000 0.323339
1.000000 0.000000 0.273121
1.000000 0.000000 0.249180
1.000000 0.000000 0.263569
1.000000 0.000000 0.298085
0.000000 0.000000 0.442206
0.000000 0.000000 0.446601
0.172503 0.000000 0.438941
0.457588 0.000000 0.410132
0.800946 0.000000 0.366415
1.000000 0.000000 0.335302
1.000000 0.000000 0.333013
1.000000 0.000000 0.367620
1.000000 0.000000 0.420951
0.000000 0.005432 0.417319
0.000000 0.020661 0.436652
0.131563 0.013916 0.443595
0.470787 0.000000 0.429999
0.840208 0.000000 0.401434
1.000000 0.000000 0.387732
1.000000 0.000000 0.403067
1.000000 0.000000 0.451148
1.000000 0.000000 0.512535
0.000000 0.355108 0.348592
0.000000 0.387701 0.380728
0.000000 0.406088 0.400336
0.397833 0.397833 0.397833
0.817838 0.361837 0.377066
1.000000 0.337789 0.368750
1.000000 0.350973 0.387457
1.000000 0.400854 0.433371
1.000000 0.458961 0.486000
0.000000 0.707408 0.211948
0.000000 0.749737 0.257694
0.000000 0.775448 0.285878
0.036500 0.775204 0.282063
0.708400 0.755337 0.248463
0.987427 0.743496 0.223362
1.000000 0.750423 0.229603
1.000000 0.778271 0.271946
1.000000 0.812284 0.325948
0.000000 0.985855 0.029267
0.000000 1.000000 0.130816
0.000000 1.000000 0.169772
0.000000 1.000000 0.141405
0.594400 0.989303 0.037812
0.905837 0.975128 0.000000
1.000000 0.973266 0.000000
1.000000 0.983444 0.022843
1.000000 0.997269 0.126040
0.000000 1.000000 0.059495
0.000000 1.000000 0.155276
0.000000 1.000000 0.180896
0.000000 1.000000 0.124117
0.562997 1.000000 0.000000
0.872328 1.000000 0.000000
0.992096 1.000000 0.000000
1.000000 1.000000 0.000000
1.000000 1.000000 0.000000
0.000000 1.000000 0.304677
0.000000 1.000000 0.341146
0.000000 1.000000 0.337743
0.000000 1.000000 0.272297
0.623056 1.000000 0.135286
0.885603 1.000000 0.000000
0.987579 1.000000 0.000000
1.000000 1.000000 0.000000
1.000000 1.000000 0.000000
0.000000 1.000000 0.457496
0.000000 1.000000 0.465675
0.000000 1.000000 0.439536
0.000000 1.000000 0.359808
0.666743 1.000000 0.224460
0.898863 1.000000 0.041276
0.991394 1.000000 0.000000
1.000000 1.000000 0.000000
1.000000 1.000000 0.000000
0.000000 0.000000 0.764569
0.000000 0.000000 0.763806
0.095460 0.000000 0.747478
0.396719 0.000000 0.708659
0.729519 0.000000 0.658869
0.988769 0.000000 0.623621
1.000000 0.000000 0.612421
1.000000 0.000000 0.632029
1.000000 0.000000 0.667414
0.000000 0.000000 0.765026
0.000000 0.000000 0.771206
0.118410 0.000000 0.766308
0.432670 0.000000 0.742580
0.784710 0.000000 0.709361
1.000000 0.000000 0.691310
1.000000 0.000000 0.697887
1.000000 0.000000 0.733333
1.000000 0.000000 0.781720
0.000000 0.000000 0.750347
0.000000 0.000000 0.771328
0.070268 0.000000 0.780514
0.451118 0.000000 0.771969
0.829511 0.000000 0.754314
1.000000 0.000000 0.751247
1.000000 0.000000 0.770642
1.000000 0.000000 0.812467
1.000000 0.000000 0.860105
0.000000 0.224872 0.704051
0.000000 0.263508 0.738521
0.000000 0.284901 0.760281
0.378820 0.272602 0.762768
0.809339 0.218708 0.753155
1.000000 0.174716 0.754696
1.000000 0.188510 0.773663
1.000000 0.257740 0.809461
1.000000 0.333303 0.846708
0.000000 0.654414 0.643610
0.000000 0.695903 0.684504
0.000000 0.720745 0.709834
0.000000 0.719005 0.711238
0.696056 0.696056 0.696056
0.978897 0.681834 0.689418
1.000000 0.686992 0.698070
1.000000 0.713893 0.724834
1.000000 0.748577 0.757931
0.000000 0.945510 0.623484
0.000000 0.965789 0.662516
0.000000 0.973388 0.680369
0.000000 0.965362 0.671000
0.575936 0.944640 0.644373
0.894865 0.929473 0.628534
1.000000 0.926360 0.630396
1.000000 0.935149 0.652201
1.000000 0.947875 0.680644
0.000000 1.000000 0.656962
0.000000 1.000000 0.687404
0.000000 1.000000 0.697566
0.000000 1.000000 0.678538
0.536934 1.000000 0.640482
0.857618 1.000000 0.611399
0.981613 1.000000 0.599298
1.000000 1.000000 0.609216
1.000000 1.000000 0.626123
0.000000 1.000000 0.752087
0.000000 1.000000 0.769421
0.000000 1.000000 0.767010
0.000000 1.000000 0.735439
0.590173 1.000000 0.683772
0.865873 1.000000 0.638865
0.973556 1.000000 0.609201
1.000000 1.000000 0.602548
1.000000 1.000000 0.605722
0.000000 1.000000 0.827665
0.000000 1.000000 0.830884
0.000000 1.000000 0.815854
0.000000 1.000000 0.773770
0.629557 1.000000 0.711788
0.877302 1.000000 0.657115
0.976730 1.000000 0.619303
1.000000 1.000000 0.606363
1.000000 1.000000 0.605753
0.000000 0.000000 0.982925
0.000000 0.000000 0.982345
0.018646 0.000000 0.971298
0.367269 0.000000 0.944610
0.710857 0.000000 0.909499
0.976532 0.000000 0.884825
1.000000 0.000000 0.878050
1.000000 0.000000 0.894133
1.000000 0.000000 0.920836
0.000000 0.000000 0.984268
0.000000 0.000000 0.989441
0.051927 0.000000 0.987259
0.411170 0.000000 0.972335
0.772931 0.000000 0.950134
1.000000 0.000000 0.938140
1.000000 0.000000 0.943481
1.000000 0.000000 0.967529
1.000000 0.000000 0.997543
0.000000 0.000000 0.977783
0.000000 0.000000 0.992462
0.008453 0.000000 0.999268
0.436301 0.000000 0.994186
0.823545 0.000000 0.982498
1.000000 0.000000 0.979843
1.000000 0.000000 0.991104
1.000000 0.000000 1.000000
1.000000 0.000000 1.000000
0.000000 0.000000 0.948959
0.000000 0.036591 0.972091
0.000000 0.097826 0.986084
0.364279 0.071519 0.987060
0.804807 0.000000 0.979431
1.000000 0.000000 0.978500
1.000000 0.000000 0.987320
1.000000 0.063081 1.000000
1.000000 0.215961 1.000000
0.000000 0.593515 0.908248
0.000000 0.640436 0.933867
0.000000 0.668193 0.948043
0.000000 0.665568 0.947402
0.688060 0.639231 0.936416
0.972335 0.622278 0.930007
1.000000 0.627985 0.933089
1.000000 0.658747 0.946014
1.000000 0.698329 0.961456
0.000000 0.904967 0.890578
0.000000 0.926467 0.911788
0.000000 0.934386 0.920348
0.000000 0.925170 0.913680
0.562493 0.902815 0.897169
0.886198 0.886198 0.886198
1.000000 0.882551 0.885481
1.000000 0.892180 0.895796
1.000000 0.906294 0.909407
0.000000 1.000000 0.902632
0.000000 1.000000 0.918044
0.000000 1.000000 0.922164
0.000000 1.000000 0.910552
0.516732 1.000000 0.887709
0.845747 0.996948 0.869718
0.972763 0.989075 0.861540
1.000000 0.988968 0.865476
1.000000 0.991989 0.873030
0.000000 1.000000 0.948363
0.000000 1.000000 0.955993
0.000000 1.000000 0.953368
0.000000 1.000000 0.935561
0.564004 1.000000 0.905562
0.849668 1.000000 0.878767
0.962188 1.000000 0.861357
1.000000 1.000000 0.856916
1.000000 1.000000 0.857939
0.000000 1.000000 0.982589
0.000000 1.000000 0.983108
0.000000 1.000000 0.974807
0.000000 1.000000 0.952148
0.599405 1.000000 0.917586
0.859495 1.000000 0.886564
0.964172 1.000000 0.865095
1.000000 1.000000 0.857633
1.000000 1.000000 0.857282
0.000000 0.000000 1.000000
0.000000 0.000000 1.000000
0.000000 0.000000 1.000000
0.350225 0.000000 1.000000
0.701350 0.000000 1.000000
0.970901 0.000000 1.000000
1.000000 0.000000 1.000000
1.000000 0.000000 1.000000
1.000000 0.000000 1.000000
0.000000 0.000000 1.000000
0.000000 0.000000 1.000000
0.017456 0.000000 1.000000
0.402548 0.000000 1.000000
0.770871 0.000000 1.000000
1.000000 0.000000 1.000000
1.000000 0.000000 1.000000
1.000000 0.000000 1.000000
1.000000 0.000000 1.000000
0.000000 0.000000 1.000000
0.000000 0.000000 1.000000
0.000000 0.000000 1.000000
0.434821 0.000000 1.000000
0.826719 0.000000 1.000000
1.000000 0.000000 1.000000
1.000000 0.000000 1.000000
1.000000 0.000000 1.000000
1.000000 0.000000 1.000000
0.000000 0.000000 1.000000
0.000000 0.000000 1.000000
0.000000 0.000000 1.000000
0.364431 0.000000 1.000000
0.809293 0.000000 1.000000
1.000000 0.000000 1.000000
1.000000 0.000000 1.000000
1.000000 0.000000 1.000000
1.000000 0.167132 1.000000
0.000000 0.563134 1.000000
0.000000 0.616907 1.000000
0.000000 0.647227 1.000000
0.000000 0.643549 1.000000
0.689067 0.614511 1.000000
0.971160 0.595712 1.000000
1.000000 0.601633 1.000000
1.000000 0.635981 1.000000
1.000000 0.678584 1.000000
0.000000 0.886107 1.000000
0.000000 0.908919 1.000000
0.000000 0.917266 1.000000
0.000000 0.907149 1.000000
0.560861 0.883101 1.000000
0.883757 0.865232 0.992279
1.000000 0.860975 0.989639
1.000000 0.871427 0.993301
1.000000 0.886625 0.999023
0.000000 1.000000 1.000000
0.000000 1.000000 1.000000
0.000000 1.000000 1.000000
0.000000 1.000000 1.000000
0.509712 0.994385 0.986923
0.840406 0.977035 0.974426
0.968353 0.968353 0.968353
1.000000 0.968277 0.969223
1.000000 0.971435 0.972351
0.000000 1.000000 1.000000
0.000000 1.000000 1.000000
0.000000 1.000000 1.000000
0.000000 1.000000 1.000000
0.549767 1.000000 0.991867
0.840558 1.000000 0.974456
0.956161 1.000000 0.963729
0.997681 1.000000 0.960571
1.000000 1.000000 0.960739
0.000000 1.000000 1.000000
0.000000 1.000000 1.000000
0.000000 1.000000 1.000000
0.000000 1.000000 1.000000
0.580835 1.000000 0.996963
0.848722 1.000000 0.977707
0.956664 1.000000 0.964614
0.996048 1.000000 0.959945
1.000000 1.000000 0.959731
0.000000 0.000000 1.000000
0.000000 0.000000 1.000000
0.000000 0.000000 1.000000
0.348913 0.000000 1.000000
0.704021 0.000000 1.000000
0.974441 0.000000 1.000000
1.000000 0.000000 1.000000
1.000000 0.000000 1.000000
1.000000 0.000000 1.000000
0.000000 0.000000 1.000000
0.000000 0.000000 1.000000
0.015946 0.000000 1.000000
0.408530 0.000000 1.000000
0.779202 0.000000 1.000000
1.000000 0.000000 1.000000
1.000000 0.000000 1.000000
1.000000 0.000000 1.000000
1.000000 0.000000 1.000000
0.000000 0.000000 1.000000
0.000000 0.000000 1.000000
0.000000 0.000000 1.000000
0.446311 0.000000 1.000000
0.839872 0.000000 1.000000
1.000000 0.000000 1.000000
1.000000 0.000000 1.000000
1.000000 0.000000 1.000000
1.000000 0.000000 1.000000
0.000000 0.000000 1.000000
0.000000 0.000000 1.000000
0.000000 0.000000 1.000000
0.377768 0.000000 1.000000
0.822278 0.000000 1.000000
1.000000 0.000000 1.000000
1.000000 0.000000 1.000000
1.000000 0.011124 1.000000
1.000000 0.206958 1.000000
0.000000 0.568093 1.000000
0.000000 0.623743 1.000000
0.000000 0.654124 1.000000
0.000000 0.648859 1.000000
0.698512 0.617609 1.000000
0.974762 0.598291 1.000000
1.000000 0.605249 1.000000
1.000000 0.642374 1.000000
1.000000 0.686412 1.000000
0.000000 0.886763 1.000000
0.000000 0.909026 1.000000
0.000000 0.917632 1.000000
0.000000 0.906752 1.000000
0.570779 0.881132 1.000000
0.887022 0.862440 1.000000
1.000000 0.857816 1.000000
1.000000 0.868757 1.000000
1.000000 0.884825 1.000000
0.000000 1.000000 1.000000
0.000000 1.000000 1.000000
0.000000 1.000000 1.000000
0.000000 1.000000 1.000000
0.516884 0.989929 1.000000
0.841917 0.971267 1.000000
0.967971 0.962020 1.000000
1.000000 0.961578 1.000000
1.000000 0.964553 1.000000
0.000000 1.000000 1.000000
0.000000 1.000000 1.000000
0.000000 1.000000 1.000000
0.000000 1.000000 1.000000
0.549630 1.000000 1.000000
0.838712 1.000000 1.000000
0.954330 0.999496 0.998581
0.995987 0.995987 0.995987
1.000000 0.995789 0.995926
0.000000 1.000000 1.000000
0.000000 1.000000 1.000000
0.000000 1.000000 1.000000
0.000000 1.000000 1.000000
0.575738 1.000000 1.000000
0.845304 1.000000 1.000000
0.954086 1.000000 0.998566
0.993881 1.000000 0.994995
1.000000 1.000000 0.994827
0.000000 0.000000 1.000000
0.000000 0.000000 1.000000
0.000000 0.000000 1.000000
0.354253 0.000000 1.000000
0.712322 0.000000 1.000000
0.982116 0.000000 1.000000
1.000000 0.000000 1.000000
1.000000 0.000000 1.000000
1.000000 0.000000 1.000000
0.000000 0.000000 1.000000
0.000000 0.000000 1.000000
0.029816 0.000000 1.000000
0.421454 0.000000 1.000000
0.793240 0.000000 1.000000
1.000000 0.000000 1.000000
1.000000 0.000000 1.000000
1.000000 0.000000 1.000000
1.000000 0.000000 1.000000
0.000000 0.000000 1.000000
0.000000 0.000000 1.000000
0.004410 0.000000 1.000000
0.464698 0.000000 1.000000
0.857450 0.000000 1.000000
1.000000 0.000000 1.000000
1.000000 0.000000 1.000000
1.000000 0.000000 1.000000
1.000000 0.000000 1.000000
0.000000 0.000000 1.000000
0.000000 0.000000 1.000000
0.000000 0.031571 1.000000
0.398093 0.012848 1.000000
0.838804 0.000000 1.000000
1.000000 0.000000 1.000000
1.000000 0.000000 1.000000
1.000000 0.095888 1.000000
1.000000 0.248890 1.000000
0.000000 0.587442 1.000000
0.000000 0.645289 1.000000
0.000000 0.674846 1.000000
0.000000 0.668421 1.000000
0.711818 0.635767 1.000000
0.980392 0.616327 1.000000
1.000000 0.622690 1.000000
1.000000 0.658289 1.000000
1.000000 0.699886 1.000000
0.000000 0.896498 1.000000
0.000000 0.918624 1.000000
0.000000 0.926085 1.000000
0.000000 0.914809 1.000000
0.585748 0.888747 1.000000
0.892943 0.869368 1.000000
1.000000 0.864515 1.000000
1.000000 0.874739 1.000000
1.000000 0.889235 1.000000
0.000000 1.000000 1.000000
0.000000 1.000000 1.000000
0.000000 1.000000 1.000000
0.000000 1.000000 1.000000
0.529641 0.992386 1.000000
0.846647 0.973205 1.000000
0.969528 0.963195 1.000000
1.000000 0.962356 1.000000
1.000000 0.965286 1.000000
0.000000 1.000000 1.000000
0.000000 1.000000 1.000000
0.000000 1.000000 1.000000
0.000000 1.000000 1.000000
0.555322 1.000000 1.000000
0.840375 1.000000 1.000000
0.954543 0.998993 1.000000
0.995850 0.995010 1.000000
1.000000 0.994797 1.000000
0.000000 1.000000 1.000000
0.000000 1.000000 1.000000
0.000000 1.000000 1.000000
0.000000 1.000000 1.000000
0.576165 1.000000 1.000000
0.845243 1.000000 1.000000
0.953933 1.000000 1.000000
0.993698 1.000000 1.000000
1.000000 1.000000 1.000000
