MEDT/Pirringer/Unterricht/2025-02-26/Korrektur und Grading FootageFotos-20250226T115430Z-001/Korrektur und Grading FootageFotos/Bounce Color True Basic Log Conversion LUTs/Monitor LUTs 17x17/BMPCC 4K Gen4 BMDFilm to Rec.709 LUT.cube
# Converted by Briz LUT Converter
LUT_3D_SIZE 17
0.000000 0.000000 0.000000
0.000000 0.000000 0.000000
0.096025 0.000000 0.000000
0.200275 0.000000 0.000000
0.295140 0.000000 0.000000
0.390295 0.000000 0.000000
0.488441 0.000000 0.000000
0.589670 0.000000 0.000000
0.692317 0.000000 0.000000
0.793439 0.000000 0.000000
0.889387 0.000000 0.000000
0.976562 0.000000 0.000000
1.000000 0.000000 0.000000
1.000000 0.000000 0.000000
1.000000 0.000000 0.000000
1.000000 0.000000 0.000000
1.000000 0.000000 0.000000
0.000000 0.000000 0.000000
0.000000 0.000000 0.000000
0.096025 0.000000 0.000000
0.200275 0.000000 0.000000
0.295140 0.000000 0.000000
0.390295 0.000000 0.000000
0.488441 0.000000 0.000000
0.589670 0.000000 0.000000
0.692317 0.000000 0.000000
0.793439 0.000000 0.000000
0.889387 0.000000 0.000000
0.976562 0.000000 0.000000
1.000000 0.000000 0.000000
1.000000 0.000000 0.000000
1.000000 0.000000 0.000000
1.000000 0.000000 0.000000
1.000000 0.000000 0.000000
0.000000 0.082994 0.000000
0.000000 0.082994 0.000000
0.064347 0.077439 0.000000
0.182284 0.068986 0.000000
0.282521 0.057374 0.000000
0.380682 0.041718 0.000000
0.480781 0.021149 0.000000
0.583368 0.000000 0.000000
0.687007 0.000000 0.000000
0.788876 0.000000 0.000000
0.885359 0.000000 0.000000
0.972930 0.000000 0.000000
1.000000 0.000000 0.000000
1.000000 0.000000 0.000000
1.000000 0.000000 0.000000
1.000000 0.000000 0.000000
1.000000 0.000000 0.000000
0.000000 0.180270 0.000000
0.000000 0.180270 0.000000
0.013214 0.177142 0.000000
0.150378 0.172061 0.000000
0.261326 0.164874 0.000000
0.364889 0.154803 0.000000
0.468345 0.140780 0.000000
0.573220 0.121386 0.000000
0.678492 0.094560 0.000000
0.781537 0.058320 0.000000
0.878904 0.018570 0.000000
0.967117 0.000000 0.000000
1.000000 0.000000 0.000000
1.000000 0.000000 0.000000
1.000000 0.000000 0.000000
1.000000 0.000000 0.000000
1.000000 0.000000 0.000000
0.000000 0.268803 0.000000
0.000000 0.268803 0.000000
0.000000 0.266560 0.000000
0.095888 0.262974 0.000000
0.229419 0.257984 0.000000
0.342031 0.251102 0.000000
0.450675 0.241794 0.000000
0.558938 0.229526 0.000000
0.666575 0.213825 0.000000
0.771344 0.194415 0.000000
0.869947 0.171374 0.000000
0.959060 0.145159 0.000000
1.000000 0.116503 0.000000
1.000000 0.086213 0.000000
1.000000 0.056947 0.000000
1.000000 0.033524 0.000000
1.000000 0.015396 0.000000
0.000000 0.357595 0.000000
0.000000 0.357595 0.000000
0.000000 0.355886 0.000000
0.001572 0.353155 0.000000
0.179202 0.349355 0.000000
0.308705 0.344167 0.000000
0.425696 0.337240 0.000000
0.539086 0.328252 0.000000
0.650172 0.317006 0.000000
0.757351 0.303563 0.000000
0.857710 0.288304 0.000000
0.948074 0.271992 0.000000
1.000000 0.255589 0.000000
1.000000 0.240085 0.000000
1.000000 0.226291 0.000000
1.000000 0.214633 0.000000
1.000000 0.205234 0.000000
0.000000 0.449180 0.000000
0.000000 0.449180 0.000000
0.000000 0.447822 0.000000
0.000000 0.445640 0.000000
0.088121 0.442618 0.000000
0.259098 0.438514 0.000000
0.390494 0.433051 0.000000
0.511788 0.426032 0.000000
0.627909 0.417350 0.000000
0.738537 0.407111 0.000000
0.841321 0.395682 0.000000
0.933440 0.383719 0.000000
1.000000 0.371969 0.000000
1.000000 0.361151 0.000000
1.000000 0.351766 0.000000
1.000000 0.344045 0.000000
1.000000 0.337942 0.000000
0.000000 0.543633 0.000000
0.000000 0.543633 0.000000
0.000000 0.542519 0.000000
0.000000 0.540719 0.000000
0.000000 0.538231 0.000000
0.180331 0.534874 0.000000
0.340780 0.530434 0.000000
0.474830 0.524727 0.000000
0.598413 0.517723 0.000000
0.713909 0.509499 0.000000
0.820020 0.500420 0.000000
0.914488 0.491005 0.000000
0.995392 0.481865 0.000000
1.000000 0.473548 0.000000
1.000000 0.466392 0.000000
1.000000 0.460563 0.000000
1.000000 0.455985 0.000000
0.000000 0.639429 0.000000
0.000000 0.639429 0.000000
0.000000 0.638483 0.000000
0.000000 0.636957 0.000000
0.000000 0.634882 0.000000
0.022416 0.632044 0.000000
0.269093 0.628321 0.000000
0.425574 0.623545 0.000000
0.560357 0.617700 0.000000
0.682673 0.610880 0.000000
0.793301 0.603387 0.000000
0.890852 0.595651 0.000000
0.973938 0.588174 0.000000
1.000000 0.581430 0.000000
1.000000 0.575647 0.000000
1.000000 0.570947 0.000000
1.000000 0.567285 0.000000
0.000000 0.733806 0.000000
0.000000 0.733806 0.000000
0.000000 0.732982 0.000000
0.000000 0.731670 0.000000
0.000000 0.729870 0.000000
0.000000 0.727443 0.000000
0.155550 0.724239 0.000000
0.360601 0.720134 0.000000
0.512840 0.715129 0.000000
0.644633 0.709300 0.000000
0.761196 0.702907 0.000000
0.862715 0.696345 0.000000
0.948501 0.690028 0.000000
1.000000 0.684321 0.000000
1.000000 0.679469 0.000000
1.000000 0.675532 0.000000
1.000000 0.672480 0.000000
0.000000 0.823346 0.000000
0.000000 0.823346 0.000000
0.000000 0.822614 0.000000
0.000000 0.821469 0.000000
0.000000 0.819883 0.000000
0.000000 0.817731 0.000000
0.000000 0.814908 0.000000
0.274067 0.811307 0.000000
0.455497 0.806897 0.000000
0.600427 0.801785 0.000000
0.724590 0.796201 0.000000
0.830961 0.790463 0.000000
0.919997 0.784970 0.000000
0.992233 0.780011 0.000000
1.000000 0.775799 0.000000
1.000000 0.772381 0.000000
1.000000 0.769741 0.000000
0.000000 0.904677 0.000000
0.000000 0.904677 0.000000
0.000000 0.904021 0.000000
0.000000 0.902983 0.000000
0.000000 0.901564 0.000000
0.000000 0.899626 0.000000
0.000000 0.897078 0.000000
0.147967 0.893843 0.000000
0.388525 0.889891 0.000000
0.551614 0.885298 0.000000
0.685161 0.880278 0.000000
0.797208 0.875151 0.000000
0.889952 0.870222 0.000000
0.964675 0.865797 0.000000
1.000000 0.862043 0.000000
1.000000 0.859007 0.000000
1.000000 0.856641 0.000000
0.000000 0.975280 0.000000
0.000000 0.975280 0.000000
0.000000 0.974685 0.000000
0.000000 0.973724 0.000000
0.000000 0.972412 0.000000
0.000000 0.970642 0.000000
0.000000 0.968292 0.000000
0.000000 0.965316 0.000000
0.312093 0.961685 0.000000
0.500557 0.957473 0.000000
0.645212 0.952880 0.000000
0.763577 0.948180 0.000000
0.860258 0.943679 0.000000
0.937591 0.939635 0.000000
0.997818 0.936202 0.000000
1.000000 0.933425 0.000000
1.000000 0.931273 0.000000
0.000000 1.000000 0.000000
0.000000 1.000000 0.000000
0.000000 1.000000 0.000000
0.000000 1.000000 0.000000
0.000000 1.000000 0.000000
0.000000 1.000000 0.000000
0.000000 1.000000 0.000000
0.000000 1.000000 0.000000
0.224750 1.000000 0.000000
0.449912 1.000000 0.000000
0.607141 1.000000 0.000000
0.732067 1.000000 0.000000
0.832731 1.000000 0.000000
0.912627 1.000000 0.000000
0.974548 0.997391 0.000000
1.000000 0.994812 0.000000
1.000000 0.992798 0.000000
0.000000 1.000000 0.000000
0.000000 1.000000 0.000000
0.000000 1.000000 0.000000
0.000000 1.000000 0.000000
0.000000 1.000000 0.000000
0.000000 1.000000 0.000000
0.000000 1.000000 0.000000
0.000000 1.000000 0.000000
0.117357 1.000000 0.000000
0.402182 1.000000 0.000000
0.572900 1.000000 0.000000
0.704265 1.000000 0.000000
0.808667 1.000000 0.000000
0.890929 1.000000 0.000000
0.954406 1.000000 0.000000
1.000000 1.000000 0.000000
1.000000 1.000000 0.000000
0.000000 1.000000 0.000000
0.000000 1.000000 0.000000
0.000000 1.000000 0.000000
0.000000 1.000000 0.000000
0.000000 1.000000 0.000000
0.000000 1.000000 0.000000
0.000000 1.000000 0.000000
0.000000 1.000000 0.000000
0.000000 1.000000 0.000000
0.359274 1.000000 0.000000
0.543694 1.000000 0.000000
0.681010 1.000000 0.000000
0.788724 1.000000 0.000000
0.873014 1.000000 0.000000
0.937835 1.000000 0.000000
0.986633 1.000000 0.000000
1.000000 1.000000 0.000000
0.000000 1.000000 0.000000
0.000000 1.000000 0.000000
0.000000 1.000000 0.000000
0.000000 1.000000 0.000000
0.000000 1.000000 0.000000
0.000000 1.000000 0.000000
0.000000 1.000000 0.000000
0.000000 1.000000 0.000000
0.000000 1.000000 0.000000
0.322332 1.000000 0.000000
0.519921 1.000000 0.000000
0.662394 1.000000 0.000000
0.772885 1.000000 0.000000
0.858869 1.000000 0.000000
0.924773 1.000000 0.000000
0.974289 1.000000 0.000000
1.000000 1.000000 0.000000
0.000000 0.000000 0.000000
0.000000 0.000000 0.000000
0.096025 0.000000 0.000000
0.200275 0.000000 0.000000
0.295140 0.000000 0.000000
0.390295 0.000000 0.000000
0.488441 0.000000 0.000000
0.589670 0.000000 0.000000
0.692317 0.000000 0.000000
0.793439 0.000000 0.000000
0.889387 0.000000 0.000000
0.976562 0.000000 0.000000
1.000000 0.000000 0.000000
1.000000 0.000000 0.000000
1.000000 0.000000 0.000000
1.000000 0.000000 0.000000
1.000000 0.000000 0.000000
0.000000 0.000000 0.000000
0.000000 0.000000 0.000000
0.096025 0.000000 0.000000
0.200275 0.000000 0.000000
0.295140 0.000000 0.000000
0.390295 0.000000 0.000000
0.488441 0.000000 0.000000
0.589670 0.000000 0.000000
0.692317 0.000000 0.000000
0.793439 0.000000 0.000000
0.889387 0.000000 0.000000
0.976562 0.000000 0.000000
1.000000 0.000000 0.000000
1.000000 0.000000 0.000000
1.000000 0.000000 0.000000
1.000000 0.000000 0.000000
1.000000 0.000000 0.000000
0.000000 0.082994 0.000000
0.000000 0.082994 0.000000
0.064347 0.077439 0.000000
0.182284 0.068986 0.000000
0.282521 0.057374 0.000000
0.380682 0.041718 0.000000
0.480781 0.021149 0.000000
0.583368 0.000000 0.000000
0.687007 0.000000 0.000000
0.788876 0.000000 0.000000
0.885359 0.000000 0.000000
0.972930 0.000000 0.000000
1.000000 0.000000 0.000000
1.000000 0.000000 0.000000
1.000000 0.000000 0.000000
1.000000 0.000000 0.000000
1.000000 0.000000 0.000000
0.000000 0.180270 0.000000
0.000000 0.180270 0.000000
0.013214 0.177142 0.000000
0.150378 0.172061 0.000000
0.261326 0.164874 0.000000
0.364889 0.154803 0.000000
0.468345 0.140780 0.000000
0.573220 0.121386 0.000000
0.678492 0.094560 0.000000
0.781537 0.058320 0.000000
0.878904 0.018570 0.000000
0.967117 0.000000 0.000000
1.000000 0.000000 0.000000
1.000000 0.000000 0.000000
1.000000 0.000000 0.000000
1.000000 0.000000 0.000000
1.000000 0.000000 0.000000
0.000000 0.268803 0.000000
0.000000 0.268803 0.000000
0.000000 0.266560 0.000000
0.095888 0.262974 0.000000
0.229419 0.257984 0.000000
0.342031 0.251102 0.000000
0.450675 0.241794 0.000000
0.558938 0.229526 0.000000
0.666575 0.213825 0.000000
0.771344 0.194415 0.000000
0.869947 0.171374 0.000000
0.959060 0.145159 0.000000
1.000000 0.116503 0.000000
1.000000 0.086213 0.000000
1.000000 0.056947 0.000000
1.000000 0.033524 0.000000
1.000000 0.015396 0.000000
0.000000 0.357595 0.000000
0.000000 0.357595 0.000000
0.000000 0.355886 0.000000
0.001572 0.353155 0.000000
0.179202 0.349355 0.000000
0.308705 0.344167 0.000000
0.425696 0.337240 0.000000
0.539086 0.328252 0.000000
0.650172 0.317006 0.000000
0.757351 0.303563 0.000000
0.857710 0.288304 0.000000
0.948074 0.271992 0.000000
1.000000 0.255589 0.000000
1.000000 0.240085 0.000000
1.000000 0.226291 0.000000
1.000000 0.214633 0.000000
1.000000 0.205234 0.000000
0.000000 0.449180 0.000000
0.000000 0.449180 0.000000
0.000000 0.447822 0.000000
0.000000 0.445640 0.000000
0.088121 0.442618 0.000000
0.259098 0.438514 0.000000
0.390494 0.433051 0.000000
0.511788 0.426032 0.000000
0.627909 0.417350 0.000000
0.738537 0.407111 0.000000
0.841321 0.395682 0.000000
0.933440 0.383719 0.000000
1.000000 0.371969 0.000000
1.000000 0.361151 0.000000
1.000000 0.351766 0.000000
1.000000 0.344045 0.000000
1.000000 0.337942 0.000000
0.000000 0.543633 0.000000
0.000000 0.543633 0.000000
0.000000 0.542519 0.000000
0.000000 0.540719 0.000000
0.000000 0.538231 0.000000
0.180331 0.534874 0.000000
0.340780 0.530434 0.000000
0.474830 0.524727 0.000000
0.598413 0.517723 0.000000
0.713909 0.509499 0.000000
0.820020 0.500420 0.000000
0.914488 0.491005 0.000000
0.995392 0.481865 0.000000
1.000000 0.473548 0.000000
1.000000 0.466392 0.000000
1.000000 0.460563 0.000000
1.000000 0.455985 0.000000
0.000000 0.639429 0.000000
0.000000 0.639429 0.000000
0.000000 0.638483 0.000000
0.000000 0.636957 0.000000
0.000000 0.634882 0.000000
0.022416 0.632044 0.000000
0.269093 0.628321 0.000000
0.425574 0.623545 0.000000
0.560357 0.617700 0.000000
0.682673 0.610880 0.000000
0.793301 0.603387 0.000000
0.890852 0.595651 0.000000
0.973938 0.588174 0.000000
1.000000 0.581430 0.000000
1.000000 0.575647 0.000000
1.000000 0.570947 0.000000
1.000000 0.567285 0.000000
0.000000 0.733806 0.000000
0.000000 0.733806 0.000000
0.000000 0.732982 0.000000
0.000000 0.731670 0.000000
0.000000 0.729870 0.000000
0.000000 0.727443 0.000000
0.155550 0.724239 0.000000
0.360601 0.720134 0.000000
0.512840 0.715129 0.000000
0.644633 0.709300 0.000000
0.761196 0.702907 0.000000
0.862715 0.696345 0.000000
0.948501 0.690028 0.000000
1.000000 0.684321 0.000000
1.000000 0.679469 0.000000
1.000000 0.675532 0.000000
1.000000 0.672480 0.000000
0.000000 0.823346 0.000000
0.000000 0.823346 0.000000
0.000000 0.822614 0.000000
0.000000 0.821469 0.000000
0.000000 0.819883 0.000000
0.000000 0.817731 0.000000
0.000000 0.814908 0.000000
0.274067 0.811307 0.000000
0.455497 0.806897 0.000000
0.600427 0.801785 0.000000
0.724590 0.796201 0.000000
0.830961 0.790463 0.000000
0.919997 0.784970 0.000000
0.992233 0.780011 0.000000
1.000000 0.775799 0.000000
1.000000 0.772381 0.000000
1.000000 0.769741 0.000000
0.000000 0.904677 0.000000
0.000000 0.904677 0.000000
0.000000 0.904021 0.000000
0.000000 0.902983 0.000000
0.000000 0.901564 0.000000
0.000000 0.899626 0.000000
0.000000 0.897078 0.000000
0.147967 0.893843 0.000000
0.388525 0.889891 0.000000
0.551614 0.885298 0.000000
0.685161 0.880278 0.000000
0.797208 0.875151 0.000000
0.889952 0.870222 0.000000
0.964675 0.865797 0.000000
1.000000 0.862043 0.000000
1.000000 0.859007 0.000000
1.000000 0.856641 0.000000
0.000000 0.975280 0.000000
0.000000 0.975280 0.000000
0.000000 0.974685 0.000000
0.000000 0.973724 0.000000
0.000000 0.972412 0.000000
0.000000 0.970642 0.000000
0.000000 0.968292 0.000000
0.000000 0.965316 0.000000
0.312093 0.961685 0.000000
0.500557 0.957473 0.000000
0.645212 0.952880 0.000000
0.763577 0.948180 0.000000
0.860258 0.943679 0.000000
0.937591 0.939635 0.000000
0.997818 0.936202 0.000000
1.000000 0.933425 0.000000
1.000000 0.931273 0.000000
0.000000 1.000000 0.000000
0.000000 1.000000 0.000000
0.000000 1.000000 0.000000
0.000000 1.000000 0.000000
0.000000 1.000000 0.000000
0.000000 1.000000 0.000000
0.000000 1.000000 0.000000
0.000000 1.000000 0.000000
0.224750 1.000000 0.000000
0.449912 1.000000 0.000000
0.607141 1.000000 0.000000
0.732067 1.000000 0.000000
0.832731 1.000000 0.000000
0.912627 1.000000 0.000000
0.974548 0.997391 0.000000
1.000000 0.994812 0.000000
1.000000 0.992798 0.000000
0.000000 1.000000 0.000000
0.000000 1.000000 0.000000
0.000000 1.000000 0.000000
0.000000 1.000000 0.000000
0.000000 1.000000 0.000000
0.000000 1.000000 0.000000
0.000000 1.000000 0.000000
0.000000 1.000000 0.000000
0.117357 1.000000 0.000000
0.402182 1.000000 0.000000
0.572900 1.000000 0.000000
0.704265 1.000000 0.000000
0.808667 1.000000 0.000000
0.890929 1.000000 0.000000
0.954406 1.000000 0.000000
1.000000 1.000000 0.000000
1.000000 1.000000 0.000000
0.000000 1.000000 0.000000
0.000000 1.000000 0.000000
0.000000 1.000000 0.000000
0.000000 1.000000 0.000000
0.000000 1.000000 0.000000
0.000000 1.000000 0.000000
0.000000 1.000000 0.000000
0.000000 1.000000 0.000000
0.000000 1.000000 0.000000
0.359274 1.000000 0.000000
0.543694 1.000000 0.000000
0.681010 1.000000 0.000000
0.788724 1.000000 0.000000
0.873014 1.000000 0.000000
0.937835 1.000000 0.000000
0.986633 1.000000 0.000000
1.000000 1.000000 0.000000
0.000000 1.000000 0.000000
0.000000 1.000000 0.000000
0.000000 1.000000 0.000000
0.000000 1.000000 0.000000
0.000000 1.000000 0.000000
0.000000 1.000000 0.000000
0.000000 1.000000 0.000000
0.000000 1.000000 0.000000
0.000000 1.000000 0.000000
0.322332 1.000000 0.000000
0.519921 1.000000 0.000000
0.662394 1.000000 0.000000
0.772885 1.000000 0.000000
0.858869 1.000000 0.000000
0.924773 1.000000 0.000000
0.974289 1.000000 0.000000
1.000000 1.000000 0.000000
0.000000 0.000000 0.080064
0.000000 0.000000 0.080064
0.093446 0.000000 0.076860
0.198749 0.000000 0.071763
0.294057 0.000000 0.064759
0.389471 0.000000 0.055329
0.487785 0.000000 0.042939
0.589120 0.000000 0.027207
0.691844 0.000000 0.008103
0.793042 0.000000 0.000000
0.889036 0.000000 0.000000
0.976242 0.000000 0.000000
1.000000 0.000000 0.000000
1.000000 0.000000 0.000000
1.000000 0.000000 0.000000
1.000000 0.000000 0.000000
1.000000 0.000000 0.000000
0.000000 0.000000 0.080064
0.000000 0.000000 0.080064
0.093446 0.000000 0.076860
0.198749 0.000000 0.071763
0.294057 0.000000 0.064759
0.389471 0.000000 0.055329
0.487785 0.000000 0.042939
0.589120 0.000000 0.027207
0.691844 0.000000 0.008103
0.793042 0.000000 0.000000
0.889036 0.000000 0.000000
0.976242 0.000000 0.000000
1.000000 0.000000 0.000000
1.000000 0.000000 0.000000
1.000000 0.000000 0.000000
1.000000 0.000000 0.000000
1.000000 0.000000 0.000000
0.000000 0.066835 0.064729
0.000000 0.066835 0.064729
0.061524 0.061524 0.061524
0.180652 0.053086 0.056443
0.281392 0.041459 0.049439
0.379828 0.025803 0.040009
0.480110 0.005249 0.027604
0.582818 0.000000 0.011887
0.686549 0.000000 0.000000
0.788464 0.000000 0.000000
0.885008 0.000000 0.000000
0.972610 0.000000 0.000000
1.000000 0.000000 0.000000
1.000000 0.000000 0.000000
1.000000 0.000000 0.000000
1.000000 0.000000 0.000000
1.000000 0.000000 0.000000
0.000000 0.170748 0.040360
0.000000 0.170748 0.040360
0.010391 0.167468 0.037156
0.148470 0.162158 0.032059
0.260105 0.154635 0.025071
0.364004 0.144030 0.015625
0.467643 0.129198 0.003235
0.572656 0.108461 0.000000
0.678019 0.078996 0.000000
0.781140 0.042405 0.000000
0.878553 0.002655 0.000000
0.966796 0.000000 0.000000
1.000000 0.000000 0.000000
1.000000 0.000000 0.000000
1.000000 0.000000 0.000000
1.000000 0.000000 0.000000
1.000000 0.000000 0.000000
0.000000 0.262058 0.006851
0.000000 0.262058 0.006851
0.000000 0.259770 0.003647
0.093294 0.256107 0.000000
0.228061 0.250980 0.000000
0.341085 0.243931 0.000000
0.449958 0.234379 0.000000
0.558358 0.221775 0.000000
0.666102 0.205570 0.000000
0.770932 0.185458 0.000000
0.869581 0.161440 0.000000
0.958740 0.133852 0.000000
1.000000 0.103197 0.000000
1.000000 0.070130 0.000000
1.000000 0.041047 0.000000
1.000000 0.017609 0.000000
1.000000 0.000000 0.000000
0.000000 0.352453 0.000000
0.000000 0.352453 0.000000
0.000000 0.350713 0.000000
0.000000 0.347936 0.000000
0.177539 0.344076 0.000000
0.307668 0.338827 0.000000
0.424933 0.331792 0.000000
0.538476 0.322667 0.000000
0.649668 0.311238 0.000000
0.756939 0.297551 0.000000
0.857343 0.281987 0.000000
0.947753 0.265324 0.000000
1.000000 0.248539 0.000000
1.000000 0.232624 0.000000
1.000000 0.218433 0.000000
1.000000 0.206409 0.000000
1.000000 0.196689 0.000000
0.000000 0.445075 0.000000
0.000000 0.445075 0.000000
0.000000 0.443687 0.000000
0.000000 0.441489 0.000000
0.085405 0.438437 0.000000
0.257877 0.434302 0.000000
0.389654 0.428794 0.000000
0.511147 0.421698 0.000000
0.627405 0.412924 0.000000
0.738109 0.402564 0.000000
0.840955 0.391012 0.000000
0.933104 0.378912 0.000000
1.000000 0.367010 0.000000
1.000000 0.356054 0.000000
1.000000 0.346532 0.000000
1.000000 0.338689 0.000000
1.000000 0.332494 0.000000
0.000000 0.540261 0.000000
0.000000 0.540261 0.000000
0.000000 0.539132 0.000000
0.000000 0.537316 0.000000
0.000000 0.534829 0.000000
0.178668 0.531441 0.000000
0.339834 0.526970 0.000000
0.474144 0.521218 0.000000
0.597879 0.514168 0.000000
0.713451 0.505882 0.000000
0.819638 0.496742 0.000000
0.914153 0.487251 0.000000
0.995087 0.478050 0.000000
1.000000 0.469657 0.000000
1.000000 0.462440 0.000000
1.000000 0.456550 0.000000
1.000000 0.451942 0.000000
0.000000 0.636576 0.000000
0.000000 0.636576 0.000000
0.000000 0.635615 0.000000
0.000000 0.634104 0.000000
0.000000 0.631998 0.000000
0.019608 0.629160 0.000000
0.267918 0.625422 0.000000
0.424811 0.620615 0.000000
0.559777 0.614740 0.000000
0.682200 0.607889 0.000000
0.792905 0.600351 0.000000
0.890501 0.592569 0.000000
0.973617 0.585061 0.000000
1.000000 0.578271 0.000000
1.000000 0.572457 0.000000
1.000000 0.567742 0.000000
1.000000 0.564065 0.000000
0.000000 0.731334 0.000000
0.000000 0.731334 0.000000
0.000000 0.730526 0.000000
0.000000 0.729213 0.000000
0.000000 0.727398 0.000000
0.000000 0.724956 0.000000
0.153689 0.721736 0.000000
0.359701 0.717632 0.000000
0.512200 0.712596 0.000000
0.644129 0.706752 0.000000
0.760784 0.700328 0.000000
0.862348 0.693736 0.000000
0.948180 0.687404 0.000000
1.000000 0.681682 0.000000
1.000000 0.676799 0.000000
1.000000 0.672847 0.000000
1.000000 0.669779 0.000000
0.000000 0.821164 0.000000
0.000000 0.821164 0.000000
0.000000 0.820447 0.000000
0.000000 0.819287 0.000000
0.000000 0.817700 0.000000
0.000000 0.815549 0.000000
0.000000 0.812711 0.000000
0.272908 0.809094 0.000000
0.454780 0.804685 0.000000
0.599878 0.799558 0.000000
0.724147 0.793957 0.000000
0.830579 0.788205 0.000000
0.919661 0.782681 0.000000
0.991928 0.777707 0.000000
1.000000 0.773480 0.000000
1.000000 0.770062 0.000000
1.000000 0.767407 0.000000
0.000000 0.902724 0.000000
0.000000 0.902724 0.000000
0.000000 0.902068 0.000000
0.000000 0.901030 0.000000
0.000000 0.899596 0.000000
0.000000 0.897658 0.000000
0.000000 0.895109 0.000000
0.146044 0.891859 0.000000
0.387686 0.887892 0.000000
0.551034 0.883299 0.000000
0.684688 0.878264 0.000000
0.796811 0.873121 0.000000
0.889601 0.868193 0.000000
0.964355 0.863752 0.000000
1.000000 0.859983 0.000000
1.000000 0.856931 0.000000
1.000000 0.854566 0.000000
0.000000 0.973480 0.000000
0.000000 0.973480 0.000000
0.000000 0.972885 0.000000
0.000000 0.971923 0.000000
0.000000 0.970611 0.000000
0.000000 0.968826 0.000000
0.000000 0.966476 0.000000
0.000000 0.963500 0.000000
0.311070 0.959854 0.000000
0.499901 0.955642 0.000000
0.644724 0.951034 0.000000
0.763149 0.946319 0.000000
0.859892 0.941802 0.000000
0.937255 0.937758 0.000000
0.997497 0.934310 0.000000
1.000000 0.931533 0.000000
1.000000 0.929381 0.000000
0.000000 1.000000 0.000000
0.000000 1.000000 0.000000
0.000000 1.000000 0.000000
0.000000 1.000000 0.000000
0.000000 1.000000 0.000000
0.000000 1.000000 0.000000
0.000000 1.000000 0.000000
0.000000 1.000000 0.000000
0.223362 1.000000 0.000000
0.449195 1.000000 0.000000
0.606607 1.000000 0.000000
0.731640 1.000000 0.000000
0.832349 1.000000 0.000000
0.912276 0.998840 0.000000
0.974227 0.995636 0.000000
1.000000 0.993042 0.000000
1.000000 0.991028 0.000000
0.000000 1.000000 0.000000
0.000000 1.000000 0.000000
0.000000 1.000000 0.000000
0.000000 1.000000 0.000000
0.000000 1.000000 0.000000
0.000000 1.000000 0.000000
0.000000 1.000000 0.000000
0.000000 1.000000 0.000000
0.115084 1.000000 0.000000
0.401373 1.000000 0.000000
0.572335 1.000000 0.000000
0.703822 1.000000 0.000000
0.808286 1.000000 0.000000
0.890578 1.000000 0.000000
0.954086 1.000000 0.000000
1.000000 1.000000 0.000000
1.000000 1.000000 0.000000
0.000000 1.000000 0.000000
0.000000 1.000000 0.000000
0.000000 1.000000 0.000000
0.000000 1.000000 0.000000
0.000000 1.000000 0.000000
0.000000 1.000000 0.000000
0.000000 1.000000 0.000000
0.000000 1.000000 0.000000
0.000000 1.000000 0.000000
0.358373 1.000000 0.000000
0.543099 1.000000 0.000000
0.680537 1.000000 0.000000
0.788312 1.000000 0.000000
0.872663 1.000000 0.000000
0.937499 1.000000 0.000000
0.986313 1.000000 0.000000
1.000000 1.000000 0.000000
0.000000 1.000000 0.000000
0.000000 1.000000 0.000000
0.000000 1.000000 0.000000
0.000000 1.000000 0.000000
0.000000 1.000000 0.000000
0.000000 1.000000 0.000000
0.000000 1.000000 0.000000
0.000000 1.000000 0.000000
0.000000 1.000000 0.000000
0.321324 1.000000 0.000000
0.519295 1.000000 0.000000
0.661906 1.000000 0.000000
0.772473 1.000000 0.000000
0.858503 1.000000 0.000000
0.924437 1.000000 0.000000
0.973983 1.000000 0.000000
1.000000 1.000000 0.000000
0.000000 0.000000 0.176150
0.000000 0.000000 0.176150
0.089250 0.000000 0.174228
0.196323 0.000000 0.171130
0.292317 0.000000 0.166827
0.388144 0.000000 0.160861
0.486717 0.000000 0.152773
0.588251 0.000000 0.142031
0.691112 0.000000 0.128115
0.792416 0.000000 0.110658
0.888487 0.000000 0.089418
0.975738 0.000000 0.065019
1.000000 0.000000 0.041794
1.000000 0.000000 0.021042
1.000000 0.000000 0.003510
1.000000 0.000000 0.000000
1.000000 0.000000 0.000000
0.000000 0.000000 0.176150
0.000000 0.000000 0.176150
0.089250 0.000000 0.174228
