MEDT/Pirringer/Unterricht/2025-02-26/Korrektur und Grading FootageFotos-20250226T115430Z-001/Korrektur und Grading FootageFotos/Bounce Color True Basic Log Conversion LUTs/Monitor LUTs 17x17/BMPCC 6K Gen5 BMDFilm to Rec.709 LUT.cube
# Converted by Briz LUT Converter
LUT_3D_SIZE 17
0.000000 0.000000 0.000000
0.000000 0.000000 0.000000
0.003937 0.000000 0.000000
0.090883 0.000000 0.000000
0.194888 0.000000 0.000000
0.311849 0.000000 0.000000
0.452705 0.000000 0.000000
0.612604 0.000000 0.000000
0.771069 0.000000 0.000000
0.906050 0.000000 0.000000
1.000000 0.000000 0.000000
1.000000 0.000000 0.000000
1.000000 0.000000 0.000000
1.000000 0.000000 0.000000
1.000000 0.000000 0.000000
1.000000 0.000000 0.000000
1.000000 0.000000 0.000000
0.000000 0.000000 0.000000
0.000000 0.000000 0.000000
0.003708 0.000000 0.000000
0.090150 0.000000 0.000000
0.194797 0.000000 0.000000
0.312871 0.000000 0.000000
0.455222 0.000000 0.000000
0.618265 0.000000 0.000000
0.780224 0.000000 0.000000
0.917739 0.000000 0.000000
1.000000 0.000000 0.000000
1.000000 0.000000 0.000000
1.000000 0.000000 0.000000
1.000000 0.000000 0.000000
1.000000 0.000000 0.000000
1.000000 0.000000 0.000000
1.000000 0.000000 0.000000
0.000000 0.002182 0.000000
0.000000 0.002411 0.000000
0.002274 0.002731 0.000000
0.091997 0.000000 0.000000
0.199084 0.000000 0.000000
0.320577 0.000000 0.000000
0.468025 0.000000 0.000000
0.636713 0.000000 0.000000
0.802319 0.000000 0.000000
0.942123 0.000000 0.000000
1.000000 0.000000 0.000000
1.000000 0.000000 0.000000
1.000000 0.000000 0.000000
1.000000 0.000000 0.000000
1.000000 0.000000 0.000000
1.000000 0.000000 0.000000
1.000000 0.000000 0.000000
0.000000 0.068208 0.000000
0.000000 0.071901 0.000000
0.000000 0.076341 0.000000
0.060151 0.072404 0.000000
0.185840 0.060029 0.000000
0.318441 0.036179 0.000000
0.474678 0.000000 0.000000
0.649866 0.000000 0.000000
0.820859 0.000000 0.000000
0.961501 0.000000 0.000000
1.000000 0.000000 0.000000
1.000000 0.000000 0.000000
1.000000 0.000000 0.000000
1.000000 0.000000 0.000000
1.000000 0.000000 0.000000
1.000000 0.000000 0.000000
1.000000 0.000000 0.000000
0.000000 0.159426 0.000000
0.000000 0.166537 0.000000
0.000000 0.174075 0.000000
0.000122 0.176043 0.000000
0.149294 0.170886 0.000000
0.299275 0.156802 0.000000
0.466194 0.127626 0.000000
0.650523 0.073838 0.000000
0.826673 0.002274 0.000000
0.970367 0.000000 0.000000
1.000000 0.000000 0.000000
1.000000 0.000000 0.000000
1.000000 0.000000 0.000000
1.000000 0.000000 0.000000
1.000000 0.000000 0.000000
1.000000 0.000000 0.000000
1.000000 0.008972 0.000000
0.000000 0.262257 0.000000
0.000000 0.272602 0.000000
0.000000 0.284184 0.000000
0.000000 0.290486 0.000000
0.053666 0.291051 0.000000
0.254032 0.284733 0.000000
0.440635 0.268681 0.000000
0.636683 0.241749 0.000000
0.820981 0.207752 0.000000
0.968231 0.174899 0.000000
1.000000 0.149035 0.000000
1.000000 0.140063 0.000000
1.000000 0.149737 0.000000
1.000000 0.176089 0.000000
1.000000 0.216159 0.000000
1.000000 0.258198 0.000000
1.000000 0.297917 0.000000
0.000000 0.386419 0.000000
0.000000 0.401984 0.000000
0.000000 0.417365 0.000000
0.000000 0.429206 0.000000
0.000000 0.435187 0.000000
0.144961 0.434394 0.000000
0.383902 0.425895 0.000000
0.601450 0.410513 0.000000
0.796719 0.392111 0.000000
0.949401 0.377813 0.000000
1.000000 0.371283 0.000000
1.000000 0.373770 0.000000
1.000000 0.386831 0.000000
1.000000 0.410208 0.000000
1.000000 0.441398 0.000000
1.000000 0.474891 0.000000
1.000000 0.508385 0.000000
0.000000 0.536614 0.000000
0.000000 0.556054 0.000000
0.000000 0.576471 0.000000
0.000000 0.593103 0.000000
0.000000 0.602762 0.000000
0.000000 0.606210 0.000000
0.273472 0.602884 0.000000
0.537636 0.592996 0.000000
0.751125 0.581659 0.000000
0.912520 0.575097 0.000000
1.000000 0.573312 0.000000
1.000000 0.578927 0.000000
1.000000 0.591684 0.000000
1.000000 0.611719 0.000000
1.000000 0.637842 0.000000
1.000000 0.665690 0.000000
1.000000 0.691752 0.000000
0.000000 0.701381 0.000000
0.000000 0.724239 0.000000
0.000000 0.746685 0.000000
0.000000 0.764080 0.000000
0.000000 0.775372 0.000000
0.000000 0.780133 0.000000
0.016846 0.777554 0.000000
0.449104 0.769940 0.000000
0.692088 0.760876 0.000000
0.863600 0.754971 0.000000
0.982300 0.753674 0.000000
1.000000 0.756603 0.000000
1.000000 0.765728 0.000000
1.000000 0.780529 0.000000
1.000000 0.799451 0.000000
1.000000 0.820050 0.000000
1.000000 0.840085 0.000000
0.000000 0.859510 0.000000
0.000000 0.880079 0.000000
0.000000 0.899443 0.000000
0.000000 0.914443 0.000000
0.000000 0.922896 0.000000
0.000000 0.925292 0.000000
0.000000 0.922240 0.000000
0.352331 0.913573 0.000000
0.634501 0.903639 0.000000
0.817212 0.896895 0.000000
0.939300 0.892409 0.000000
1.000000 0.892363 0.000000
1.000000 0.897566 0.000000
1.000000 0.907179 0.000000
1.000000 0.920592 0.000000
1.000000 0.935775 0.000000
1.000000 0.949783 0.000000
0.000000 0.986770 0.000000
0.000000 1.000000 0.000000
0.000000 1.000000 0.000000
0.000000 1.000000 0.000000
0.000000 1.000000 0.000000
0.000000 1.000000 0.000000
0.000000 1.000000 0.000000
0.255436 1.000000 0.000000
0.586053 1.000000 0.000000
0.777844 0.996399 0.000000
0.903899 0.991119 0.000000
0.983536 0.989593 0.000000
1.000000 0.991745 0.000000
1.000000 0.997604 0.000000
1.000000 1.000000 0.000000
1.000000 1.000000 0.000000
1.000000 1.000000 0.000000
0.000000 1.000000 0.000000
0.000000 1.000000 0.000000
0.000000 1.000000 0.000000
0.000000 1.000000 0.000000
0.000000 1.000000 0.000000
0.000000 1.000000 0.000000
0.000000 1.000000 0.000000
0.191928 1.000000 0.000000
0.560189 1.000000 0.000000
0.756725 1.000000 0.000000
0.883040 1.000000 0.000000
0.961883 1.000000 0.000000
1.000000 1.000000 0.000000
1.000000 1.000000 0.000000
1.000000 1.000000 0.000000
1.000000 1.000000 0.000000
1.000000 1.000000 0.000000
0.000000 1.000000 0.000000
0.000000 1.000000 0.000000
0.000000 1.000000 0.000000
0.000000 1.000000 0.000000
0.000000 1.000000 0.000000
0.000000 1.000000 0.000000
0.000000 1.000000 0.000000
0.202396 1.000000 0.000000
0.565591 1.000000 0.000000
0.756191 1.000000 0.000000
0.877012 1.000000 0.000000
0.952514 1.000000 0.000000
0.997330 1.000000 0.000000
1.000000 1.000000 0.000000
1.000000 1.000000 0.000000
1.000000 1.000000 0.000000
1.000000 1.000000 0.000000
0.000000 1.000000 0.000000
0.000000 1.000000 0.000000
0.000000 1.000000 0.000000
0.000000 1.000000 0.000000
0.000000 1.000000 0.000000
0.000000 1.000000 0.000000
0.000000 1.000000 0.000000
0.277821 1.000000 0.000000
0.594644 1.000000 0.000000
0.771313 1.000000 0.000000
0.883330 1.000000 0.000000
0.952544 1.000000 0.000000
0.994110 1.000000 0.000000
1.000000 1.000000 0.000000
1.000000 1.000000 0.000000
1.000000 1.000000 0.000000
1.000000 1.000000 0.000000
0.000000 1.000000 0.000000
0.000000 1.000000 0.000000
0.000000 1.000000 0.000000
0.000000 1.000000 0.000000
0.000000 1.000000 0.000000
0.000000 1.000000 0.000000
0.000000 1.000000 0.000000
0.379110 1.000000 0.000000
0.645304 1.000000 0.000000
0.802152 1.000000 0.000000
0.900938 1.000000 0.000000
0.962539 1.000000 0.000000
0.999390 1.000000 0.000000
1.000000 1.000000 0.000000
1.000000 1.000000 0.000000
1.000000 1.000000 0.000000
1.000000 1.000000 0.000000
0.000000 1.000000 0.000000
0.000000 1.000000 0.000000
0.000000 1.000000 0.000000
0.000000 1.000000 0.000000
0.000000 1.000000 0.000000
0.000000 1.000000 0.000000
0.000000 1.000000 0.000000
0.451408 1.000000 0.000000
0.685817 1.000000 0.000000
0.826017 1.000000 0.000000
0.915343 1.000000 0.000000
0.970886 1.000000 0.000000
1.000000 1.000000 0.000000
1.000000 1.000000 0.000000
1.000000 1.000000 0.000000
1.000000 1.000000 0.000000
1.000000 1.000000 0.000000
0.000000 1.000000 0.000000
0.000000 1.000000 0.000000
0.000000 1.000000 0.000000
0.000000 1.000000 0.000000
0.000000 1.000000 0.000000
0.000000 1.000000 0.000000
0.008042 1.000000 0.000000
0.492485 1.000000 0.000000
0.706661 1.000000 0.000000
0.838102 1.000000 0.000000
0.921920 1.000000 0.000000
0.974395 1.000000 0.000000
1.000000 1.000000 0.000000
1.000000 1.000000 0.000000
1.000000 1.000000 0.000000
1.000000 1.000000 0.000000
1.000000 1.000000 0.000000
0.000000 0.000000 0.000000
0.000000 0.000000 0.000000
0.004120 0.000000 0.000000
0.090730 0.000000 0.000000
0.194919 0.000000 0.000000
0.311879 0.000000 0.000000
0.452598 0.000000 0.000000
0.612863 0.000000 0.000000
0.771389 0.000000 0.000000
0.906447 0.000000 0.000000
1.000000 0.000000 0.000000
1.000000 0.000000 0.000000
1.000000 0.000000 0.000000
1.000000 0.000000 0.000000
1.000000 0.000000 0.000000
1.000000 0.000000 0.000000
1.000000 0.000000 0.000000
0.000000 0.000000 0.000000
0.000000 0.000000 0.000000
0.003571 0.000000 0.000000
0.090333 0.000000 0.000000
0.194919 0.000000 0.000000
0.313222 0.000000 0.000000
0.456062 0.000000 0.000000
0.619516 0.000000 0.000000
0.781735 0.000000 0.000000
0.919936 0.000000 0.000000
1.000000 0.000000 0.000000
1.000000 0.000000 0.000000
1.000000 0.000000 0.000000
1.000000 0.000000 0.000000
1.000000 0.000000 0.000000
1.000000 0.000000 0.000000
1.000000 0.000000 0.000000
0.000000 0.002121 0.000000
0.000000 0.002640 0.000000
0.002716 0.003265 0.000000
0.092577 0.000000 0.000000
0.200381 0.000000 0.000000
0.322377 0.000000 0.000000
0.470298 0.000000 0.000000
0.639460 0.000000 0.000000
0.805798 0.000000 0.000000
0.945220 0.000000 0.000000
1.000000 0.000000 0.000000
1.000000 0.000000 0.000000
1.000000 0.000000 0.000000
1.000000 0.000000 0.000000
1.000000 0.000000 0.000000
1.000000 0.000000 0.000000
1.000000 0.000000 0.000000
0.000000 0.069444 0.000000
0.000000 0.073625 0.000000
0.000000 0.078096 0.000000
0.062303 0.074983 0.000000
0.188174 0.062745 0.000000
0.321096 0.038758 0.000000
0.478248 0.000000 0.000000
0.654261 0.000000 0.000000
0.825132 0.000000 0.000000
0.965637 0.000000 0.000000
1.000000 0.000000 0.000000
1.000000 0.000000 0.000000
1.000000 0.000000 0.000000
1.000000 0.000000 0.000000
1.000000 0.000000 0.000000
1.000000 0.000000 0.000000
1.000000 0.000000 0.000000
0.000000 0.161807 0.000000
0.000000 0.168963 0.000000
0.000000 0.177371 0.000000
0.002274 0.179217 0.000000
0.152453 0.174319 0.000000
0.303288 0.160952 0.000000
0.470970 0.132174 0.000000
0.655833 0.079377 0.000000
0.832486 0.007996 0.000000
0.975280 0.000000 0.000000
1.000000 0.000000 0.000000
1.000000 0.000000 0.000000
1.000000 0.000000 0.000000
1.000000 0.000000 0.000000
1.000000 0.000000 0.000000
1.000000 0.000000 0.000000
1.000000 0.019486 0.000000
0.000000 0.265446 0.000000
0.000000 0.276768 0.000000
0.000000 0.288090 0.000000
0.000000 0.294804 0.000000
0.058320 0.296162 0.000000
0.258549 0.289647 0.000000
0.446250 0.274022 0.000000
0.643519 0.247883 0.000000
0.827344 0.214282 0.000000
0.973648 0.182696 0.000000
1.000000 0.159564 0.000000
1.000000 0.151400 0.000000
1.000000 0.161624 0.000000
1.000000 0.188952 0.000000
1.000000 0.227466 0.000000
1.000000 0.267155 0.000000
1.000000 0.305226 0.000000
0.000000 0.391775 0.000000
0.000000 0.407034 0.000000
0.000000 0.423163 0.000000
0.000000 0.435691 0.000000
0.000000 0.441352 0.000000
0.150973 0.441154 0.000000
0.390585 0.433173 0.000000
0.608408 0.417502 0.000000
0.803571 0.399558 0.000000
0.955444 0.386343 0.000000
1.000000 0.379751 0.000000
1.000000 0.382773 0.000000
1.000000 0.396612 0.000000
1.000000 0.419348 0.000000
1.000000 0.450782 0.000000
1.000000 0.482811 0.000000
1.000000 0.514199 0.000000
0.000000 0.542885 0.000000
0.000000 0.563439 0.000000
0.000000 0.584237 0.000000
0.000000 0.600320 0.000000
0.000000 0.610956 0.000000
0.000000 0.614481 0.000000
0.280461 0.610574 0.000000
0.545296 0.601328 0.000000
0.758282 0.590097 0.000000
0.917678 0.582971 0.000000
1.000000 0.581903 0.000000
1.000000 0.587015 0.000000
1.000000 0.599588 0.000000
1.000000 0.619944 0.000000
1.000000 0.645197 0.000000
1.000000 0.671733 0.000000
1.000000 0.697093 0.000000
0.000000 0.709377 0.000000
0.000000 0.732021 0.000000
0.000000 0.754162 0.000000
0.000000 0.772229 0.000000
0.000000 0.783108 0.000000
0.000000 0.787381 0.000000
0.032105 0.785367 0.000000
0.456901 0.777218 0.000000
0.698253 0.767575 0.000000
0.868681 0.762249 0.000000
0.985199 0.760006 0.000000
1.000000 0.762860 0.000000
1.000000 0.772152 0.000000
1.000000 0.785916 0.000000
1.000000 0.804715 0.000000
1.000000 0.825116 0.000000
1.000000 0.843961 0.000000
0.000000 0.866377 0.000000
0.000000 0.886687 0.000000
0.000000 0.906355 0.000000
0.000000 0.920531 0.000000
0.000000 0.928634 0.000000
0.000000 0.931319 0.000000
0.000000 0.927489 0.000000
0.360906 0.918471 0.000000
0.641169 0.908919 0.000000
0.821302 0.901335 0.000000
0.941909 0.896742 0.000000
1.000000 0.897017 0.000000
1.000000 0.901564 0.000000
1.000000 0.911055 0.000000
1.000000 0.924636 0.000000
1.000000 0.939116 0.000000
1.000000 0.952575 0.000000
0.000000 0.991836 0.000000
0.000000 1.000000 0.000000
0.000000 1.000000 0.000000
0.000000 1.000000 0.000000
0.000000 1.000000 0.000000
0.000000 1.000000 0.000000
0.000000 1.000000 0.000000
0.267720 1.000000 0.000000
0.591989 1.000000 0.000000
0.782086 0.999405 0.000000
0.906813 0.994278 0.000000
0.985077 0.992340 0.000000
1.000000 0.994507 0.000000
1.000000 1.000000 0.000000
1.000000 1.000000 0.000000
1.000000 1.000000 0.000000
1.000000 1.000000 0.000000
0.000000 1.000000 0.000000
0.000000 1.000000 0.000000
0.000000 1.000000 0.000000
0.000000 1.000000 0.000000
0.000000 1.000000 0.000000
0.000000 1.000000 0.000000
0.000000 1.000000 0.000000
0.206088 1.000000 0.000000
0.566979 1.000000 0.000000
0.761135 1.000000 0.000000
0.885512 1.000000 0.000000
0.963577 1.000000 0.000000
1.000000 1.000000 0.000000
1.000000 1.000000 0.000000
1.000000 1.000000 0.000000
1.000000 1.000000 0.000000
1.000000 1.000000 0.000000
0.000000 1.000000 0.000000
0.000000 1.000000 0.000000
0.000000 1.000000 0.000000
0.000000 1.000000 0.000000
0.000000 1.000000 0.000000
0.000000 1.000000 0.000000
0.000000 1.000000 0.000000
0.216968 1.000000 0.000000
0.571191 1.000000 0.000000
0.759396 1.000000 0.000000
0.879332 1.000000 0.000000
0.953658 1.000000 0.000000
0.998016 1.000000 0.000000
1.000000 1.000000 0.000000
1.000000 1.000000 0.000000
1.000000 1.000000 0.000000
1.000000 1.000000 0.000000
0.000000 1.000000 0.000000
0.000000 1.000000 0.000000
0.000000 1.000000 0.000000
0.000000 1.000000 0.000000
0.000000 1.000000 0.000000
0.000000 1.000000 0.000000
0.000000 1.000000 0.000000
0.286961 1.000000 0.000000
0.598398 1.000000 0.000000
0.773983 1.000000 0.000000
0.884565 1.000000 0.000000
0.953277 1.000000 0.000000
0.994598 1.000000 0.000000
1.000000 1.000000 0.000000
1.000000 1.000000 0.000000
1.000000 1.000000 0.000000
1.000000 1.000000 0.000000
0.000000 1.000000 0.000000
0.000000 1.000000 0.000000
0.000000 1.000000 0.000000
0.000000 1.000000 0.000000
0.000000 1.000000 0.000000
0.000000 1.000000 0.000000
0.000000 1.000000 0.000000
0.383368 1.000000 0.000000
0.647959 1.000000 0.000000
0.803189 1.000000 0.000000
0.901625 1.000000 0.000000
0.962890 1.000000 0.000000
0.999359 1.000000 0.000000
1.000000 1.000000 0.000000
1.000000 1.000000 0.000000
1.000000 1.000000 0.000000
1.000000 1.000000 0.000000
0.000000 1.000000 0.000000
0.000000 1.000000 0.000000
0.000000 1.000000 0.000000
0.000000 1.000000 0.000000
0.000000 1.000000 0.000000
0.000000 1.000000 0.000000
0.000000 1.000000 0.000000
0.453208 1.000000 0.000000
0.685832 1.000000 0.000000
0.825956 1.000000 0.000000
0.915084 1.000000 0.000000
0.970413 1.000000 0.000000
1.000000 1.000000 0.000000
1.000000 1.000000 0.000000
1.000000 1.000000 0.000000
1.000000 1.000000 0.000000
1.000000 1.000000 0.000000
0.000000 1.000000 0.000000
0.000000 1.000000 0.000000
0.000000 1.000000 0.000000
0.000000 1.000000 0.000000
0.000000 1.000000 0.000000
0.000000 1.000000 0.000000
0.005234 1.000000 0.000000
0.490837 1.000000 0.000000
0.705501 1.000000 0.000000
0.836957 1.000000 0.000000
0.920882 1.000000 0.000000
0.973693 1.000000 0.000000
1.000000 1.000000 0.000000
1.000000 1.000000 0.000000
1.000000 1.000000 0.000000
1.000000 1.000000 0.000000
1.000000 1.000000 0.000000
0.000000 0.000000 0.003250
0.000000 0.000000 0.003494
0.003799 0.000000 0.003113
0.090608 0.000000 0.000000
0.194553 0.000000 0.000000
0.311574 0.000000 0.000000
0.452583 0.000000 0.000000
0.612757 0.000000 0.000000
0.771572 0.000000 0.000000
0.907057 0.000000 0.000000
1.000000 0.000000 0.000000
1.000000 0.000000 0.000000
1.000000 0.000000 0.000000
1.000000 0.000000 0.000000
1.000000 0.000000 0.000000
1.000000 0.000000 0.000000
1.000000 0.000000 0.000000
0.000000 0.000000 0.003586
0.000000 0.000000 0.003281
0.003433 0.000000 0.002808
0.090043 0.000000 0.000000
0.195071 0.000000 0.000000
0.313695 0.000000 0.000000
0.456626 0.000000 0.000000
0.620951 0.000000 0.000000
0.783520 0.000000 0.000000
0.921843 0.000000 0.000000
1.000000 0.000000 0.000000
1.000000 0.000000 0.000000
1.000000 0.000000 0.000000
1.000000 0.000000 0.000000
1.000000 0.000000 0.000000
1.000000 0.000000 0.000000
1.000000 0.000000 0.000000
0.000000 0.001633 0.001587
0.000000 0.002365 0.002289
0.002762 0.002762 0.002762
0.093416 0.000000 0.000000
0.201801 0.000000 0.000000
0.323857 0.000000 0.000000
0.472984 0.000000 0.000000
0.642451 0.000000 0.000000
0.808865 0.000000 0.000000
0.948577 0.000000 0.000000
1.000000 0.000000 0.000000
1.000000 0.000000 0.000000
1.000000 0.000000 0.000000
1.000000 0.000000 0.000000
1.000000 0.000000 0.000000
1.000000 0.000000 0.000000
1.000000 0.000000 0.000000
0.000000 0.070497 0.000000
0.000000 0.074891 0.000000
0.000000 0.080018 0.000000
0.064088 0.076677 0.000000
0.190173 0.064973 0.000000
0.324117 0.041718 0.000000
0.481514 0.000992 0.000000
0.658213 0.000000 0.000000
0.829740 0.000000 0.000000
0.969619 0.000000 0.000000
1.000000 0.000000 0.000000
1.000000 0.000000 0.000000
1.000000 0.000000 0.000000
1.000000 0.000000 0.000000
1.000000 0.000000 0.000000
1.000000 0.000000 0.000000
1.000000 0.000000 0.000000
0.000000 0.163882 0.000000
0.000000 0.171786 0.000000
0.000000 0.180163 0.000000
0.004273 0.182132 0.000000
0.155978 0.178103 0.000000
0.306783 0.164569 0.000000
0.475486 0.136446 0.000000
0.661585 0.085679 0.000000
0.837736 0.013321 0.000000
0.980117 0.000000 0.000000
1.000000 0.000000 0.000000
1.000000 0.000000 0.000000
1.000000 0.000000 0.000000
1.000000 0.000000 0.000000
1.000000 0.000000 0.000000
1.000000 0.000000 0.000000
1.000000 0.023911 0.000000
0.000000 0.269093 0.000000
0.000000 0.280430 0.000000
0.000000 0.291966 0.000000
0.000000 0.299626 0.000000
0.062501 0.300679 0.000000
0.263432 0.294942 0.000000
0.452323 0.279805 0.000000
0.649699 0.253468 0.000000
0.833982 0.221164 0.000000
0.979400 0.191043 0.000000
1.000000 0.168978 0.000000
1.000000 0.161608 0.000000
1.000000 0.171267 0.000000
1.000000 0.195727 0.000000
1.000000 0.233188 0.000000
1.000000 0.272557 0.000000
1.000000 0.309758 0.000000
0.000000 0.396582 0.000000
0.000000 0.412284 0.000000
0.000000 0.429191 0.000000
0.000000 0.441474 0.000000
0.000000 0.448157 0.000000
0.157107 0.448096 0.000000
0.396674 0.439780 0.000000
0.615946 0.425101 0.000000
0.810575 0.407279 0.000000
0.960784 0.394064 0.000000
1.000000 0.388479 0.000000
1.000000 0.391180 0.000000
1.000000 0.403769 0.000000
1.000000 0.426352 0.000000
1.000000 0.456275 0.000000
1.000000 0.488029 0.000000
1.000000 0.519524 0.000000
0.000000 0.549722 0.000000
0.000000 0.570199 0.000000
0.000000 0.591180 0.000000
0.000000 0.608179 0.000000
0.000000 0.618433 0.000000
0.000000 0.621927 0.000000
0.287999 0.618830 0.000000
0.552331 0.608972 0.000000
0.764599 0.597635 0.000000
0.923095 0.591363 0.000000
1.000000 0.589578 0.000000
1.000000 0.594110 0.000000
1.000000 0.606882 0.000000
1.000000 0.625467 0.000000
1.000000 0.650034 0.000000
1.000000 0.676616 0.000000
1.000000 0.700664 0.000000
0.000000 0.716640 0.000000
0.000000 0.739330 0.000000
0.000000 0.762173 0.000000
0.000000 0.779522 0.000000
0.000000 0.790280 0.000000
0.000000 0.795056 0.000000
0.046342 0.792279 0.000000
0.464164 0.783948 0.000000
0.704784 0.774685 0.000000
0.873075 0.768582 0.000000
0.987915 0.765988 0.000000
1.000000 0.769070 0.000000
1.000000 0.776989 0.000000
1.000000 0.790143 0.000000
1.000000 0.808759 0.000000
1.000000 0.828061 0.000000
1.000000 0.846601 0.000000
0.000000 0.873014 0.000000
0.000000 0.893660 0.000000
0.000000 0.912490 0.000000
0.000000 0.926345 0.000000
0.000000 0.934524 0.000000
0.000000 0.936416 0.000000
0.000000 0.932616 0.000000
0.369970 0.923506 0.000000
0.646876 0.913344 0.000000
0.825422 0.905745 0.000000
0.944610 0.901198 0.000000
1.000000 0.900725 0.000000
1.000000 0.905241 0.000000
1.000000 0.914366 0.000000
1.000000 0.926986 0.000000
1.000000 0.941146 0.000000
1.000000 0.954086 0.000000
0.000000 0.997101 0.000000
0.000000 1.000000 0.000000
0.000000 1.000000 0.000000
0.000000 1.000000 0.000000
0.000000 1.000000 0.000000
0.000000 1.000000 0.000000
0.000000 1.000000 0.000000
0.277928 1.000000 0.000000
0.598169 1.000000 0.000000
0.786221 1.000000 0.000000
0.909224 0.996750 0.000000
0.986648 0.995010 0.000000
1.000000 0.996780 0.000000
1.000000 1.000000 0.000000
1.000000 1.000000 0.000000
1.000000 1.000000 0.000000
1.000000 1.000000 0.000000
0.000000 1.000000 0.000000
0.000000 1.000000 0.000000
0.000000 1.000000 0.000000
0.000000 1.000000 0.000000
0.000000 1.000000 0.000000
0.000000 1.000000 0.000000
0.000000 1.000000 0.000000
0.219944 1.000000 0.000000
0.572656 1.000000 0.000000
0.764706 1.000000 0.000000
0.888045 1.000000 0.000000
0.964889 1.000000 0.000000
1.000000 1.000000 0.000000
1.000000 1.000000 0.000000
1.000000 1.000000 0.000000
1.000000 1.000000 0.000000
1.000000 1.000000 0.000000
0.000000 1.000000 0.000000
0.000000 1.000000 0.000000
0.000000 1.000000 0.000000
0.000000 1.000000 0.000000
0.000000 1.000000 0.000000
0.000000 1.000000 0.000000
0.000000 1.000000 0.000000
0.227985 1.000000 0.000000
0.575891 1.000000 0.000000
0.762615 1.000000 0.000000
0.881041 1.000000 0.000000
0.954589 1.000000 0.000000
0.998642 1.000000 0.000000
1.000000 1.000000 0.000000
1.000000 1.000000 0.000000
1.000000 1.000000 0.000000
1.000000 1.000000 0.000000
0.000000 1.000000 0.000000
0.000000 1.000000 0.000000
0.000000 1.000000 0.000000
0.000000 1.000000 0.000000
0.000000 1.000000 0.000000
0.000000 1.000000 0.000000
0.000000 1.000000 0.000000
0.295354 1.000000 0.000000
0.602319 1.000000 0.000000
0.775692 1.000000 0.000000
0.885588 1.000000 0.000000
0.953887 1.000000 0.000000
0.994720 1.000000 0.000000
1.000000 1.000000 0.000000
1.000000 1.000000 0.000000
1.000000 1.000000 0.000000
1.000000 1.000000 0.000000
0.000000 1.000000 0.000000
0.000000 1.000000 0.000000
0.000000 1.000000 0.000000
0.000000 1.000000 0.000000
0.000000 1.000000 0.000000
0.000000 1.000000 0.000000
0.000000 1.000000 0.000000
0.386831 1.000000 0.000000
0.649500 1.000000 0.000000
0.804044 1.000000 0.000000
0.901976 1.000000 0.000000
0.962722 1.000000 0.000000
0.999146 1.000000 0.000000
1.000000 1.000000 0.000000
1.000000 1.000000 0.000000
1.000000 1.000000 0.000000
1.000000 1.000000 0.000000
0.000000 1.000000 0.000000
0.000000 1.000000 0.000000
0.000000 1.000000 0.000000
0.000000 1.000000 0.000000
0.000000 1.000000 0.000000
0.000000 1.000000 0.000000
0.000000 1.000000 0.000000
0.453635 1.000000 0.000000
0.685618 1.000000 0.000000
0.825376 1.000000 0.000000
0.914336 1.000000 0.000000
0.969787 1.000000 0.000000
1.000000 1.000000 0.000000
1.000000 1.000000 0.000000
1.000000 1.000000 0.000000
1.000000 1.000000 0.000000
1.000000 1.000000 0.000000
0.000000 1.000000 0.000000
0.000000 1.000000 0.000000
0.000000 1.000000 0.000000
0.000000 1.000000 0.000000
0.000000 1.000000 0.000000
0.000000 1.000000 0.000000
0.000000 1.000000 0.000000
0.488807 1.000000 0.000000
0.703746 1.000000 0.000000
0.835492 1.000000 0.000000
0.919738 1.000000 0.000000
0.972702 1.000000 0.000000
1.000000 1.000000 0.000000
1.000000 1.000000 0.000000
1.000000 1.000000 0.000000
1.000000 1.000000 0.000000
1.000000 1.000000 0.000000
0.000000 0.000000 0.078492
0.000000 0.000000 0.078782
0.000000 0.000000 0.078553
0.085939 0.000000 0.070359
0.191501 0.000000 0.054627
0.309422 0.000000 0.030991
0.450446 0.000000 0.000000
0.611261 0.000000 0.000000
0.770428 0.000000 0.000000
0.906050 0.000000 0.000000
1.000000 0.000000 0.000000
1.000000 0.000000 0.000000
1.000000 0.000000 0.000000
1.000000 0.000000 0.000000
1.000000 0.000000 0.000000
1.000000 0.000000 0.000000
1.000000 0.000000 0.000000
0.000000 0.000000 0.078813
0.000000 0.000000 0.078599
0.000000 0.000000 0.077928
