MEDT/Pirringer/Unterricht/2025-02-26/Korrektur und Grading FootageFotos-20250226T115430Z-001/Korrektur und Grading FootageFotos/Bounce Color True Basic Log Conversion LUTs/Monitor LUTs 17x17/BMPCC 4K BMDFilm Gen4 to Arri Log-C LUT.cube
# Converted by Briz LUT Converter
LUT_3D_SIZE 17
0.092805 0.092805 0.092805
0.092805 0.092805 0.092805
0.157702 0.091478 0.090837
0.228199 0.089296 0.087602
0.285023 0.086122 0.082902
0.335256 0.081514 0.076097
0.381903 0.074815 0.066163
0.426505 0.065003 0.051652
0.470024 0.050599 0.030335
0.513130 0.029236 0.000000
0.556435 0.000000 0.000000
0.600534 0.000000 0.000000
0.646265 0.000000 0.000000
0.694911 0.000000 0.000000
0.748760 0.000000 0.000000
0.812772 0.000000 0.000000
0.901640 0.000000 0.000000
0.092805 0.092805 0.092805
0.092805 0.092805 0.092805
0.157702 0.091478 0.090837
0.228199 0.089296 0.087602
0.285023 0.086122 0.082902
0.335256 0.081514 0.076097
0.381903 0.074815 0.066163
0.426505 0.065003 0.051652
0.470024 0.050599 0.030335
0.513130 0.029236 0.000000
0.556435 0.000000 0.000000
0.600534 0.000000 0.000000
0.646265 0.000000 0.000000
0.694911 0.000000 0.000000
0.748760 0.000000 0.000000
0.812772 0.000000 0.000000
0.901640 0.000000 0.000000
0.093477 0.160403 0.091676
0.093477 0.160403 0.091676
0.158328 0.159182 0.089708
0.228519 0.157168 0.086473
0.285206 0.154162 0.081773
0.335378 0.149660 0.074952
0.381979 0.142947 0.065034
0.426551 0.133150 0.050523
0.470054 0.118746 0.029191
0.513161 0.097368 0.000000
0.556451 0.065278 0.000000
0.600549 0.016144 0.000000
0.646281 0.000000 0.000000
0.694926 0.000000 0.000000
0.748760 0.000000 0.000000
0.812772 0.000000 0.000000
0.901640 0.000000 0.000000
0.094575 0.231876 0.089815
0.094575 0.231876 0.089815
0.159335 0.231250 0.087846
0.229053 0.230228 0.084611
0.285527 0.228717 0.079911
0.335576 0.226490 0.073091
0.382101 0.223163 0.063172
0.426642 0.218097 0.048661
0.470115 0.210208 0.027329
0.513191 0.197299 0.000000
0.556466 0.174441 0.000000
0.600565 0.128405 0.000000
0.646296 0.050935 0.000000
0.694926 0.000000 0.000000
0.748760 0.000000 0.000000
0.812772 0.000000 0.000000
0.901640 0.000000 0.000000
0.096162 0.289128 0.087098
0.096162 0.289128 0.087098
0.160784 0.288762 0.085145
0.229801 0.288167 0.081895
0.285969 0.287282 0.077211
0.335851 0.286000 0.070390
0.382284 0.284108 0.060456
0.426749 0.281270 0.045960
0.470192 0.276951 0.024628
0.513252 0.270207 0.000000
0.556512 0.259236 0.000000
0.600580 0.239887 0.000000
0.646311 0.199832 0.000000
0.694942 0.085618 0.000000
0.748775 0.000000 0.000000
0.812772 0.000000 0.000000
0.901640 0.000000 0.000000
0.098482 0.339590 0.083177
0.098482 0.339590 0.083177
0.162844 0.339361 0.081209
0.230900 0.338994 0.077974
0.286610 0.338445 0.073274
0.336263 0.337652 0.066453
0.382544 0.336477 0.056535
0.426932 0.334752 0.042023
0.470314 0.332143 0.020691
0.513329 0.328176 0.000000
0.556558 0.321904 0.000000
0.600626 0.311543 0.000000
0.646326 0.292866 0.000000
0.694957 0.252399 0.000000
0.748775 0.093034 0.000000
0.812787 0.000000 0.000000
0.901640 0.000000 0.000000
0.101839 0.386374 0.077455
0.101839 0.386374 0.077455
0.165774 0.386221 0.075486
0.232456 0.385977 0.072251
0.287556 0.385626 0.067552
0.336843 0.385122 0.060746
0.382925 0.384375 0.050812
0.427192 0.383261 0.036301
0.470481 0.381613 0.014984
0.513436 0.379126 0.000000
0.556634 0.375265 0.000000
0.600671 0.369085 0.000000
0.646357 0.358557 0.000000
0.694972 0.338506 0.000000
0.748791 0.289418 0.000000
0.812787 0.000000 0.000000
0.901640 0.000000 0.000000
0.106767 0.431067 0.069093
0.106767 0.431067 0.069093
0.169924 0.430961 0.067140
0.234714 0.430808 0.063890
0.288899 0.430579 0.059205
0.337713 0.430243 0.052384
0.383490 0.429740 0.042451
0.427558 0.429023 0.027955
0.470726 0.427955 0.006622
0.513603 0.426337 0.000000
0.556741 0.423865 0.000000
0.600748 0.419974 0.000000
0.646403 0.413550 0.000000
0.695003 0.401984 0.000000
0.748806 0.377615 0.000000
0.812802 0.297230 0.000000
0.901656 0.000000 0.000000
0.113985 0.474632 0.056809
0.113985 0.474632 0.056809
0.175753 0.474571 0.054841
0.237934 0.474464 0.051606
0.290867 0.474311 0.046906
0.338949 0.474083 0.040085
0.384298 0.473762 0.030167
0.428092 0.473274 0.015656
0.471092 0.472572 0.000000
0.513848 0.471504 0.000000
0.556909 0.469902 0.000000
0.600855 0.467384 0.000000
0.646479 0.463279 0.000000
0.695048 0.456168 0.000000
0.748837 0.442115 0.000000
0.812818 0.405493 0.000000
0.901656 0.000000 0.000000
0.124712 0.517784 0.038575
0.124712 0.517784 0.038575
0.183856 0.517739 0.036622
0.242542 0.517678 0.033371
0.293706 0.517571 0.028687
0.340780 0.517418 0.021866
0.385504 0.517205 0.011948
0.428901 0.516884 0.000000
0.471626 0.516411 0.000000
0.514214 0.515709 0.000000
0.557153 0.514641 0.000000
0.601007 0.512978 0.000000
0.646586 0.510323 0.000000
0.695109 0.505791 0.000000
0.748882 0.497154 0.000000
0.812833 0.476753 0.000000
0.901671 0.378286 0.000000
0.140826 0.561105 0.011215
0.140826 0.561105 0.011215
0.194965 0.561074 0.009247
0.249119 0.561028 0.005997
0.297826 0.560952 0.001312
0.343465 0.560861 0.000000
0.387274 0.560708 0.000000
0.430091 0.560494 0.000000
0.472419 0.560189 0.000000
0.514748 0.559716 0.000000
0.557504 0.559014 0.000000
0.601251 0.557916 0.000000
0.646738 0.556176 0.000000
0.695216 0.553231 0.000000
0.748943 0.547768 0.000000
0.812863 0.535500 0.000000
0.901686 0.489693 0.000000
0.164416 0.605219 0.000000
0.164416 0.605219 0.000000
0.210025 0.605203 0.000000
0.258473 0.605173 0.000000
0.303868 0.605127 0.000000
0.347433 0.605066 0.000000
0.389944 0.604974 0.000000
0.431876 0.604822 0.000000
0.473640 0.604623 0.000000
0.515572 0.604303 0.000000
0.558053 0.603845 0.000000
0.601617 0.603128 0.000000
0.646983 0.601984 0.000000
0.695369 0.600076 0.000000
0.749035 0.596567 0.000000
0.812924 0.588952 0.000000
0.901701 0.563485 0.000000
0.193866 0.650980 0.000000
0.193866 0.650980 0.000000
0.230167 0.650965 0.000000
0.271717 0.650935 0.000000
0.312734 0.650919 0.000000
0.353429 0.650874 0.000000
0.394003 0.650813 0.000000
0.434653 0.650721 0.000000
0.475517 0.650584 0.000000
0.516838 0.650370 0.000000
0.558923 0.650080 0.000000
0.602197 0.649607 0.000000
0.647364 0.648875 0.000000
0.695613 0.647639 0.000000
0.749187 0.645411 0.000000
0.813001 0.640635 0.000000
0.901747 0.625620 0.000000
0.229709 0.699626 0.000000
0.229709 0.699626 0.000000
0.256901 0.699626 0.000000
0.290578 0.699611 0.000000
0.325948 0.699580 0.000000
0.362646 0.699565 0.000000
0.400412 0.699519 0.000000
0.439078 0.699458 0.000000
0.478569 0.699382 0.000000
0.518929 0.699245 0.000000
0.560327 0.699062 0.000000
0.603143 0.698756 0.000000
0.647974 0.698299 0.000000
0.696010 0.697520 0.000000
0.749416 0.696117 0.000000
0.813138 0.693172 0.000000
0.901793 0.684215 0.000000
0.273777 0.753475 0.000000
0.273777 0.753475 0.000000
0.292546 0.753475 0.000000
0.317723 0.753460 0.000000
0.346151 0.753460 0.000000
0.377371 0.753429 0.000000
0.410986 0.753414 0.000000
0.446555 0.753384 0.000000
0.483803 0.753323 0.000000
0.522545 0.753246 0.000000
0.562814 0.753124 0.000000
0.604807 0.752956 0.000000
0.649088 0.752667 0.000000
0.696712 0.752209 0.000000
0.749844 0.751369 0.000000
0.813367 0.749615 0.000000
0.901900 0.744411 0.000000
0.330465 0.817487 0.000000
0.330465 0.817487 0.000000
0.341939 0.817487 0.000000
0.358511 0.817487 0.000000
0.378729 0.817472 0.000000
0.402625 0.817472 0.000000
0.429999 0.817456 0.000000
0.460548 0.817426 0.000000
0.493874 0.817411 0.000000
0.529671 0.817365 0.000000
0.567758 0.817304 0.000000
0.608179 0.817197 0.000000
0.651316 0.817044 0.000000
0.698146 0.816785 0.000000
0.750729 0.816327 0.000000
0.813855 0.815381 0.000000
0.902113 0.812589 0.000000
0.413993 0.906355 0.000000
0.413993 0.906355 0.000000
0.419409 0.906355 0.000000
0.427771 0.906355 0.000000
0.438849 0.906355 0.000000
0.453147 0.906355 0.000000
0.471046 0.906340 0.000000
0.492790 0.906340 0.000000
0.518410 0.906325 0.000000
0.547799 0.906310 0.000000
0.580789 0.906279 0.000000
0.617288 0.906233 0.000000
0.657496 0.906172 0.000000
0.702190 0.906050 0.000000
0.753231 0.905852 0.000000
0.815244 0.905440 0.000000
0.902724 0.904250 0.000000
0.092805 0.092805 0.092805
0.092805 0.092805 0.092805
0.157702 0.091478 0.090837
0.228199 0.089296 0.087602
0.285023 0.086122 0.082902
0.335256 0.081514 0.076097
0.381903 0.074815 0.066163
0.426505 0.065003 0.051652
0.470024 0.050599 0.030335
0.513130 0.029236 0.000000
0.556435 0.000000 0.000000
0.600534 0.000000 0.000000
0.646265 0.000000 0.000000
0.694911 0.000000 0.000000
0.748760 0.000000 0.000000
0.812772 0.000000 0.000000
0.901640 0.000000 0.000000
0.092805 0.092805 0.092805
0.092805 0.092805 0.092805
0.157702 0.091478 0.090837
0.228199 0.089296 0.087602
0.285023 0.086122 0.082902
0.335256 0.081514 0.076097
0.381903 0.074815 0.066163
0.426505 0.065003 0.051652
0.470024 0.050599 0.030335
0.513130 0.029236 0.000000
0.556435 0.000000 0.000000
0.600534 0.000000 0.000000
0.646265 0.000000 0.000000
0.694911 0.000000 0.000000
0.748760 0.000000 0.000000
0.812772 0.000000 0.000000
0.901640 0.000000 0.000000
0.093477 0.160403 0.091676
0.093477 0.160403 0.091676
0.158328 0.159182 0.089708
0.228519 0.157168 0.086473
0.285206 0.154162 0.081773
0.335378 0.149660 0.074952
0.381979 0.142947 0.065034
0.426551 0.133150 0.050523
0.470054 0.118746 0.029191
0.513161 0.097368 0.000000
0.556451 0.065278 0.000000
0.600549 0.016144 0.000000
0.646281 0.000000 0.000000
0.694926 0.000000 0.000000
0.748760 0.000000 0.000000
0.812772 0.000000 0.000000
0.901640 0.000000 0.000000
0.094575 0.231876 0.089815
0.094575 0.231876 0.089815
0.159335 0.231250 0.087846
0.229053 0.230228 0.084611
0.285527 0.228717 0.079911
0.335576 0.226490 0.073091
0.382101 0.223163 0.063172
0.426642 0.218097 0.048661
0.470115 0.210208 0.027329
0.513191 0.197299 0.000000
0.556466 0.174441 0.000000
0.600565 0.128405 0.000000
0.646296 0.050935 0.000000
0.694926 0.000000 0.000000
0.748760 0.000000 0.000000
0.812772 0.000000 0.000000
0.901640 0.000000 0.000000
0.096162 0.289128 0.087098
0.096162 0.289128 0.087098
0.160784 0.288762 0.085145
0.229801 0.288167 0.081895
0.285969 0.287282 0.077211
0.335851 0.286000 0.070390
0.382284 0.284108 0.060456
0.426749 0.281270 0.045960
0.470192 0.276951 0.024628
0.513252 0.270207 0.000000
0.556512 0.259236 0.000000
0.600580 0.239887 0.000000
0.646311 0.199832 0.000000
0.694942 0.085618 0.000000
0.748775 0.000000 0.000000
0.812772 0.000000 0.000000
0.901640 0.000000 0.000000
0.098482 0.339590 0.083177
0.098482 0.339590 0.083177
0.162844 0.339361 0.081209
0.230900 0.338994 0.077974
0.286610 0.338445 0.073274
0.336263 0.337652 0.066453
0.382544 0.336477 0.056535
0.426932 0.334752 0.042023
0.470314 0.332143 0.020691
0.513329 0.328176 0.000000
0.556558 0.321904 0.000000
0.600626 0.311543 0.000000
0.646326 0.292866 0.000000
0.694957 0.252399 0.000000
0.748775 0.093034 0.000000
0.812787 0.000000 0.000000
0.901640 0.000000 0.000000
0.101839 0.386374 0.077455
0.101839 0.386374 0.077455
0.165774 0.386221 0.075486
0.232456 0.385977 0.072251
0.287556 0.385626 0.067552
0.336843 0.385122 0.060746
0.382925 0.384375 0.050812
0.427192 0.383261 0.036301
0.470481 0.381613 0.014984
0.513436 0.379126 0.000000
0.556634 0.375265 0.000000
0.600671 0.369085 0.000000
0.646357 0.358557 0.000000
0.694972 0.338506 0.000000
0.748791 0.289418 0.000000
0.812787 0.000000 0.000000
0.901640 0.000000 0.000000
0.106767 0.431067 0.069093
0.106767 0.431067 0.069093
0.169924 0.430961 0.067140
0.234714 0.430808 0.063890
0.288899 0.430579 0.059205
0.337713 0.430243 0.052384
0.383490 0.429740 0.042451
0.427558 0.429023 0.027955
0.470726 0.427955 0.006622
0.513603 0.426337 0.000000
0.556741 0.423865 0.000000
0.600748 0.419974 0.000000
0.646403 0.413550 0.000000
0.695003 0.401984 0.000000
0.748806 0.377615 0.000000
0.812802 0.297230 0.000000
0.901656 0.000000 0.000000
0.113985 0.474632 0.056809
0.113985 0.474632 0.056809
0.175753 0.474571 0.054841
0.237934 0.474464 0.051606
0.290867 0.474311 0.046906
0.338949 0.474083 0.040085
0.384298 0.473762 0.030167
0.428092 0.473274 0.015656
0.471092 0.472572 0.000000
0.513848 0.471504 0.000000
0.556909 0.469902 0.000000
0.600855 0.467384 0.000000
0.646479 0.463279 0.000000
0.695048 0.456168 0.000000
0.748837 0.442115 0.000000
0.812818 0.405493 0.000000
0.901656 0.000000 0.000000
0.124712 0.517784 0.038575
0.124712 0.517784 0.038575
0.183856 0.517739 0.036622
0.242542 0.517678 0.033371
0.293706 0.517571 0.028687
0.340780 0.517418 0.021866
0.385504 0.517205 0.011948
0.428901 0.516884 0.000000
0.471626 0.516411 0.000000
0.514214 0.515709 0.000000
0.557153 0.514641 0.000000
0.601007 0.512978 0.000000
0.646586 0.510323 0.000000
0.695109 0.505791 0.000000
0.748882 0.497154 0.000000
0.812833 0.476753 0.000000
0.901671 0.378286 0.000000
0.140826 0.561105 0.011215
0.140826 0.561105 0.011215
0.194965 0.561074 0.009247
0.249119 0.561028 0.005997
0.297826 0.560952 0.001312
0.343465 0.560861 0.000000
0.387274 0.560708 0.000000
0.430091 0.560494 0.000000
0.472419 0.560189 0.000000
0.514748 0.559716 0.000000
0.557504 0.559014 0.000000
0.601251 0.557916 0.000000
0.646738 0.556176 0.000000
0.695216 0.553231 0.000000
0.748943 0.547768 0.000000
0.812863 0.535500 0.000000
0.901686 0.489693 0.000000
0.164416 0.605219 0.000000
0.164416 0.605219 0.000000
0.210025 0.605203 0.000000
0.258473 0.605173 0.000000
0.303868 0.605127 0.000000
0.347433 0.605066 0.000000
0.389944 0.604974 0.000000
0.431876 0.604822 0.000000
0.473640 0.604623 0.000000
0.515572 0.604303 0.000000
0.558053 0.603845 0.000000
0.601617 0.603128 0.000000
0.646983 0.601984 0.000000
0.695369 0.600076 0.000000
0.749035 0.596567 0.000000
0.812924 0.588952 0.000000
0.901701 0.563485 0.000000
0.193866 0.650980 0.000000
0.193866 0.650980 0.000000
0.230167 0.650965 0.000000
0.271717 0.650935 0.000000
0.312734 0.650919 0.000000
0.353429 0.650874 0.000000
0.394003 0.650813 0.000000
0.434653 0.650721 0.000000
0.475517 0.650584 0.000000
0.516838 0.650370 0.000000
0.558923 0.650080 0.000000
0.602197 0.649607 0.000000
0.647364 0.648875 0.000000
0.695613 0.647639 0.000000
0.749187 0.645411 0.000000
0.813001 0.640635 0.000000
0.901747 0.625620 0.000000
0.229709 0.699626 0.000000
0.229709 0.699626 0.000000
0.256901 0.699626 0.000000
0.290578 0.699611 0.000000
0.325948 0.699580 0.000000
0.362646 0.699565 0.000000
0.400412 0.699519 0.000000
0.439078 0.699458 0.000000
0.478569 0.699382 0.000000
0.518929 0.699245 0.000000
0.560327 0.699062 0.000000
0.603143 0.698756 0.000000
0.647974 0.698299 0.000000
0.696010 0.697520 0.000000
0.749416 0.696117 0.000000
0.813138 0.693172 0.000000
0.901793 0.684215 0.000000
0.273777 0.753475 0.000000
0.273777 0.753475 0.000000
0.292546 0.753475 0.000000
0.317723 0.753460 0.000000
0.346151 0.753460 0.000000
0.377371 0.753429 0.000000
0.410986 0.753414 0.000000
0.446555 0.753384 0.000000
0.483803 0.753323 0.000000
0.522545 0.753246 0.000000
0.562814 0.753124 0.000000
0.604807 0.752956 0.000000
0.649088 0.752667 0.000000
0.696712 0.752209 0.000000
0.749844 0.751369 0.000000
0.813367 0.749615 0.000000
0.901900 0.744411 0.000000
0.330465 0.817487 0.000000
0.330465 0.817487 0.000000
0.341939 0.817487 0.000000
0.358511 0.817487 0.000000
0.378729 0.817472 0.000000
0.402625 0.817472 0.000000
0.429999 0.817456 0.000000
0.460548 0.817426 0.000000
0.493874 0.817411 0.000000
0.529671 0.817365 0.000000
0.567758 0.817304 0.000000
0.608179 0.817197 0.000000
0.651316 0.817044 0.000000
0.698146 0.816785 0.000000
0.750729 0.816327 0.000000
0.813855 0.815381 0.000000
0.902113 0.812589 0.000000
0.413993 0.906355 0.000000
0.413993 0.906355 0.000000
0.419409 0.906355 0.000000
0.427771 0.906355 0.000000
0.438849 0.906355 0.000000
0.453147 0.906355 0.000000
0.471046 0.906340 0.000000
0.492790 0.906340 0.000000
0.518410 0.906325 0.000000
0.547799 0.906310 0.000000
0.580789 0.906279 0.000000
0.617288 0.906233 0.000000
0.657496 0.906172 0.000000
0.702190 0.906050 0.000000
0.753231 0.905852 0.000000
0.815244 0.905440 0.000000
0.902724 0.904250 0.000000
0.094743 0.093797 0.162860
0.094743 0.093797 0.162860
0.159487 0.092470 0.161120
0.229129 0.090288 0.158160
0.285573 0.087114 0.153735
0.335592 0.082505 0.146990
0.382116 0.075807 0.137072
0.426642 0.065995 0.122560
0.470115 0.051591 0.101228
0.513191 0.030228 0.069596
0.556466 0.000000 0.022095
0.600565 0.000000 0.000000
0.646296 0.000000 0.000000
0.694926 0.000000 0.000000
0.748775 0.000000 0.000000
0.812772 0.000000 0.000000
0.901640 0.000000 0.000000
0.094743 0.093797 0.162860
0.094743 0.093797 0.162860
0.159487 0.092470 0.161120
0.229129 0.090288 0.158160
0.285573 0.087114 0.153735
0.335592 0.082505 0.146990
0.382116 0.075807 0.137072
0.426642 0.065995 0.122560
0.470115 0.051591 0.101228
0.513191 0.030228 0.069596
0.556466 0.000000 0.022095
0.600565 0.000000 0.000000
0.646296 0.000000 0.000000
0.694926 0.000000 0.000000
0.748775 0.000000 0.000000
0.812772 0.000000 0.000000
0.901640 0.000000 0.000000
0.095399 0.161288 0.161868
0.095399 0.161288 0.161868
0.160098 0.160098 0.160098
0.229450 0.158083 0.157107
0.285756 0.155108 0.152636
0.335714 0.150652 0.145861
0.382193 0.143938 0.135943
0.426703 0.134142 0.121431
0.470146 0.119738 0.100099
0.513222 0.098360 0.068467
0.556481 0.066270 0.020966
0.600580 0.017136 0.000000
0.646296 0.000000 0.000000
0.694926 0.000000 0.000000
0.748775 0.000000 0.000000
0.812772 0.000000 0.000000
0.901640 0.000000 0.000000
0.096498 0.232334 0.160174
0.096498 0.232334 0.160174
0.161089 0.231724 0.158389
0.229969 0.230686 0.155352
0.286061 0.229191 0.150805
0.335912 0.226978 0.143999
0.382315 0.223667 0.134066
0.426780 0.218631 0.119570
0.470207 0.210758 0.098238
0.513252 0.197925 0.066606
0.556512 0.175219 0.019089
0.600595 0.129381 0.000000
0.646311 0.051927 0.000000
0.694942 0.000000 0.000000
0.748775 0.000000 0.000000
0.812772 0.000000 0.000000
0.901640 0.000000 0.000000
0.098100 0.289403 0.157702
0.098100 0.289403 0.157702
0.162509 0.289036 0.155856
0.230716 0.288441 0.152758
0.286503 0.287556 0.148104
0.336187 0.286275 0.141299
0.382498 0.284382 0.131365
0.426902 0.281559 0.116854
0.470283 0.277256 0.095521
0.513313 0.270527 0.063905
0.556542 0.259586 0.016388
0.600610 0.240314 0.000000
0.646326 0.200443 0.000000
0.694942 0.086610 0.000000
0.748775 0.000000 0.000000
0.812772 0.000000 0.000000
0.901640 0.000000 0.000000
0.100404 0.339757 0.153994
0.100404 0.339757 0.153994
0.164538 0.339544 0.152087
0.231800 0.339162 0.148882
0.287160 0.338613 0.144183
0.336599 0.337819 0.137362
0.382773 0.336660 0.127443
0.427070 0.334920 0.112932
0.470405 0.332326 0.091600
0.513390 0.328359 0.059968
0.556603 0.322103 0.012467
0.600641 0.311772 0.000000
0.646342 0.293126 0.000000
0.694957 0.252766 0.000000
0.748791 0.094026 0.000000
0.812787 0.000000 0.000000
0.901640 0.000000 0.000000
0.103777 0.386481 0.148363
0.103777 0.386481 0.148363
0.167422 0.386328 0.146395
0.233356 0.386099 0.143160
0.288090 0.385748 0.138460
0.337179 0.385229 0.131640
0.383154 0.384482 0.121721
0.427329 0.383368 0.107210
0.470573 0.381735 0.085878
0.513497 0.379232 0.054246
0.556680 0.375387 0.006744
0.600702 0.369223 0.000000
0.646372 0.358694 0.000000
0.694987 0.338674 0.000000
0.748806 0.289693 0.000000
0.812787 0.000000 0.000000
0.901656 0.000000 0.000000
0.108690 0.431128 0.140002
0.108690 0.431128 0.140002
0.171511 0.431037 0.138033
0.235584 0.430884 0.134798
0.289433 0.430640 0.130098
0.338033 0.430304 0.123293
0.383703 0.429816 0.113359
0.427695 0.429099 0.098848
0.470817 0.428016 0.077516
0.513664 0.426413 0.045899
0.556786 0.423941 0.000000
0.600778 0.420066 0.000000
0.646433 0.413626 0.000000
0.695018 0.402090 0.000000
0.748821 0.377722 0.000000
0.812802 0.297490 0.000000
0.901656 0.000000 0.000000
0.115923 0.474678 0.127718
0.115923 0.474678 0.127718
0.177264 0.474617 0.125750
0.238788 0.474510 0.122515
0.291371 0.474357 0.117815
0.339284 0.474128 0.110994
0.384527 0.473808 0.101076
0.428244 0.473335 0.086564
0.471183 0.472618 0.065232
0.513909 0.471565 0.033600
0.556954 0.469947 0.000000
0.600885 0.467430 0.000000
0.646494 0.463340 0.000000
0.695064 0.456214 0.000000
0.748852 0.442176 0.000000
0.812818 0.405585 0.000000
0.901656 0.000000 0.000000
0.126650 0.517815 0.109483
0.126650 0.517815 0.109483
0.185245 0.517769 0.107515
0.243351 0.517708 0.104280
0.294209 0.517601 0.099580
0.341100 0.517449 0.092775
0.385718 0.517235 0.082841
0.429038 0.516915 0.068330
0.471717 0.516442 0.047013
0.514275 0.515740 0.015381
0.557198 0.514672 0.000000
0.601038 0.513024 0.000000
0.646601 0.510353 0.000000
0.695125 0.505821 0.000000
0.748882 0.497185 0.000000
0.812833 0.476799 0.000000
0.901671 0.378408 0.000000
0.142748 0.561120 0.082109
0.142748 0.561120 0.082109
0.196231 0.561090 0.080140
0.249882 0.561044 0.076906
0.298314 0.560983 0.072221
0.343771 0.560876 0.065400
0.387488 0.560739 0.055467
0.430228 0.560525 0.040971
0.472511 0.560204 0.019638
0.514809 0.559747 0.000000
0.557549 0.559030 0.000000
0.601282 0.557946 0.000000
0.646754 0.556207 0.000000
0.695232 0.553262 0.000000
0.748943 0.547799 0.000000
0.812879 0.535531 0.000000
0.901686 0.489738 0.000000
0.166079 0.605234 0.040208
0.166079 0.605234 0.040208
0.211124 0.605219 0.038239
0.259159 0.605188 0.035004
0.304326 0.605142 0.030304
0.347738 0.605081 0.023499
0.390143 0.604974 0.013565
0.432013 0.604837 0.000000
0.473732 0.604639 0.000000
0.515633 0.604318 0.000000
0.558099 0.603861 0.000000
0.601648 0.603143 0.000000
0.646998 0.601999 0.000000
0.695384 0.600092 0.000000
0.749035 0.596582 0.000000
0.812924 0.588968 0.000000
0.901701 0.563516 0.000000
0.195132 0.650980 0.000000
0.195132 0.650980 0.000000
0.231083 0.650965 0.000000
0.272343 0.650950 0.000000
0.313146 0.650919 0.000000
0.353719 0.650874 0.000000
0.394202 0.650813 0.000000
0.434775 0.650721 0.000000
0.475608 0.650584 0.000000
0.516915 0.650385 0.000000
0.558968 0.650080 0.000000
0.602228 0.649622 0.000000
0.647379 0.648875 0.000000
0.695613 0.647654 0.000000
0.749187 0.645411 0.000000
0.813001 0.640635 0.000000
0.901747 0.625635 0.000000
0.230625 0.699626 0.000000
0.230625 0.699626 0.000000
0.257603 0.699626 0.000000
0.291096 0.699611 0.000000
0.326314 0.699596 0.000000
0.362905 0.699565 0.000000
0.400595 0.699519 0.000000
0.439200 0.699474 0.000000
0.478660 0.699382 0.000000
0.518990 0.699260 0.000000
0.560372 0.699062 0.000000
0.603174 0.698772 0.000000
0.648005 0.698299 0.000000
0.696010 0.697520 0.000000
0.749432 0.696132 0.000000
0.813138 0.693172 0.000000
0.901793 0.684230 0.000000
0.274372 0.753475 0.000000
0.274372 0.753475 0.000000
0.293065 0.753475 0.000000
0.318135 0.753475 0.000000
0.346456 0.753460 0.000000
0.377615 0.753445 0.000000
0.411154 0.753414 0.000000
0.446677 0.753384 0.000000
0.483879 0.753323 0.000000
0.522606 0.753246 0.000000
0.562844 0.753140 0.000000
0.604837 0.752956 0.000000
0.649104 0.752682 0.000000
0.696727 0.752209 0.000000
0.749859 0.751369 0.000000
0.813367 0.749615 0.000000
0.901900 0.744411 0.000000
0.330831 0.817487 0.000000
0.330831 0.817487 0.000000
0.342260 0.817487 0.000000
0.358785 0.817487 0.000000
0.378958 0.817472 0.000000
0.402808 0.817472 0.000000
0.430137 0.817456 0.000000
0.460639 0.817441 0.000000
0.493950 0.817411 0.000000
0.529717 0.817365 0.000000
0.567788 0.817304 0.000000
0.608194 0.817197 0.000000
0.651347 0.817044 0.000000
0.698161 0.816785 0.000000
0.750744 0.816327 0.000000
0.813855 0.815381 0.000000
0.902113 0.812589 0.000000
0.414145 0.906355 0.000000
0.414145 0.906355 0.000000
0.419562 0.906355 0.000000
0.427924 0.906355 0.000000
0.438987 0.906355 0.000000
0.453254 0.906355 0.000000
0.471138 0.906340 0.000000
0.492866 0.906340 0.000000
0.518471 0.906325 0.000000
0.547845 0.906310 0.000000
0.580819 0.906279 0.000000
0.617304 0.906233 0.000000
0.657526 0.906172 0.000000
0.702205 0.906050 0.000000
0.753231 0.905852 0.000000
0.815259 0.905440 0.000000
0.902739 0.904250 0.000000
0.097917 0.095430 0.235218
0.097917 0.095430 0.235218
0.162341 0.094102 0.234333
0.230625 0.091920 0.232853
0.286458 0.088747 0.230671
0.336156 0.084138 0.227405
0.382483 0.077439 0.222492
0.426886 0.067628 0.214862
0.470283 0.053224 0.202564
0.513313 0.031861 0.181262
0.556542 0.000000 0.138888
0.600610 0.000000 0.066163
0.646326 0.000000 0.000000
0.694942 0.000000 0.000000
0.748775 0.000000 0.000000
0.812772 0.000000 0.000000
0.901640 0.000000 0.000000
0.097917 0.095430 0.235218
0.097917 0.095430 0.235218
0.162341 0.094102 0.234333
