MEDT/Pirringer/Unterricht/2025-02-26/Korrektur und Grading FootageFotos-20250226T115430Z-001/Korrektur und Grading FootageFotos/Bounce Color True Basic Log Conversion LUTs/Monitor LUTs 17x17/BMPCC 6K BMDFilm Gen4 to Arri Log-C LUT.cube
# Converted by Briz LUT Converter
LUT_3D_SIZE 17
0.092805 0.092805 0.092805
0.092805 0.092805 0.092805
0.152316 0.091600 0.091020
0.221988 0.089555 0.087984
0.280003 0.086473 0.083436
0.332311 0.081849 0.076585
0.381537 0.074876 0.066270
0.429084 0.064301 0.050614
0.475868 0.048188 0.026749
0.522530 0.023316 0.000000
0.569772 0.000000 0.000000
0.618357 0.000000 0.000000
0.669490 0.000000 0.000000
0.725307 0.000000 0.000000
0.790265 0.000000 0.000000
0.877104 0.000000 0.000000
0.995804 0.000000 0.000000
0.092805 0.092805 0.092805
0.092805 0.092805 0.092805
0.152316 0.091600 0.091020
0.221988 0.089555 0.087984
0.280003 0.086473 0.083436
0.332311 0.081849 0.076585
0.381537 0.074876 0.066270
0.429084 0.064301 0.050614
0.475868 0.048188 0.026749
0.522530 0.023316 0.000000
0.569772 0.000000 0.000000
0.618357 0.000000 0.000000
0.669490 0.000000 0.000000
0.725307 0.000000 0.000000
0.790265 0.000000 0.000000
0.877104 0.000000 0.000000
0.995804 0.000000 0.000000
0.093416 0.154894 0.091768
0.093416 0.154894 0.091768
0.152895 0.153735 0.089983
0.222293 0.151736 0.086946
0.280186 0.148684 0.082399
0.332418 0.144060 0.075547
0.381598 0.137087 0.065232
0.429129 0.126513 0.049577
0.475898 0.110399 0.025712
0.522560 0.085527 0.000000
0.569772 0.046555 0.000000
0.618357 0.000000 0.000000
0.669490 0.000000 0.000000
0.725307 0.000000 0.000000
0.790265 0.000000 0.000000
0.877104 0.000000 0.000000
0.995804 0.000000 0.000000
0.094438 0.225605 0.090028
0.094438 0.225605 0.090028
0.153887 0.224994 0.088228
0.222812 0.223972 0.085206
0.280476 0.222431 0.080644
0.332601 0.220050 0.073808
0.381720 0.216373 0.063478
0.429206 0.210544 0.047837
0.475944 0.200977 0.023972
0.522591 0.184344 0.000000
0.569802 0.151614 0.000000
0.618372 0.088960 0.000000
0.669505 0.000000 0.000000
0.725307 0.000000 0.000000
0.790280 0.000000 0.000000
0.877104 0.000000 0.000000
0.995804 0.000000 0.000000
0.095994 0.284077 0.087404
0.095994 0.284077 0.087404
0.155367 0.283726 0.085603
0.223590 0.283131 0.082582
0.280934 0.282246 0.078035
0.332891 0.280888 0.071183
0.381903 0.278828 0.060853
0.429328 0.275593 0.045213
0.476020 0.270497 0.021347
0.522637 0.262104 0.000000
0.569833 0.247486 0.000000
0.618387 0.218769 0.000000
0.669520 0.141604 0.000000
0.725307 0.000000 0.000000
0.790280 0.000000 0.000000
0.877104 0.000000 0.000000
0.995804 0.000000 0.000000
0.098314 0.336629 0.083467
0.098314 0.336629 0.083467
0.157549 0.336416 0.081666
0.224750 0.336065 0.078630
0.281621 0.335515 0.074083
0.333303 0.334691 0.067247
0.382162 0.333440 0.056916
0.429496 0.331518 0.041276
0.476127 0.328511 0.017395
0.522713 0.323705 0.000000
0.569879 0.315709 0.000000
0.618418 0.301472 0.000000
0.669535 0.272297 0.000000
0.725322 0.183734 0.000000
0.790280 0.000000 0.000000
0.877104 0.000000 0.000000
0.995819 0.000000 0.000000
0.101808 0.386007 0.077516
0.101808 0.386007 0.077516
0.160754 0.385870 0.075715
0.226474 0.385641 0.072679
0.282643 0.385306 0.068131
0.333928 0.384787 0.061296
0.382559 0.384009 0.050965
0.429755 0.382803 0.035325
0.476295 0.380957 0.011459
0.522820 0.378027 0.000000
0.569940 0.373281 0.000000
0.618463 0.365179 0.000000
0.669566 0.350057 0.000000
0.725338 0.315938 0.000000
0.790295 0.159365 0.000000
0.877104 0.000000 0.000000
0.995819 0.000000 0.000000
0.107118 0.433646 0.068498
0.107118 0.433646 0.068498
0.165423 0.433570 0.066697
0.229038 0.433417 0.063676
0.284169 0.433204 0.059113
0.334890 0.432868 0.052277
0.383169 0.432364 0.041947
0.430137 0.431617 0.026307
0.476539 0.430442 0.002441
0.522972 0.428595 0.000000
0.570047 0.425666 0.000000
0.618524 0.420768 0.000000
0.669596 0.412009 0.000000
0.725368 0.394202 0.000000
0.790311 0.344564 0.000000
0.877119 0.000000 0.000000
0.995819 0.000000 0.000000
0.115206 0.480476 0.054749
0.115206 0.480476 0.054749
0.172198 0.480430 0.052949
0.232837 0.480339 0.049912
0.286458 0.480186 0.045365
0.336309 0.479973 0.038529
0.384085 0.479652 0.028199
0.430732 0.479164 0.012558
0.476936 0.478416 0.000000
0.523232 0.477241 0.000000
0.570214 0.475380 0.000000
0.618631 0.472328 0.000000
0.669657 0.467002 0.000000
0.725399 0.456687 0.000000
0.790326 0.431815 0.000000
0.877119 0.296971 0.000000
0.995819 0.000000 0.000000
0.127687 0.527199 0.033539
0.127687 0.527199 0.033539
0.181872 0.527153 0.031739
0.238437 0.527092 0.028718
0.289891 0.527001 0.024155
0.338491 0.526864 0.017319
0.385489 0.526665 0.006989
0.431647 0.526345 0.000000
0.477516 0.525856 0.000000
0.523613 0.525109 0.000000
0.570459 0.523919 0.000000
0.618799 0.521981 0.000000
0.669764 0.518669 0.000000
0.725460 0.512413 0.000000
0.790356 0.498299 0.000000
0.877134 0.446128 0.000000
0.995819 0.000000 0.000000
0.147250 0.574441 0.000305
0.147250 0.574441 0.000305
0.195453 0.574426 0.000000
0.246677 0.574380 0.000000
0.295064 0.574319 0.000000
0.341802 0.574243 0.000000
0.387640 0.574105 0.000000
0.433051 0.573907 0.000000
0.478431 0.573587 0.000000
0.524208 0.573114 0.000000
0.570840 0.572351 0.000000
0.619043 0.571130 0.000000
0.669917 0.569024 0.000000
0.725551 0.565164 0.000000
0.790402 0.556756 0.000000
0.877165 0.529625 0.000000
0.995834 0.000000 0.000000
0.175357 0.623041 0.000000
0.175357 0.623041 0.000000
0.214237 0.623026 0.000000
0.258701 0.623011 0.000000
0.302876 0.622965 0.000000
0.346929 0.622919 0.000000
0.391012 0.622827 0.000000
0.435264 0.622705 0.000000
0.479896 0.622507 0.000000
0.525170 0.622202 0.000000
0.571466 0.621714 0.000000
0.619440 0.620951 0.000000
0.670161 0.619638 0.000000
0.725704 0.617243 0.000000
0.790494 0.612146 0.000000
0.877195 0.596780 0.000000
0.995850 0.508461 0.000000
0.210437 0.674189 0.000000
0.210437 0.674189 0.000000
0.239826 0.674189 0.000000
0.276280 0.674174 0.000000
0.314839 0.674144 0.000000
0.355016 0.674113 0.000000
0.396429 0.674067 0.000000
0.438895 0.673976 0.000000
0.482307 0.673854 0.000000
0.526757 0.673671 0.000000
0.572503 0.673381 0.000000
0.620096 0.672892 0.000000
0.670573 0.672084 0.000000
0.725948 0.670619 0.000000
0.790631 0.667552 0.000000
0.877256 0.658656 0.000000
0.995865 0.618021 0.000000
0.254078 0.730007 0.000000
0.254078 0.730007 0.000000
0.274510 0.730007 0.000000
0.302083 0.729992 0.000000
0.333486 0.729992 0.000000
0.368170 0.729961 0.000000
0.405554 0.729931 0.000000
0.445121 0.729885 0.000000
0.486503 0.729809 0.000000
0.529549 0.729702 0.000000
0.574334 0.729519 0.000000
0.621271 0.729244 0.000000
0.671321 0.728771 0.000000
0.726390 0.727901 0.000000
0.790860 0.726116 0.000000
0.877363 0.721050 0.000000
0.995895 0.700236 0.000000
0.310109 0.794995 0.000000
0.310109 0.794995 0.000000
0.322698 0.794980 0.000000
0.341085 0.794980 0.000000
0.363867 0.794980 0.000000
0.390982 0.794965 0.000000
0.422156 0.794949 0.000000
0.456870 0.794919 0.000000
0.494621 0.794873 0.000000
0.535058 0.794812 0.000000
0.577996 0.794720 0.000000
0.623652 0.794568 0.000000
0.672816 0.794308 0.000000
0.727291 0.793835 0.000000
0.791363 0.792874 0.000000
0.877592 0.790188 0.000000
0.995972 0.779767 0.000000
0.390539 0.881819 0.000000
0.390539 0.881819 0.000000
0.396674 0.881819 0.000000
0.406302 0.881819 0.000000
0.419287 0.881819 0.000000
0.436286 0.881804 0.000000
0.457710 0.881804 0.000000
0.483711 0.881788 0.000000
0.514199 0.881773 0.000000
0.548852 0.881743 0.000000
0.587442 0.881697 0.000000
0.629923 0.881636 0.000000
0.676814 0.881514 0.000000
0.729717 0.881315 0.000000
0.792706 0.880888 0.000000
0.878187 0.879713 0.000000
0.996170 0.875303 0.000000
0.505638 1.000000 0.000000
0.505638 1.000000 0.000000
0.507774 1.000000 0.000000
0.511299 1.000000 0.000000
0.516365 1.000000 0.000000
0.523583 1.000000 0.000000
0.533608 1.000000 0.000000
0.547219 1.000000 0.000000
0.565148 1.000000 0.000000
0.587976 1.000000 0.000000
0.616175 1.000000 0.000000
0.650095 1.000000 0.000000
0.690272 1.000000 0.000000
0.738140 1.000000 0.000000
0.797467 1.000000 0.000000
0.880369 0.999832 0.000000
0.996902 0.998413 0.000000
0.092805 0.092805 0.092805
0.092805 0.092805 0.092805
0.152316 0.091600 0.091020
0.221988 0.089555 0.087984
0.280003 0.086473 0.083436
0.332311 0.081849 0.076585
0.381537 0.074876 0.066270
0.429084 0.064301 0.050614
0.475868 0.048188 0.026749
0.522530 0.023316 0.000000
0.569772 0.000000 0.000000
0.618357 0.000000 0.000000
0.669490 0.000000 0.000000
0.725307 0.000000 0.000000
0.790265 0.000000 0.000000
0.877104 0.000000 0.000000
0.995804 0.000000 0.000000
0.092805 0.092805 0.092805
0.092805 0.092805 0.092805
0.152316 0.091600 0.091020
0.221988 0.089555 0.087984
0.280003 0.086473 0.083436
0.332311 0.081849 0.076585
0.381537 0.074876 0.066270
0.429084 0.064301 0.050614
0.475868 0.048188 0.026749
0.522530 0.023316 0.000000
0.569772 0.000000 0.000000
0.618357 0.000000 0.000000
0.669490 0.000000 0.000000
0.725307 0.000000 0.000000
0.790265 0.000000 0.000000
0.877104 0.000000 0.000000
0.995804 0.000000 0.000000
0.093416 0.154894 0.091768
0.093416 0.154894 0.091768
0.152895 0.153735 0.089983
0.222293 0.151736 0.086946
0.280186 0.148684 0.082399
0.332418 0.144060 0.075547
0.381598 0.137087 0.065232
0.429129 0.126513 0.049577
0.475898 0.110399 0.025712
0.522560 0.085527 0.000000
0.569772 0.046555 0.000000
0.618357 0.000000 0.000000
0.669490 0.000000 0.000000
0.725307 0.000000 0.000000
0.790265 0.000000 0.000000
0.877104 0.000000 0.000000
0.995804 0.000000 0.000000
0.094438 0.225605 0.090028
0.094438 0.225605 0.090028
0.153887 0.224994 0.088228
0.222812 0.223972 0.085206
0.280476 0.222431 0.080644
0.332601 0.220050 0.073808
0.381720 0.216373 0.063478
0.429206 0.210544 0.047837
0.475944 0.200977 0.023972
0.522591 0.184344 0.000000
0.569802 0.151614 0.000000
0.618372 0.088960 0.000000
0.669505 0.000000 0.000000
0.725307 0.000000 0.000000
0.790280 0.000000 0.000000
0.877104 0.000000 0.000000
0.995804 0.000000 0.000000
0.095994 0.284077 0.087404
0.095994 0.284077 0.087404
0.155367 0.283726 0.085603
0.223590 0.283131 0.082582
0.280934 0.282246 0.078035
0.332891 0.280888 0.071183
0.381903 0.278828 0.060853
0.429328 0.275593 0.045213
0.476020 0.270497 0.021347
0.522637 0.262104 0.000000
0.569833 0.247486 0.000000
0.618387 0.218769 0.000000
0.669520 0.141604 0.000000
0.725307 0.000000 0.000000
0.790280 0.000000 0.000000
0.877104 0.000000 0.000000
0.995804 0.000000 0.000000
0.098314 0.336629 0.083467
0.098314 0.336629 0.083467
0.157549 0.336416 0.081666
0.224750 0.336065 0.078630
0.281621 0.335515 0.074083
0.333303 0.334691 0.067247
0.382162 0.333440 0.056916
0.429496 0.331518 0.041276
0.476127 0.328511 0.017395
0.522713 0.323705 0.000000
0.569879 0.315709 0.000000
0.618418 0.301472 0.000000
0.669535 0.272297 0.000000
0.725322 0.183734 0.000000
0.790280 0.000000 0.000000
0.877104 0.000000 0.000000
0.995819 0.000000 0.000000
0.101808 0.386007 0.077516
0.101808 0.386007 0.077516
0.160754 0.385870 0.075715
0.226474 0.385641 0.072679
0.282643 0.385306 0.068131
0.333928 0.384787 0.061296
0.382559 0.384009 0.050965
0.429755 0.382803 0.035325
0.476295 0.380957 0.011459
0.522820 0.378027 0.000000
0.569940 0.373281 0.000000
0.618463 0.365179 0.000000
0.669566 0.350057 0.000000
0.725338 0.315938 0.000000
0.790295 0.159365 0.000000
0.877104 0.000000 0.000000
0.995819 0.000000 0.000000
0.107118 0.433646 0.068498
0.107118 0.433646 0.068498
0.165423 0.433570 0.066697
0.229038 0.433417 0.063676
0.284169 0.433204 0.059113
0.334890 0.432868 0.052277
0.383169 0.432364 0.041947
0.430137 0.431617 0.026307
0.476539 0.430442 0.002441
0.522972 0.428595 0.000000
0.570047 0.425666 0.000000
0.618524 0.420768 0.000000
0.669596 0.412009 0.000000
0.725368 0.394202 0.000000
0.790311 0.344564 0.000000
0.877119 0.000000 0.000000
0.995819 0.000000 0.000000
0.115206 0.480476 0.054749
0.115206 0.480476 0.054749
0.172198 0.480430 0.052949
0.232837 0.480339 0.049912
0.286458 0.480186 0.045365
0.336309 0.479973 0.038529
0.384085 0.479652 0.028199
0.430732 0.479164 0.012558
0.476936 0.478416 0.000000
0.523232 0.477241 0.000000
0.570214 0.475380 0.000000
0.618631 0.472328 0.000000
0.669657 0.467002 0.000000
0.725399 0.456687 0.000000
0.790326 0.431815 0.000000
0.877119 0.296971 0.000000
0.995819 0.000000 0.000000
0.127687 0.527199 0.033539
0.127687 0.527199 0.033539
0.181872 0.527153 0.031739
0.238437 0.527092 0.028718
0.289891 0.527001 0.024155
0.338491 0.526864 0.017319
0.385489 0.526665 0.006989
0.431647 0.526345 0.000000
0.477516 0.525856 0.000000
0.523613 0.525109 0.000000
0.570459 0.523919 0.000000
0.618799 0.521981 0.000000
0.669764 0.518669 0.000000
0.725460 0.512413 0.000000
0.790356 0.498299 0.000000
0.877134 0.446128 0.000000
0.995819 0.000000 0.000000
0.147250 0.574441 0.000305
0.147250 0.574441 0.000305
0.195453 0.574426 0.000000
0.246677 0.574380 0.000000
0.295064 0.574319 0.000000
0.341802 0.574243 0.000000
0.387640 0.574105 0.000000
0.433051 0.573907 0.000000
0.478431 0.573587 0.000000
0.524208 0.573114 0.000000
0.570840 0.572351 0.000000
0.619043 0.571130 0.000000
0.669917 0.569024 0.000000
0.725551 0.565164 0.000000
0.790402 0.556756 0.000000
0.877165 0.529625 0.000000
0.995834 0.000000 0.000000
0.175357 0.623041 0.000000
0.175357 0.623041 0.000000
0.214237 0.623026 0.000000
0.258701 0.623011 0.000000
0.302876 0.622965 0.000000
0.346929 0.622919 0.000000
0.391012 0.622827 0.000000
0.435264 0.622705 0.000000
0.479896 0.622507 0.000000
0.525170 0.622202 0.000000
0.571466 0.621714 0.000000
0.619440 0.620951 0.000000
0.670161 0.619638 0.000000
0.725704 0.617243 0.000000
0.790494 0.612146 0.000000
0.877195 0.596780 0.000000
0.995850 0.508461 0.000000
0.210437 0.674189 0.000000
0.210437 0.674189 0.000000
0.239826 0.674189 0.000000
0.276280 0.674174 0.000000
0.314839 0.674144 0.000000
0.355016 0.674113 0.000000
0.396429 0.674067 0.000000
0.438895 0.673976 0.000000
0.482307 0.673854 0.000000
0.526757 0.673671 0.000000
0.572503 0.673381 0.000000
0.620096 0.672892 0.000000
0.670573 0.672084 0.000000
0.725948 0.670619 0.000000
0.790631 0.667552 0.000000
0.877256 0.658656 0.000000
0.995865 0.618021 0.000000
0.254078 0.730007 0.000000
0.254078 0.730007 0.000000
0.274510 0.730007 0.000000
0.302083 0.729992 0.000000
0.333486 0.729992 0.000000
0.368170 0.729961 0.000000
0.405554 0.729931 0.000000
0.445121 0.729885 0.000000
0.486503 0.729809 0.000000
0.529549 0.729702 0.000000
0.574334 0.729519 0.000000
0.621271 0.729244 0.000000
0.671321 0.728771 0.000000
0.726390 0.727901 0.000000
0.790860 0.726116 0.000000
0.877363 0.721050 0.000000
0.995895 0.700236 0.000000
0.310109 0.794995 0.000000
0.310109 0.794995 0.000000
0.322698 0.794980 0.000000
0.341085 0.794980 0.000000
0.363867 0.794980 0.000000
0.390982 0.794965 0.000000
0.422156 0.794949 0.000000
0.456870 0.794919 0.000000
0.494621 0.794873 0.000000
0.535058 0.794812 0.000000
0.577996 0.794720 0.000000
0.623652 0.794568 0.000000
0.672816 0.794308 0.000000
0.727291 0.793835 0.000000
0.791363 0.792874 0.000000
0.877592 0.790188 0.000000
0.995972 0.779767 0.000000
0.390539 0.881819 0.000000
0.390539 0.881819 0.000000
0.396674 0.881819 0.000000
0.406302 0.881819 0.000000
0.419287 0.881819 0.000000
0.436286 0.881804 0.000000
0.457710 0.881804 0.000000
0.483711 0.881788 0.000000
0.514199 0.881773 0.000000
0.548852 0.881743 0.000000
0.587442 0.881697 0.000000
0.629923 0.881636 0.000000
0.676814 0.881514 0.000000
0.729717 0.881315 0.000000
0.792706 0.880888 0.000000
0.878187 0.879713 0.000000
0.996170 0.875303 0.000000
0.505638 1.000000 0.000000
0.505638 1.000000 0.000000
0.507774 1.000000 0.000000
0.511299 1.000000 0.000000
0.516365 1.000000 0.000000
0.523583 1.000000 0.000000
0.533608 1.000000 0.000000
0.547219 1.000000 0.000000
0.565148 1.000000 0.000000
0.587976 1.000000 0.000000
0.616175 1.000000 0.000000
0.650095 1.000000 0.000000
0.690272 1.000000 0.000000
0.738140 1.000000 0.000000
0.797467 1.000000 0.000000
0.880369 0.999832 0.000000
0.996902 0.998413 0.000000
0.094575 0.093721 0.157259
0.094575 0.093721 0.157259
0.154009 0.092500 0.155581
0.222889 0.090455 0.152667
0.280522 0.087373 0.148165
0.332631 0.082750 0.141314
0.381735 0.075776 0.130999
0.429221 0.065217 0.115358
0.475944 0.049088 0.091478
0.522591 0.024216 0.054673
0.569802 0.000000 0.000000
0.618372 0.000000 0.000000
0.669505 0.000000 0.000000
0.725307 0.000000 0.000000
0.790280 0.000000 0.000000
0.877104 0.000000 0.000000
0.995804 0.000000 0.000000
0.094575 0.093721 0.157259
0.094575 0.093721 0.157259
0.154009 0.092500 0.155581
0.222889 0.090455 0.152667
0.280522 0.087373 0.148165
0.332631 0.082750 0.141314
0.381735 0.075776 0.130999
0.429221 0.065217 0.115358
0.475944 0.049088 0.091478
0.522591 0.024216 0.054673
0.569802 0.000000 0.000000
0.618372 0.000000 0.000000
0.669505 0.000000 0.000000
0.725307 0.000000 0.000000
0.790280 0.000000 0.000000
0.877104 0.000000 0.000000
0.995804 0.000000 0.000000
0.095186 0.155749 0.156298
0.095186 0.155749 0.156298
0.154589 0.154589 0.154589
0.223194 0.152621 0.151659
0.280705 0.149584 0.147127
0.332738 0.144961 0.140291
0.381811 0.137987 0.129961
0.429267 0.127428 0.114321
0.475975 0.111299 0.090440
0.522606 0.086427 0.053636
0.569818 0.047456 0.000000
0.618387 0.000000 0.000000
0.669505 0.000000 0.000000
0.725307 0.000000 0.000000
0.790280 0.000000 0.000000
0.877104 0.000000 0.000000
0.995804 0.000000 0.000000
0.096208 0.226047 0.154635
0.096208 0.226047 0.154635
0.155581 0.225452 0.152911
0.223713 0.224430 0.149935
0.281010 0.222889 0.145388
0.332921 0.220523 0.138537
0.381918 0.216861 0.128222
0.429343 0.211048 0.112566
0.476020 0.201541 0.088701
0.522637 0.185000 0.051896
0.569833 0.152499 0.000000
0.618387 0.089860 0.000000
0.669520 0.000000 0.000000
0.725322 0.000000 0.000000
0.790280 0.000000 0.000000
0.877104 0.000000 0.000000
0.995804 0.000000 0.000000
0.097749 0.284337 0.152117
0.097749 0.284337 0.152117
0.157031 0.283986 0.150347
0.224475 0.283406 0.147311
0.281453 0.282506 0.142763
0.333196 0.281163 0.135912
0.382101 0.279088 0.125597
0.429450 0.275883 0.109941
0.476097 0.270787 0.086076
0.522683 0.262425 0.049271
0.569863 0.247837 0.000000
0.618418 0.219242 0.000000
0.669520 0.142519 0.000000
0.725322 0.000000 0.000000
0.790280 0.000000 0.000000
0.877104 0.000000 0.000000
0.995819 0.000000 0.000000
0.100069 0.336797 0.148196
0.100069 0.336797 0.148196
0.159167 0.336583 0.146395
0.225635 0.336217 0.143374
0.282139 0.335683 0.138811
0.333623 0.334859 0.131975
0.382361 0.333608 0.121645
0.429618 0.331685 0.106004
0.476204 0.328679 0.082139
0.522759 0.323888 0.045335
0.569909 0.315908 0.000000
0.618448 0.301686 0.000000
0.669551 0.272587 0.000000
0.725338 0.184390 0.000000
0.790295 0.000000 0.000000
0.877104 0.000000 0.000000
0.995819 0.000000 0.000000
0.103578 0.386099 0.142245
0.103578 0.386099 0.142245
0.162325 0.385977 0.140444
0.227344 0.385748 0.137423
0.283146 0.385397 0.132860
0.334249 0.384894 0.126024
0.382773 0.384100 0.115694
0.429877 0.382910 0.100053
0.476371 0.381064 0.076188
0.522866 0.378134 0.039384
0.569986 0.373388 0.000000
0.618494 0.365301 0.000000
0.669566 0.350195 0.000000
0.725353 0.316121 0.000000
0.790295 0.160189 0.000000
0.877104 0.000000 0.000000
0.995819 0.000000 0.000000
0.108873 0.433722 0.133227
0.108873 0.433722 0.133227
0.166934 0.433631 0.131441
0.229877 0.433478 0.128405
0.284672 0.433265 0.123857
0.335195 0.432929 0.117006
0.383368 0.432441 0.106691
0.430274 0.431678 0.091035
0.476631 0.430503 0.067170
0.523033 0.428672 0.030366
0.570092 0.425727 0.000000
0.618555 0.420829 0.000000
0.669612 0.412085 0.000000
0.725368 0.394293 0.000000
0.790311 0.344717 0.000000
0.877119 0.000000 0.000000
0.995819 0.000000 0.000000
0.116960 0.480522 0.119478
0.116960 0.480522 0.119478
0.173617 0.480476 0.117678
0.233646 0.480369 0.114656
0.286946 0.480232 0.110094
0.336629 0.480018 0.103258
0.384283 0.479698 0.092927
0.430869 0.479210 0.077287
0.477012 0.478462 0.053422
0.523278 0.477287 0.016617
0.570245 0.475425 0.000000
0.618662 0.472374 0.000000
0.669673 0.467048 0.000000
0.725414 0.456733 0.000000
0.790326 0.431876 0.000000
0.877119 0.297200 0.000000
0.995819 0.000000 0.000000
0.129442 0.527214 0.098268
0.129442 0.527214 0.098268
0.183169 0.527184 0.096483
0.239200 0.527123 0.093446
0.290364 0.527031 0.088899
0.338796 0.526894 0.082048
0.385672 0.526680 0.071717
0.431769 0.526375 0.056077
0.477607 0.525887 0.032212
0.523674 0.525139 0.000000
0.570489 0.523949 0.000000
0.618814 0.522011 0.000000
0.669779 0.518685 0.000000
0.725475 0.512444 0.000000
0.790356 0.498344 0.000000
0.877134 0.446189 0.000000
0.995819 0.000000 0.000000
0.149004 0.574456 0.065034
0.149004 0.574456 0.065034
0.196597 0.574441 0.063233
0.247379 0.574395 0.060197
0.295506 0.574350 0.055650
0.342092 0.574258 0.048814
0.387823 0.574121 0.038483
0.433173 0.573922 0.022843
0.478523 0.573602 0.000000
0.524269 0.573129 0.000000
0.570886 0.572366 0.000000
0.619058 0.571145 0.000000
0.669932 0.569055 0.000000
0.725567 0.565179 0.000000
0.790417 0.556771 0.000000
0.877165 0.529656 0.000000
0.995834 0.000000 0.000000
0.176730 0.623056 0.011582
0.176730 0.623056 0.011582
0.215198 0.623041 0.009781
0.259342 0.623011 0.006760
0.303304 0.622980 0.002197
0.347204 0.622919 0.000000
0.391196 0.622843 0.000000
0.435386 0.622705 0.000000
0.479988 0.622507 0.000000
0.525216 0.622202 0.000000
0.571496 0.621729 0.000000
0.619455 0.620951 0.000000
0.670176 0.619638 0.000000
0.725704 0.617243 0.000000
0.790494 0.612146 0.000000
0.877195 0.596796 0.000000
0.995850 0.508492 0.000000
0.211444 0.674205 0.000000
0.211444 0.674205 0.000000
0.240574 0.674189 0.000000
0.276814 0.674174 0.000000
0.315221 0.674159 0.000000
0.355276 0.674113 0.000000
0.396612 0.674067 0.000000
0.439017 0.673991 0.000000
0.482383 0.673869 0.000000
0.526802 0.673671 0.000000
0.572534 0.673381 0.000000
0.620111 0.672908 0.000000
0.670588 0.672099 0.000000
0.725963 0.670634 0.000000
0.790631 0.667567 0.000000
0.877256 0.658656 0.000000
0.995865 0.618036 0.000000
0.254749 0.730022 0.000000
0.254749 0.730022 0.000000
0.275059 0.730007 0.000000
0.302510 0.730007 0.000000
0.333806 0.729992 0.000000
0.368414 0.729961 0.000000
0.405722 0.729931 0.000000
0.445228 0.729885 0.000000
0.486580 0.729824 0.000000
0.529595 0.729702 0.000000
0.574365 0.729534 0.000000
0.621302 0.729244 0.000000
0.671321 0.728771 0.000000
0.726390 0.727901 0.000000
0.790875 0.726116 0.000000
0.877363 0.721050 0.000000
0.995895 0.700236 0.000000
0.310506 0.794995 0.000000
0.310506 0.794995 0.000000
0.323049 0.794980 0.000000
0.341390 0.794980 0.000000
0.364096 0.794980 0.000000
0.391180 0.794965 0.000000
0.422293 0.794949 0.000000
0.456962 0.794919 0.000000
0.494697 0.794888 0.000000
0.535103 0.794827 0.000000
0.578027 0.794720 0.000000
0.623682 0.794568 0.000000
0.672831 0.794308 0.000000
0.727291 0.793851 0.000000
0.791363 0.792874 0.000000
0.877592 0.790188 0.000000
0.995972 0.779767 0.000000
0.390723 0.881819 0.000000
0.390723 0.881819 0.000000
0.396841 0.881819 0.000000
0.406455 0.881819 0.000000
0.419440 0.881819 0.000000
0.436408 0.881804 0.000000
0.457816 0.881804 0.000000
0.483803 0.881788 0.000000
0.514260 0.881773 0.000000
0.548898 0.881743 0.000000
0.587472 0.881697 0.000000
0.629938 0.881636 0.000000
0.676829 0.881514 0.000000
0.729732 0.881315 0.000000
0.792706 0.880888 0.000000
0.878187 0.879713 0.000000
0.996170 0.875303 0.000000
0.505699 1.000000 0.000000
0.505699 1.000000 0.000000
0.507836 1.000000 0.000000
0.511360 1.000000 0.000000
0.516426 1.000000 0.000000
0.523629 1.000000 0.000000
0.533654 1.000000 0.000000
0.547265 1.000000 0.000000
0.565179 1.000000 0.000000
0.588006 1.000000 0.000000
0.616205 1.000000 0.000000
0.650111 1.000000 0.000000
0.690288 1.000000 0.000000
0.738140 1.000000 0.000000
0.797467 1.000000 0.000000
0.880369 0.999832 0.000000
0.996902 0.998413 0.000000
0.097551 0.095247 0.228885
0.097551 0.095247 0.228885
0.156832 0.094026 0.228031
0.224369 0.091981 0.226551
0.281392 0.088899 0.224308
0.333165 0.084276 0.220844
0.382071 0.077302 0.215381
0.429435 0.066743 0.206546
0.476097 0.050614 0.191485
0.522683 0.025742 0.163119
0.569863 0.000000 0.106310
0.618418 0.000000 0.013550
0.669520 0.000000 0.000000
0.725322 0.000000 0.000000
0.790280 0.000000 0.000000
0.877104 0.000000 0.000000
0.995804 0.000000 0.000000
0.097551 0.095247 0.228885
0.097551 0.095247 0.228885
0.156832 0.094026 0.228031
