MEDT/Pirringer/Unterricht/2025-02-26/Korrektur und Grading FootageFotos-20250226T115430Z-001/Korrektur und Grading FootageFotos/Bounce Color True Basic Log Conversion LUTs/Monitor LUTs 17x17/BMPCC 6K Gen4 BMDFilm to Rec.709 LUT.cube
# Converted by Briz LUT Converter
LUT_3D_SIZE 17
0.000000 0.000000 0.000000
0.000000 0.000000 0.000000
0.088289 0.000000 0.000000
0.190616 0.000000 0.000000
0.286229 0.000000 0.000000
0.384405 0.000000 0.000000
0.487648 0.000000 0.000000
0.595697 0.000000 0.000000
0.706157 0.000000 0.000000
0.814939 0.000000 0.000000
0.917067 0.000000 0.000000
1.000000 0.000000 0.000000
1.000000 0.000000 0.000000
1.000000 0.000000 0.000000
1.000000 0.000000 0.000000
1.000000 0.000000 0.000000
1.000000 0.000000 0.000000
0.000000 0.000000 0.000000
0.000000 0.000000 0.000000
0.088289 0.000000 0.000000
0.190616 0.000000 0.000000
0.286229 0.000000 0.000000
0.384405 0.000000 0.000000
0.487648 0.000000 0.000000
0.595697 0.000000 0.000000
0.706157 0.000000 0.000000
0.814939 0.000000 0.000000
0.917067 0.000000 0.000000
1.000000 0.000000 0.000000
1.000000 0.000000 0.000000
1.000000 0.000000 0.000000
1.000000 0.000000 0.000000
1.000000 0.000000 0.000000
1.000000 0.000000 0.000000
0.000000 0.075639 0.000000
0.000000 0.075639 0.000000
0.058808 0.070787 0.000000
0.173510 0.062837 0.000000
0.274372 0.051514 0.000000
0.375479 0.035691 0.000000
0.480629 0.014221 0.000000
0.590005 0.000000 0.000000
0.701411 0.000000 0.000000
0.810880 0.000000 0.000000
0.913497 0.000000 0.000000
1.000000 0.000000 0.000000
1.000000 0.000000 0.000000
1.000000 0.000000 0.000000
1.000000 0.000000 0.000000
1.000000 0.000000 0.000000
1.000000 0.000000 0.000000
0.000000 0.171252 0.000000
0.000000 0.171252 0.000000
0.010773 0.168276 0.000000
0.142321 0.163302 0.000000
0.253941 0.156008 0.000000
0.360464 0.145373 0.000000
0.468956 0.129961 0.000000
0.580591 0.107729 0.000000
0.693584 0.075135 0.000000
0.804196 0.034775 0.000000
0.907652 0.000000 0.000000
0.999451 0.000000 0.000000
1.000000 0.000000 0.000000
1.000000 0.000000 0.000000
1.000000 0.000000 0.000000
1.000000 0.000000 0.000000
1.000000 0.000000 0.000000
0.000000 0.260487 0.000000
0.000000 0.260487 0.000000
0.000000 0.258396 0.000000
0.086534 0.254932 0.000000
0.222004 0.249912 0.000000
0.337911 0.242756 0.000000
0.451759 0.232746 0.000000
0.566857 0.219089 0.000000
0.682261 0.201129 0.000000
0.794553 0.178408 0.000000
0.899214 0.150942 0.000000
0.991882 0.119203 0.000000
1.000000 0.083757 0.000000
1.000000 0.048905 0.000000
1.000000 0.020981 0.000000
1.000000 0.000000 0.000000
1.000000 0.000000 0.000000
0.000000 0.352087 0.000000
0.000000 0.352087 0.000000
0.000000 0.350500 0.000000
0.000000 0.347890 0.000000
0.169436 0.344137 0.000000
0.303792 0.338827 0.000000
0.426566 0.331487 0.000000
0.547082 0.321675 0.000000
0.666087 0.309102 0.000000
0.780880 0.293873 0.000000
0.887297 0.276539 0.000000
0.981201 0.258183 0.000000
1.000000 0.240116 0.000000
1.000000 0.223621 0.000000
1.000000 0.209506 0.000000
1.000000 0.198138 0.000000
1.000000 0.191211 0.000000
0.000000 0.448432 0.000000
0.000000 0.448432 0.000000
0.000000 0.447181 0.000000
0.000000 0.445136 0.000000
0.066331 0.442176 0.000000
0.250889 0.438025 0.000000
0.389822 0.432334 0.000000
0.519005 0.424781 0.000000
0.643442 0.415244 0.000000
0.761883 0.403861 0.000000
0.870817 0.391196 0.000000
0.966491 0.378119 0.000000
1.000000 0.365637 0.000000
1.000000 0.354574 0.000000
1.000000 0.345418 0.000000
1.000000 0.338231 0.000000
1.000000 0.333928 0.000000
0.000000 0.549264 0.000000
0.000000 0.549264 0.000000
0.000000 0.548241 0.000000
0.000000 0.546578 0.000000
0.000000 0.544198 0.000000
0.161883 0.540825 0.000000
0.336110 0.536248 0.000000
0.479850 0.530190 0.000000
0.612573 0.522591 0.000000
0.736324 0.513619 0.000000
0.848814 0.503716 0.000000
0.946929 0.493629 0.000000
1.000000 0.484108 0.000000
1.000000 0.475776 0.000000
1.000000 0.468940 0.000000
1.000000 0.463645 0.000000
1.000000 0.460502 0.000000
0.000000 0.652354 0.000000
0.000000 0.652354 0.000000
0.000000 0.651499 0.000000
0.000000 0.650111 0.000000
0.000000 0.648112 0.000000
0.000000 0.645319 0.000000
0.255482 0.641505 0.000000
0.426322 0.636500 0.000000
0.571893 0.630243 0.000000
0.703243 0.622873 0.000000
0.820645 0.614801 0.000000
0.922057 0.606607 0.000000
1.000000 0.598947 0.000000
1.000000 0.592279 0.000000
1.000000 0.586847 0.000000
1.000000 0.582650 0.000000
1.000000 0.580163 0.000000
0.000000 0.753857 0.000000
0.000000 0.753857 0.000000
0.000000 0.753124 0.000000
0.000000 0.751934 0.000000
0.000000 0.750240 0.000000
0.000000 0.747845 0.000000
0.115923 0.744595 0.000000
0.354131 0.740322 0.000000
0.520409 0.735012 0.000000
0.662547 0.728771 0.000000
0.786496 0.721950 0.000000
0.892134 0.715053 0.000000
0.978775 0.708629 0.000000
1.000000 0.703059 0.000000
1.000000 0.698543 0.000000
1.000000 0.695048 0.000000
1.000000 0.692988 0.000000
0.000000 0.849165 0.000000
0.000000 0.849165 0.000000
0.000000 0.848524 0.000000
0.000000 0.847471 0.000000
0.000000 0.845975 0.000000
0.000000 0.843885 0.000000
0.000000 0.841031 0.000000
0.255467 0.837308 0.000000
0.458091 0.832654 0.000000
0.615290 0.827207 0.000000
0.747646 0.821271 0.000000
0.858488 0.815290 0.000000
0.948516 0.809720 0.000000
1.000000 0.804898 0.000000
1.000000 0.800992 0.000000
1.000000 0.797986 0.000000
1.000000 0.796201 0.000000
0.000000 0.933959 0.000000
0.000000 0.933959 0.000000
0.000000 0.933379 0.000000
0.000000 0.932433 0.000000
0.000000 0.931090 0.000000
0.000000 0.929198 0.000000
0.000000 0.926635 0.000000
0.099123 0.923293 0.000000
0.385809 0.919112 0.000000
0.563897 0.914229 0.000000
0.706493 0.908904 0.000000
0.823362 0.903563 0.000000
0.917159 0.898589 0.000000
0.990021 0.894301 0.000000
1.000000 0.890822 0.000000
1.000000 0.888136 0.000000
1.000000 0.886564 0.000000
0.000000 1.000000 0.000000
0.000000 1.000000 0.000000
0.000000 1.000000 0.000000
0.000000 1.000000 0.000000
0.000000 1.000000 0.000000
0.000000 1.000000 0.000000
0.000000 0.998627 0.000000
0.000000 0.995529 0.000000
0.304723 0.991699 0.000000
0.511650 0.987198 0.000000
0.666056 0.982330 0.000000
0.789364 0.977417 0.000000
0.887114 0.972869 0.000000
0.962478 0.968933 0.000000
1.000000 0.965743 0.000000
1.000000 0.963302 0.000000
1.000000 0.961852 0.000000
0.000000 1.000000 0.000000
0.000000 1.000000 0.000000
0.000000 1.000000 0.000000
0.000000 1.000000 0.000000
0.000000 1.000000 0.000000
0.000000 1.000000 0.000000
0.000000 1.000000 0.000000
0.000000 1.000000 0.000000
0.214191 1.000000 0.000000
0.461952 1.000000 0.000000
0.629114 1.000000 0.000000
0.758862 1.000000 0.000000
0.860380 1.000000 0.000000
0.938094 1.000000 0.000000
0.995956 1.000000 0.000000
1.000000 1.000000 0.000000
1.000000 1.000000 0.000000
0.000000 1.000000 0.000000
0.000000 1.000000 0.000000
0.000000 1.000000 0.000000
0.000000 1.000000 0.000000
0.000000 1.000000 0.000000
0.000000 1.000000 0.000000
0.000000 1.000000 0.000000
0.000000 1.000000 0.000000
0.105715 1.000000 0.000000
0.417563 1.000000 0.000000
0.597543 1.000000 0.000000
0.733242 1.000000 0.000000
0.838132 1.000000 0.000000
0.917922 1.000000 0.000000
0.977096 1.000000 0.000000
1.000000 1.000000 0.000000
1.000000 1.000000 0.000000
0.000000 1.000000 0.000000
0.000000 1.000000 0.000000
0.000000 1.000000 0.000000
0.000000 1.000000 0.000000
0.000000 1.000000 0.000000
0.000000 1.000000 0.000000
0.000000 1.000000 0.000000
0.000000 1.000000 0.000000
0.000000 1.000000 0.000000
0.380087 1.000000 0.000000
0.572122 1.000000 0.000000
0.712947 1.000000 0.000000
0.820630 1.000000 0.000000
0.902113 1.000000 0.000000
0.962371 1.000000 0.000000
1.000000 1.000000 0.000000
1.000000 1.000000 0.000000
0.000000 1.000000 0.000000
0.000000 1.000000 0.000000
0.000000 1.000000 0.000000
0.000000 1.000000 0.000000
0.000000 1.000000 0.000000
0.000000 1.000000 0.000000
0.000000 1.000000 0.000000
0.000000 1.000000 0.000000
0.000000 1.000000 0.000000
0.356268 1.000000 0.000000
0.556603 1.000000 0.000000
0.700710 1.000000 0.000000
0.810147 1.000000 0.000000
0.892683 1.000000 0.000000
0.953582 1.000000 0.000000
0.997482 1.000000 0.000000
1.000000 1.000000 0.000000
0.000000 0.000000 0.000000
0.000000 0.000000 0.000000
0.088289 0.000000 0.000000
0.190616 0.000000 0.000000
0.286229 0.000000 0.000000
0.384405 0.000000 0.000000
0.487648 0.000000 0.000000
0.595697 0.000000 0.000000
0.706157 0.000000 0.000000
0.814939 0.000000 0.000000
0.917067 0.000000 0.000000
1.000000 0.000000 0.000000
1.000000 0.000000 0.000000
1.000000 0.000000 0.000000
1.000000 0.000000 0.000000
1.000000 0.000000 0.000000
1.000000 0.000000 0.000000
0.000000 0.000000 0.000000
0.000000 0.000000 0.000000
0.088289 0.000000 0.000000
0.190616 0.000000 0.000000
0.286229 0.000000 0.000000
0.384405 0.000000 0.000000
0.487648 0.000000 0.000000
0.595697 0.000000 0.000000
0.706157 0.000000 0.000000
0.814939 0.000000 0.000000
0.917067 0.000000 0.000000
1.000000 0.000000 0.000000
1.000000 0.000000 0.000000
1.000000 0.000000 0.000000
1.000000 0.000000 0.000000
1.000000 0.000000 0.000000
1.000000 0.000000 0.000000
0.000000 0.075639 0.000000
0.000000 0.075639 0.000000
0.058808 0.070787 0.000000
0.173510 0.062837 0.000000
0.274372 0.051514 0.000000
0.375479 0.035691 0.000000
0.480629 0.014221 0.000000
0.590005 0.000000 0.000000
0.701411 0.000000 0.000000
0.810880 0.000000 0.000000
0.913497 0.000000 0.000000
1.000000 0.000000 0.000000
1.000000 0.000000 0.000000
1.000000 0.000000 0.000000
1.000000 0.000000 0.000000
1.000000 0.000000 0.000000
1.000000 0.000000 0.000000
0.000000 0.171252 0.000000
0.000000 0.171252 0.000000
0.010773 0.168276 0.000000
0.142321 0.163302 0.000000
0.253941 0.156008 0.000000
0.360464 0.145373 0.000000
0.468956 0.129961 0.000000
0.580591 0.107729 0.000000
0.693584 0.075135 0.000000
0.804196 0.034775 0.000000
0.907652 0.000000 0.000000
0.999451 0.000000 0.000000
1.000000 0.000000 0.000000
1.000000 0.000000 0.000000
1.000000 0.000000 0.000000
1.000000 0.000000 0.000000
1.000000 0.000000 0.000000
0.000000 0.260487 0.000000
0.000000 0.260487 0.000000
0.000000 0.258396 0.000000
0.086534 0.254932 0.000000
0.222004 0.249912 0.000000
0.337911 0.242756 0.000000
0.451759 0.232746 0.000000
0.566857 0.219089 0.000000
0.682261 0.201129 0.000000
0.794553 0.178408 0.000000
0.899214 0.150942 0.000000
0.991882 0.119203 0.000000
1.000000 0.083757 0.000000
1.000000 0.048905 0.000000
1.000000 0.020981 0.000000
1.000000 0.000000 0.000000
1.000000 0.000000 0.000000
0.000000 0.352087 0.000000
0.000000 0.352087 0.000000
0.000000 0.350500 0.000000
0.000000 0.347890 0.000000
0.169436 0.344137 0.000000
0.303792 0.338827 0.000000
0.426566 0.331487 0.000000
0.547082 0.321675 0.000000
0.666087 0.309102 0.000000
0.780880 0.293873 0.000000
0.887297 0.276539 0.000000
0.981201 0.258183 0.000000
1.000000 0.240116 0.000000
1.000000 0.223621 0.000000
1.000000 0.209506 0.000000
1.000000 0.198138 0.000000
1.000000 0.191211 0.000000
0.000000 0.448432 0.000000
0.000000 0.448432 0.000000
0.000000 0.447181 0.000000
0.000000 0.445136 0.000000
0.066331 0.442176 0.000000
0.250889 0.438025 0.000000
0.389822 0.432334 0.000000
0.519005 0.424781 0.000000
0.643442 0.415244 0.000000
0.761883 0.403861 0.000000
0.870817 0.391196 0.000000
0.966491 0.378119 0.000000
1.000000 0.365637 0.000000
1.000000 0.354574 0.000000
1.000000 0.345418 0.000000
1.000000 0.338231 0.000000
1.000000 0.333928 0.000000
0.000000 0.549264 0.000000
0.000000 0.549264 0.000000
0.000000 0.548241 0.000000
0.000000 0.546578 0.000000
0.000000 0.544198 0.000000
0.161883 0.540825 0.000000
0.336110 0.536248 0.000000
0.479850 0.530190 0.000000
0.612573 0.522591 0.000000
0.736324 0.513619 0.000000
0.848814 0.503716 0.000000
0.946929 0.493629 0.000000
1.000000 0.484108 0.000000
1.000000 0.475776 0.000000
1.000000 0.468940 0.000000
1.000000 0.463645 0.000000
1.000000 0.460502 0.000000
0.000000 0.652354 0.000000
0.000000 0.652354 0.000000
0.000000 0.651499 0.000000
0.000000 0.650111 0.000000
0.000000 0.648112 0.000000
0.000000 0.645319 0.000000
0.255482 0.641505 0.000000
0.426322 0.636500 0.000000
0.571893 0.630243 0.000000
0.703243 0.622873 0.000000
0.820645 0.614801 0.000000
0.922057 0.606607 0.000000
1.000000 0.598947 0.000000
1.000000 0.592279 0.000000
1.000000 0.586847 0.000000
1.000000 0.582650 0.000000
1.000000 0.580163 0.000000
0.000000 0.753857 0.000000
0.000000 0.753857 0.000000
0.000000 0.753124 0.000000
0.000000 0.751934 0.000000
0.000000 0.750240 0.000000
0.000000 0.747845 0.000000
0.115923 0.744595 0.000000
0.354131 0.740322 0.000000
0.520409 0.735012 0.000000
0.662547 0.728771 0.000000
0.786496 0.721950 0.000000
0.892134 0.715053 0.000000
0.978775 0.708629 0.000000
1.000000 0.703059 0.000000
1.000000 0.698543 0.000000
1.000000 0.695048 0.000000
1.000000 0.692988 0.000000
0.000000 0.849165 0.000000
0.000000 0.849165 0.000000
0.000000 0.848524 0.000000
0.000000 0.847471 0.000000
0.000000 0.845975 0.000000
0.000000 0.843885 0.000000
0.000000 0.841031 0.000000
0.255467 0.837308 0.000000
0.458091 0.832654 0.000000
0.615290 0.827207 0.000000
0.747646 0.821271 0.000000
0.858488 0.815290 0.000000
0.948516 0.809720 0.000000
1.000000 0.804898 0.000000
1.000000 0.800992 0.000000
1.000000 0.797986 0.000000
1.000000 0.796201 0.000000
0.000000 0.933959 0.000000
0.000000 0.933959 0.000000
0.000000 0.933379 0.000000
0.000000 0.932433 0.000000
0.000000 0.931090 0.000000
0.000000 0.929198 0.000000
0.000000 0.926635 0.000000
0.099123 0.923293 0.000000
0.385809 0.919112 0.000000
0.563897 0.914229 0.000000
0.706493 0.908904 0.000000
0.823362 0.903563 0.000000
0.917159 0.898589 0.000000
0.990021 0.894301 0.000000
1.000000 0.890822 0.000000
1.000000 0.888136 0.000000
1.000000 0.886564 0.000000
0.000000 1.000000 0.000000
0.000000 1.000000 0.000000
0.000000 1.000000 0.000000
0.000000 1.000000 0.000000
0.000000 1.000000 0.000000
0.000000 1.000000 0.000000
0.000000 0.998627 0.000000
0.000000 0.995529 0.000000
0.304723 0.991699 0.000000
0.511650 0.987198 0.000000
0.666056 0.982330 0.000000
0.789364 0.977417 0.000000
0.887114 0.972869 0.000000
0.962478 0.968933 0.000000
1.000000 0.965743 0.000000
1.000000 0.963302 0.000000
1.000000 0.961852 0.000000
0.000000 1.000000 0.000000
0.000000 1.000000 0.000000
0.000000 1.000000 0.000000
0.000000 1.000000 0.000000
0.000000 1.000000 0.000000
0.000000 1.000000 0.000000
0.000000 1.000000 0.000000
0.000000 1.000000 0.000000
0.214191 1.000000 0.000000
0.461952 1.000000 0.000000
0.629114 1.000000 0.000000
0.758862 1.000000 0.000000
0.860380 1.000000 0.000000
0.938094 1.000000 0.000000
0.995956 1.000000 0.000000
1.000000 1.000000 0.000000
1.000000 1.000000 0.000000
0.000000 1.000000 0.000000
0.000000 1.000000 0.000000
0.000000 1.000000 0.000000
0.000000 1.000000 0.000000
0.000000 1.000000 0.000000
0.000000 1.000000 0.000000
0.000000 1.000000 0.000000
0.000000 1.000000 0.000000
0.105715 1.000000 0.000000
0.417563 1.000000 0.000000
0.597543 1.000000 0.000000
0.733242 1.000000 0.000000
0.838132 1.000000 0.000000
0.917922 1.000000 0.000000
0.977096 1.000000 0.000000
1.000000 1.000000 0.000000
1.000000 1.000000 0.000000
0.000000 1.000000 0.000000
0.000000 1.000000 0.000000
0.000000 1.000000 0.000000
0.000000 1.000000 0.000000
0.000000 1.000000 0.000000
0.000000 1.000000 0.000000
0.000000 1.000000 0.000000
0.000000 1.000000 0.000000
0.000000 1.000000 0.000000
0.380087 1.000000 0.000000
0.572122 1.000000 0.000000
0.712947 1.000000 0.000000
0.820630 1.000000 0.000000
0.902113 1.000000 0.000000
0.962371 1.000000 0.000000
1.000000 1.000000 0.000000
1.000000 1.000000 0.000000
0.000000 1.000000 0.000000
0.000000 1.000000 0.000000
0.000000 1.000000 0.000000
0.000000 1.000000 0.000000
0.000000 1.000000 0.000000
0.000000 1.000000 0.000000
0.000000 1.000000 0.000000
0.000000 1.000000 0.000000
0.000000 1.000000 0.000000
0.356268 1.000000 0.000000
0.556603 1.000000 0.000000
0.700710 1.000000 0.000000
0.810147 1.000000 0.000000
0.892683 1.000000 0.000000
0.953582 1.000000 0.000000
0.997482 1.000000 0.000000
1.000000 1.000000 0.000000
0.000000 0.000000 0.073167
0.000000 0.000000 0.073167
0.085817 0.000000 0.070252
0.189166 0.000000 0.065461
0.285222 0.000000 0.058640
0.383627 0.000000 0.049104
0.487037 0.000000 0.036164
0.595193 0.000000 0.019287
0.705745 0.000000 0.000000
0.814588 0.000000 0.000000
0.916762 0.000000 0.000000
1.000000 0.000000 0.000000
1.000000 0.000000 0.000000
1.000000 0.000000 0.000000
1.000000 0.000000 0.000000
1.000000 0.000000 0.000000
1.000000 0.000000 0.000000
0.000000 0.000000 0.073167
0.000000 0.000000 0.073167
0.085817 0.000000 0.070252
0.189166 0.000000 0.065461
0.285222 0.000000 0.058640
0.383627 0.000000 0.049104
0.487037 0.000000 0.036164
0.595193 0.000000 0.019287
0.705745 0.000000 0.000000
0.814588 0.000000 0.000000
0.916762 0.000000 0.000000
1.000000 0.000000 0.000000
1.000000 0.000000 0.000000
1.000000 0.000000 0.000000
1.000000 0.000000 0.000000
1.000000 0.000000 0.000000
1.000000 0.000000 0.000000
0.000000 0.061097 0.059159
0.000000 0.061097 0.059159
0.056230 0.056230 0.056230
0.171954 0.048295 0.051453
0.273320 0.036973 0.044633
0.374701 0.021149 0.035096
0.480018 0.000000 0.022156
0.589502 0.000000 0.005280
0.700999 0.000000 0.000000
0.810529 0.000000 0.000000
0.913191 0.000000 0.000000
1.000000 0.000000 0.000000
1.000000 0.000000 0.000000
1.000000 0.000000 0.000000
1.000000 0.000000 0.000000
1.000000 0.000000 0.000000
1.000000 0.000000 0.000000
0.000000 0.162188 0.036271
0.000000 0.162188 0.036271
0.008194 0.159075 0.033341
0.140505 0.153887 0.028550
0.252811 0.146258 0.021729
0.359640 0.135073 0.012192
0.468315 0.118761 0.000000
0.580072 0.094926 0.000000
0.693172 0.060594 0.000000
0.803845 0.020234 0.000000
0.907332 0.000000 0.000000
0.999176 0.000000 0.000000
1.000000 0.000000 0.000000
1.000000 0.000000 0.000000
1.000000 0.000000 0.000000
1.000000 0.000000 0.000000
1.000000 0.000000 0.000000
0.000000 0.254154 0.003601
0.000000 0.254154 0.003601
0.000000 0.252018 0.000671
0.084031 0.248478 0.000000
0.220722 0.243336 0.000000
0.337041 0.236011 0.000000
0.451102 0.225742 0.000000
0.566339 0.211719 0.000000
0.681834 0.193179 0.000000
0.794202 0.169635 0.000000
0.898894 0.140932 0.000000
0.991608 0.107271 0.000000
1.000000 0.068986 0.000000
1.000000 0.034363 0.000000
1.000000 0.006439 0.000000
1.000000 0.000000 0.000000
1.000000 0.000000 0.000000
0.000000 0.347311 0.000000
0.000000 0.347311 0.000000
0.000000 0.345708 0.000000
0.000000 0.343069 0.000000
0.167849 0.339254 0.000000
0.302831 0.333867 0.000000
0.425864 0.326421 0.000000
0.546548 0.316457 0.000000
0.665644 0.303700 0.000000
0.780514 0.288197 0.000000
0.886976 0.270542 0.000000
0.980911 0.251789 0.000000
1.000000 0.233310 0.000000
1.000000 0.216373 0.000000
1.000000 0.201846 0.000000
1.000000 0.190112 0.000000
1.000000 0.182925 0.000000
0.000000 0.444678 0.000000
0.000000 0.444678 0.000000
0.000000 0.443412 0.000000
0.000000 0.441337 0.000000
0.063768 0.438361 0.000000
0.249744 0.434180 0.000000
0.389059 0.428428 0.000000
0.518441 0.420813 0.000000
0.642985 0.411185 0.000000
0.761501 0.399695 0.000000
0.870497 0.386892 0.000000
0.966201 0.373663 0.000000
1.000000 0.361028 0.000000
1.000000 0.349828 0.000000
1.000000 0.340551 0.000000
1.000000 0.333257 0.000000
1.000000 0.328908 0.000000
0.000000 0.546212 0.000000
0.000000 0.546212 0.000000
0.000000 0.545190 0.000000
0.000000 0.543511 0.000000
0.000000 0.541100 0.000000
0.160235 0.537728 0.000000
0.335225 0.533104 0.000000
0.479240 0.527031 0.000000
0.612100 0.519387 0.000000
0.735927 0.510338 0.000000
0.848478 0.500374 0.000000
0.946624 0.490211 0.000000
1.000000 0.480629 0.000000
1.000000 0.472236 0.000000
1.000000 0.465354 0.000000
1.000000 0.460014 0.000000
1.000000 0.456840 0.000000
0.000000 0.649790 0.000000
0.000000 0.649790 0.000000
0.000000 0.648951 0.000000
0.000000 0.647547 0.000000
0.000000 0.645548 0.000000
0.000000 0.642741 0.000000
0.254353 0.638911 0.000000
0.425620 0.633890 0.000000
0.571389 0.627588 0.000000
0.702831 0.620188 0.000000
0.820294 0.612085 0.000000
0.921736 0.603861 0.000000
1.000000 0.596155 0.000000
1.000000 0.589456 0.000000
1.000000 0.583993 0.000000
1.000000 0.579767 0.000000
1.000000 0.577279 0.000000
0.000000 0.751675 0.000000
0.000000 0.751675 0.000000
0.000000 0.750942 0.000000
0.000000 0.749752 0.000000
0.000000 0.748043 0.000000
0.000000 0.745647 0.000000
0.113832 0.742382 0.000000
0.353292 0.738109 0.000000
0.519844 0.732769 0.000000
0.662104 0.726497 0.000000
0.786130 0.719661 0.000000
0.891814 0.712749 0.000000
0.978485 0.706294 0.000000
1.000000 0.700710 0.000000
1.000000 0.696178 0.000000
1.000000 0.692668 0.000000
1.000000 0.690593 0.000000
0.000000 0.847242 0.000000
0.000000 0.847242 0.000000
0.000000 0.846601 0.000000
0.000000 0.845548 0.000000
0.000000 0.844053 0.000000
0.000000 0.841962 0.000000
0.000000 0.839094 0.000000
0.254337 0.835355 0.000000
0.457435 0.830686 0.000000
0.614816 0.825223 0.000000
0.747250 0.819272 0.000000
0.858152 0.813275 0.000000
0.948211 0.807691 0.000000
1.000000 0.802869 0.000000
1.000000 0.798947 0.000000
1.000000 0.795926 0.000000
1.000000 0.794156 0.000000
0.000000 0.932235 0.000000
0.000000 0.932235 0.000000
0.000000 0.931655 0.000000
0.000000 0.930709 0.000000
0.000000 0.929351 0.000000
0.000000 0.927474 0.000000
0.000000 0.924895 0.000000
0.096819 0.921538 0.000000
0.385046 0.917357 0.000000
0.563363 0.912459 0.000000
0.706081 0.907134 0.000000
0.823011 0.901778 0.000000
0.916854 0.896788 0.000000
0.989731 0.892485 0.000000
1.000000 0.888991 0.000000
1.000000 0.886320 0.000000
1.000000 0.884733 0.000000
0.000000 1.000000 0.000000
0.000000 1.000000 0.000000
0.000000 1.000000 0.000000
0.000000 1.000000 0.000000
0.000000 1.000000 0.000000
0.000000 0.999390 0.000000
0.000000 0.997024 0.000000
0.000000 0.993927 0.000000
0.303746 0.990082 0.000000
0.511070 0.985580 0.000000
0.665614 0.980697 0.000000
0.788998 0.975784 0.000000
0.886793 0.971206 0.000000
0.962173 0.967269 0.000000
1.000000 0.964080 0.000000
1.000000 0.961624 0.000000
1.000000 0.960189 0.000000
0.000000 1.000000 0.000000
0.000000 1.000000 0.000000
0.000000 1.000000 0.000000
0.000000 1.000000 0.000000
0.000000 1.000000 0.000000
0.000000 1.000000 0.000000
0.000000 1.000000 0.000000
0.000000 1.000000 0.000000
0.212879 1.000000 0.000000
0.461311 1.000000 0.000000
0.628641 1.000000 0.000000
0.758480 1.000000 0.000000
0.860044 1.000000 0.000000
0.937804 1.000000 0.000000
0.995666 1.000000 0.000000
1.000000 1.000000 0.000000
1.000000 1.000000 0.000000
0.000000 1.000000 0.000000
0.000000 1.000000 0.000000
0.000000 1.000000 0.000000
0.000000 1.000000 0.000000
0.000000 1.000000 0.000000
0.000000 1.000000 0.000000
0.000000 1.000000 0.000000
0.000000 1.000000 0.000000
0.103487 1.000000 0.000000
0.416846 1.000000 0.000000
0.597055 1.000000 0.000000
0.732845 1.000000 0.000000
0.837781 1.000000 0.000000
0.917617 1.000000 0.000000
0.976806 1.000000 0.000000
1.000000 1.000000 0.000000
1.000000 1.000000 0.000000
0.000000 1.000000 0.000000
0.000000 1.000000 0.000000
0.000000 1.000000 0.000000
0.000000 1.000000 0.000000
0.000000 1.000000 0.000000
0.000000 1.000000 0.000000
0.000000 1.000000 0.000000
0.000000 1.000000 0.000000
0.000000 1.000000 0.000000
0.379309 1.000000 0.000000
0.571618 1.000000 0.000000
0.712535 1.000000 0.000000
0.820279 1.000000 0.000000
0.901808 1.000000 0.000000
0.962066 1.000000 0.000000
1.000000 1.000000 0.000000
1.000000 1.000000 0.000000
0.000000 1.000000 0.000000
0.000000 1.000000 0.000000
0.000000 1.000000 0.000000
0.000000 1.000000 0.000000
0.000000 1.000000 0.000000
0.000000 1.000000 0.000000
0.000000 1.000000 0.000000
0.000000 1.000000 0.000000
0.000000 1.000000 0.000000
0.355444 1.000000 0.000000
0.556085 1.000000 0.000000
0.700298 1.000000 0.000000
0.809796 1.000000 0.000000
0.892363 1.000000 0.000000
0.953292 1.000000 0.000000
0.997208 1.000000 0.000000
1.000000 1.000000 0.000000
0.000000 0.000000 0.167269
0.000000 0.000000 0.167269
0.081682 0.000000 0.165438
0.186786 0.000000 0.162417
0.283543 0.000000 0.158038
0.382361 0.000000 0.151751
0.486030 0.000000 0.142901
0.594385 0.000000 0.130739
0.705058 0.000000 0.114473
0.814008 0.000000 0.093400
0.916243 0.000000 0.067338
1.000000 0.000000 0.041047
1.000000 0.000000 0.016739
1.000000 0.000000 0.000000
1.000000 0.000000 0.000000
1.000000 0.000000 0.000000
1.000000 0.000000 0.000000
0.000000 0.000000 0.167269
0.000000 0.000000 0.167269
0.081682 0.000000 0.165438
