MEDT/Pirringer/Unterricht/2025-02-26/Korrektur und Grading FootageFotos-20250226T115430Z-001/Korrektur und Grading FootageFotos/Bounce Color True Basic Log Conversion LUTs/Monitor LUTs 17x17/BMPCC 4K Gen5 BMDFilm to Rec.709 LUT.cube
# Converted by Briz LUT Converter
LUT_3D_SIZE 9
0.000000 0.000000 0.000000
0.004303 0.000000 0.000000
0.204562 0.000000 0.000000
0.455421 0.000000 0.000000
0.752590 0.000000 0.000000
0.982467 0.000000 0.000000
1.000000 0.000000 0.000000
1.000000 0.000000 0.000000
1.000000 0.000000 0.000000
0.000000 0.002380 0.000000
0.002487 0.002991 0.000000
0.208774 0.000000 0.000000
0.469917 0.000000 0.000000
0.781674 0.000000 0.000000
1.000000 0.000000 0.000000
1.000000 0.000000 0.000000
1.000000 0.000000 0.000000
1.000000 0.000000 0.000000
0.000000 0.168368 0.000000
0.000000 0.183093 0.000000
0.157366 0.179660 0.000000
0.465766 0.138415 0.000000
0.802762 0.025437 0.000000
1.000000 0.000000 0.000000
1.000000 0.000000 0.000000
1.000000 0.000000 0.000000
1.000000 0.028672 0.000000
0.000000 0.390417 0.000000
0.000000 0.419806 0.000000
0.000000 0.436271 0.000000
0.384909 0.426978 0.000000
0.771298 0.396231 0.000000
1.000000 0.377127 0.000000
1.000000 0.389654 0.000000
1.000000 0.437400 0.000000
1.000000 0.498512 0.000000
0.000000 0.684947 0.000000
0.000000 0.727108 0.000000
0.000000 0.753613 0.000000
0.080446 0.755077 0.000000
0.672251 0.739315 0.000000
0.953033 0.732052 0.000000
1.000000 0.742168 0.000000
1.000000 0.772763 0.000000
1.000000 0.810452 0.000000
0.000000 0.956664 0.000000
0.000000 0.985641 0.000000
0.000000 0.999298 0.000000
0.000000 0.994125 0.000000
0.568856 0.975265 0.000000
0.877272 0.962173 0.000000
1.000000 0.962493 0.000000
1.000000 0.976837 0.000000
1.000000 0.994934 0.000000
0.000000 1.000000 0.000000
0.000000 1.000000 0.000000
0.000000 1.000000 0.000000
0.000000 1.000000 0.000000
0.538552 1.000000 0.000000
0.847303 1.000000 0.000000
0.976913 1.000000 0.000000
1.000000 1.000000 0.000000
1.000000 1.000000 0.000000
0.000000 1.000000 0.000000
0.000000 1.000000 0.000000
0.000000 1.000000 0.000000
0.000000 1.000000 0.000000
0.597864 1.000000 0.000000
0.863783 1.000000 0.000000
0.974395 1.000000 0.000000
1.000000 1.000000 0.000000
1.000000 1.000000 0.000000
0.000000 1.000000 0.000000
0.000000 1.000000 0.000000
0.000000 1.000000 0.000000
0.000000 1.000000 0.000000
0.659129 1.000000 0.000000
0.883482 1.000000 0.000000
0.978515 1.000000 0.000000
1.000000 1.000000 0.000000
1.000000 1.000000 0.000000
0.000000 0.000000 0.003555
0.004150 0.000000 0.003403
0.204242 0.000000 0.000000
0.455299 0.000000 0.000000
0.753063 0.000000 0.000000
0.984222 0.000000 0.000000
1.000000 0.000000 0.000000
1.000000 0.000000 0.000000
1.000000 0.000000 0.000000
0.000000 0.001785 0.001724
0.003021 0.003021 0.003021
0.211505 0.000000 0.000000
0.474601 0.000000 0.000000
0.787793 0.000000 0.000000
1.000000 0.000000 0.000000
1.000000 0.000000 0.000000
1.000000 0.000000 0.000000
1.000000 0.000000 0.000000
0.000000 0.172854 0.000000
0.000000 0.189212 0.000000
0.164065 0.186877 0.000000
0.474418 0.147311 0.000000
0.813001 0.037736 0.000000
1.000000 0.000000 0.000000
1.000000 0.000000 0.000000
1.000000 0.000000 0.000000
1.000000 0.041855 0.000000
0.000000 0.400092 0.000000
0.000000 0.431022 0.000000
0.000000 0.448478 0.000000
0.396948 0.440070 0.000000
0.784222 0.410498 0.000000
1.000000 0.392966 0.000000
1.000000 0.404944 0.000000
1.000000 0.450065 0.000000
1.000000 0.507897 0.000000
0.000000 0.699138 0.000000
0.000000 0.741573 0.000000
0.000000 0.767544 0.000000
0.107591 0.768872 0.000000
0.684153 0.752270 0.000000
0.959045 0.743542 0.000000
1.000000 0.752621 0.000000
1.000000 0.781125 0.000000
1.000000 0.816297 0.000000
0.000000 0.966995 0.000000
0.000000 0.994461 0.000000
0.000000 1.000000 0.000000
0.000000 1.000000 0.000000
0.579873 0.981186 0.000000
0.882704 0.967910 0.000000
1.000000 0.967605 0.000000
1.000000 0.980545 0.000000
1.000000 0.996948 0.000000
0.000000 1.000000 0.000000
0.000000 1.000000 0.000000
0.000000 1.000000 0.000000
0.000000 1.000000 0.000000
0.548043 1.000000 0.000000
0.851362 1.000000 0.000000
0.978408 1.000000 0.000000
1.000000 1.000000 0.000000
1.000000 1.000000 0.000000
0.000000 1.000000 0.000000
0.000000 1.000000 0.000000
0.000000 1.000000 0.000000
0.000000 1.000000 0.000000
0.601450 1.000000 0.000000
0.864652 1.000000 0.000000
0.974121 1.000000 0.000000
1.000000 1.000000 0.000000
1.000000 1.000000 0.000000
0.000000 1.000000 0.000000
0.000000 1.000000 0.000000
0.000000 1.000000 0.000000
0.000000 1.000000 0.000000
0.656062 1.000000 0.000000
0.881086 1.000000 0.000000
0.976776 1.000000 0.000000
1.000000 1.000000 0.000000
1.000000 1.000000 0.000000
0.000000 0.000000 0.189563
0.000000 0.000000 0.189319
0.194995 0.000000 0.169924
0.448737 0.000000 0.117372
0.748165 0.000000 0.016998
0.981994 0.000000 0.000000
1.000000 0.000000 0.000000
1.000000 0.000000 0.000000
1.000000 0.000000 0.000000
0.000000 0.000000 0.188403
0.000000 0.000000 0.190982
0.205356 0.000000 0.179416
0.472496 0.000000 0.139956
0.788586 0.000000 0.057389
1.000000 0.000000 0.000000
1.000000 0.000000 0.000000
1.000000 0.000000 0.000000
1.000000 0.000000 0.036011
0.000000 0.148150 0.144610
0.000000 0.164263 0.160494
0.161624 0.161624 0.161624
0.477272 0.119600 0.134524
0.818189 0.003906 0.066270
1.000000 0.000000 0.006363
1.000000 0.000000 0.000000
1.000000 0.000000 0.045792
1.000000 0.000000 0.130800
0.000000 0.397116 0.000000
0.000000 0.427802 0.020234
0.000000 0.444511 0.030488
0.402747 0.436790 0.005234
0.791623 0.407050 0.000000
1.000000 0.388495 0.000000
1.000000 0.400885 0.000000
1.000000 0.444480 0.000000
1.000000 0.500145 0.000000
0.000000 0.704784 0.000000
0.000000 0.745876 0.000000
0.000000 0.770367 0.000000
0.117250 0.770764 0.000000
0.690288 0.753307 0.000000
0.961669 0.743221 0.000000
1.000000 0.750652 0.000000
1.000000 0.777737 0.000000
1.000000 0.811521 0.000000
0.000000 0.969284 0.000000
0.000000 0.994217 0.000000
0.000000 1.000000 0.000000
0.000000 0.998032 0.000000
0.583169 0.978378 0.000000
0.884077 0.964996 0.000000
1.000000 0.963989 0.000000
1.000000 0.975845 0.000000
1.000000 0.991089 0.000000
0.000000 1.000000 0.000000
0.000000 1.000000 0.000000
0.000000 1.000000 0.000000
0.000000 1.000000 0.000000
0.548440 1.000000 0.000000
0.850614 1.000000 0.000000
0.977234 1.000000 0.000000
1.000000 1.000000 0.000000
1.000000 1.000000 0.000000
0.000000 1.000000 0.000000
0.000000 1.000000 0.000000
0.000000 1.000000 0.000000
0.000000 1.000000 0.000000
0.596155 1.000000 0.000000
0.860914 1.000000 0.000000
0.971206 1.000000 0.000000
1.000000 1.000000 0.000000
1.000000 1.000000 0.000000
0.000000 1.000000 0.000000
0.000000 1.000000 0.000000
0.000000 1.000000 0.000000
0.000000 1.000000 0.000000
0.644617 1.000000 0.000000
0.874098 1.000000 0.000000
0.972061 1.000000 0.000000
1.000000 1.000000 0.000000
1.000000 1.000000 0.000000
0.000000 0.000000 0.443214
0.000000 0.000000 0.442817
0.168292 0.000000 0.426001
0.431052 0.000000 0.385870
0.733974 0.000000 0.330236
0.972335 0.000000 0.284016
1.000000 0.000000 0.261570
1.000000 0.000000 0.274434
1.000000 0.000000 0.306142
0.000000 0.000000 0.442832
0.000000 0.000000 0.446983
0.182910 0.000000 0.439490
0.459632 0.000000 0.411994
0.779980 0.000000 0.371298
1.000000 0.000000 0.342748
1.000000 0.000000 0.339956
1.000000 0.000000 0.371496
1.000000 0.000000 0.419043
0.000000 0.018402 0.418158
0.000000 0.035904 0.436271
0.140673 0.029191 0.442435
0.469444 0.000000 0.429358
0.814832 0.000000 0.403082
1.000000 0.000000 0.390311
1.000000 0.000000 0.403342
1.000000 0.000000 0.446159
1.000000 0.000000 0.502190
0.000000 0.358099 0.351537
0.000000 0.388983 0.381979
0.000000 0.405798 0.400153
0.397452 0.397452 0.397452
0.790539 0.364721 0.378546
1.000000 0.342168 0.370657
1.000000 0.351965 0.386725
1.000000 0.394110 0.427131
1.000000 0.447913 0.475914
0.000000 0.687922 0.229038
0.000000 0.727275 0.271580
0.000000 0.750957 0.297230
0.098619 0.750164 0.293431
0.687037 0.731380 0.263996
0.958724 0.719615 0.241794
1.000000 0.724865 0.245701
1.000000 0.749752 0.280980
1.000000 0.781582 0.328450
0.000000 0.954986 0.085298
0.000000 0.977554 0.163546
0.000000 0.986923 0.193912
0.000000 0.979355 0.169833
0.575631 0.959564 0.091112
0.879210 0.945632 0.018998
1.000000 0.943450 0.007660
1.000000 0.953460 0.065980
1.000000 0.967193 0.145678
0.000000 1.000000 0.092744
0.000000 1.000000 0.169100
0.000000 1.000000 0.189944
0.000000 1.000000 0.140551
0.535195 1.000000 0.004501
0.842466 1.000000 0.000000
0.971481 1.000000 0.000000
1.000000 1.000000 0.000000
1.000000 1.000000 0.000000
0.000000 1.000000 0.286473
0.000000 1.000000 0.321309
0.000000 1.000000 0.317464
0.000000 1.000000 0.253559
0.576486 1.000000 0.122820
0.849226 1.000000 0.000000
0.963424 1.000000 0.000000
1.000000 1.000000 0.000000
1.000000 1.000000 0.000000
0.000000 1.000000 0.433127
0.000000 1.000000 0.440681
0.000000 1.000000 0.415244
0.000000 1.000000 0.338308
0.618402 1.000000 0.206928
0.858808 1.000000 0.024720
0.961837 1.000000 0.000000
1.000000 1.000000 0.000000
1.000000 1.000000 0.000000
0.000000 0.000000 0.743282
0.000000 0.000000 0.742550
0.112566 0.000000 0.727138
0.402441 0.000000 0.690608
0.713405 0.000000 0.644144
0.957778 0.000000 0.611353
1.000000 0.000000 0.600427
1.000000 0.000000 0.618036
1.000000 0.000000 0.650446
0.000000 0.000000 0.743709
0.000000 0.000000 0.749493
0.135042 0.000000 0.744717
0.436591 0.000000 0.722194
0.764736 0.000000 0.691096
1.000000 0.000000 0.674083
1.000000 0.000000 0.679500
1.000000 0.000000 0.712032
1.000000 0.000000 0.756237
0.000000 0.000000 0.729152
0.000000 0.000000 0.748684
0.088182 0.000000 0.757031
0.451392 0.000000 0.748699
0.804746 0.000000 0.732113
1.000000 0.000000 0.728878
1.000000 0.000000 0.746227
1.000000 0.000000 0.784695
1.000000 0.000000 0.829801
0.000000 0.241703 0.684230
0.000000 0.277592 0.716320
0.000000 0.296742 0.736431
0.380118 0.284962 0.738415
0.782483 0.238483 0.729320
1.000000 0.200717 0.730373
1.000000 0.208896 0.747524
1.000000 0.263493 0.780545
1.000000 0.331167 0.816571
0.000000 0.637644 0.627085
0.000000 0.676356 0.665248
0.000000 0.699260 0.688746
0.039048 0.697047 0.689708
0.675410 0.675410 0.675410
0.950500 0.661418 0.668788
1.000000 0.664927 0.676143
1.000000 0.688823 0.700572
1.000000 0.720989 0.731594
0.000000 0.916655 0.606714
0.000000 0.937667 0.642725
0.000000 0.945602 0.658991
0.000000 0.937453 0.649866
0.558389 0.917159 0.624964
0.868620 0.902266 0.609735
1.000000 0.898848 0.610498
1.000000 0.907622 0.629984
1.000000 0.920089 0.655558
0.000000 1.000000 0.633280
0.000000 1.000000 0.661662
0.000000 1.000000 0.670924
0.000000 1.000000 0.652689
0.510552 1.000000 0.616922
0.828138 1.000000 0.589212
0.961074 1.000000 0.577005
1.000000 1.000000 0.585611
1.000000 1.000000 0.599954
0.000000 1.000000 0.717098
0.000000 1.000000 0.734066
0.000000 1.000000 0.731502
0.000000 1.000000 0.700359
0.545983 1.000000 0.651896
0.831067 1.000000 0.610422
0.950805 1.000000 0.582925
0.995697 1.000000 0.576349
1.000000 1.000000 0.577783
0.000000 1.000000 0.792203
0.000000 1.000000 0.795377
0.000000 1.000000 0.780163
0.000000 1.000000 0.738231
0.581064 1.000000 0.677409
0.836606 1.000000 0.623636
0.946456 1.000000 0.586175
0.988907 1.000000 0.573327
1.000000 1.000000 0.571435
0.000000 0.000000 0.953277
0.000000 0.000000 0.952682
0.041825 0.000000 0.941558
0.375311 0.000000 0.914977
0.696010 0.000000 0.880720
0.946075 0.000000 0.856977
1.000000 0.000000 0.850202
1.000000 0.000000 0.865507
1.000000 0.000000 0.891402
0.000000 0.000000 0.954604
0.000000 0.000000 0.959823
0.077424 0.000000 0.957534
0.416739 0.000000 0.942489
0.753597 0.000000 0.920699
1.000000 0.000000 0.909117
1.000000 0.000000 0.914183
1.000000 0.000000 0.938003
1.000000 0.000000 0.967727
0.000000 0.000000 0.947707
0.000000 0.000000 0.962448
0.030045 0.000000 0.969238
0.437507 0.000000 0.964096
0.798886 0.000000 0.952773
1.000000 0.000000 0.950454
1.000000 0.000000 0.961730
1.000000 0.000000 0.985412
1.000000 0.000000 1.000000
0.000000 0.006592 0.918471
0.000000 0.093614 0.941711
0.000000 0.138354 0.955901
0.366461 0.117327 0.956985
0.777905 0.012238 0.949844
1.000000 0.000000 0.949386
1.000000 0.000000 0.958526
1.000000 0.085450 0.976242
1.000000 0.214420 0.995102
0.000000 0.579828 0.879469
0.000000 0.622904 0.905531
0.000000 0.648051 0.920180
0.000000 0.644862 0.919661
0.667567 0.620111 0.909041
0.944152 0.603433 0.902953
1.000000 0.607065 0.906126
1.000000 0.633997 0.919402
1.000000 0.670207 0.935760
0.000000 0.877653 0.863645
0.000000 0.899489 0.885191
0.000000 0.907485 0.893889
0.000000 0.898161 0.887144
0.545403 0.876432 0.870924
0.860151 0.860151 0.860151
0.994934 0.856062 0.859190
1.000000 0.865385 0.869474
1.000000 0.878676 0.882795
0.000000 1.000000 0.874739
0.000000 1.000000 0.890532
0.000000 1.000000 0.894728
0.000000 1.000000 0.882902
0.490913 0.994064 0.860197
0.816403 0.977981 0.842206
0.952193 0.969467 0.833661
1.000000 0.969375 0.837400
1.000000 0.971603 0.844129
0.000000 1.000000 0.917845
0.000000 1.000000 0.926101
0.000000 1.000000 0.923308
0.000000 1.000000 0.904479
0.521126 1.000000 0.875364
0.815900 1.000000 0.849485
0.939864 1.000000 0.832258
0.986557 1.000000 0.827497
1.000000 1.000000 0.827695
0.000000 1.000000 0.955520
0.000000 1.000000 0.956130
0.000000 1.000000 0.946990
0.000000 1.000000 0.922637
0.550088 1.000000 0.886381
0.818006 1.000000 0.853864
0.933989 1.000000 0.831678
0.979156 1.000000 0.824186
1.000000 1.000000 0.823011
0.000000 0.000000 1.000000
0.000000 0.000000 1.000000
0.000000 0.000000 1.000000
0.358938 0.000000 1.000000
0.686748 0.000000 1.000000
0.940475 0.000000 0.994522
1.000000 0.000000 0.989990
1.000000 0.000000 1.000000
1.000000 0.000000 1.000000
0.000000 0.000000 1.000000
0.000000 0.000000 1.000000
0.042374 0.000000 1.000000
0.408087 0.000000 1.000000
0.751156 0.000000 1.000000
1.000000 0.000000 1.000000
1.000000 0.000000 1.000000
1.000000 0.000000 1.000000
1.000000 0.000000 1.000000
0.000000 0.000000 1.000000
0.000000 0.000000 1.000000
0.002731 0.000000 1.000000
0.435248 0.000000 1.000000
0.801236 0.000000 1.000000
1.000000 0.000000 1.000000
1.000000 0.000000 1.000000
1.000000 0.000000 1.000000
1.000000 0.000000 1.000000
0.000000 0.000000 1.000000
0.000000 0.000000 1.000000
0.000000 0.000000 1.000000
0.365576 0.000000 1.000000
0.781506 0.000000 1.000000
1.000000 0.000000 1.000000
1.000000 0.000000 1.000000
1.000000 0.000000 1.000000
1.000000 0.151675 1.000000
0.000000 0.547372 1.000000
0.000000 0.596643 1.000000
0.000000 0.624125 1.000000
0.000000 0.619913 1.000000
0.667842 0.592508 1.000000
0.942931 0.573892 1.000000
1.000000 0.577630 1.000000
1.000000 0.607874 1.000000
1.000000 0.647227 1.000000
0.000000 0.857496 0.983856
0.000000 0.880446 0.994751
0.000000 0.888792 0.998428
0.000000 0.878569 0.993286
0.542870 0.855192 0.981689
0.857466 0.837613 0.972854
0.991684 0.832837 0.970214
1.000000 0.842847 0.974441
1.000000 0.857084 0.980514
0.000000 0.996918 0.981201
0.000000 1.000000 0.989212
0.000000 1.000000 0.990463
0.000000 0.994842 0.982437
0.483238 0.974441 0.966964
0.810727 0.956817 0.954040
0.947463 0.947463 0.947463
0.998077 0.947311 0.948394
1.000000 0.949569 0.951141
0.000000 1.000000 1.000000
0.000000 1.000000 1.000000
0.000000 1.000000 1.000000
0.000000 1.000000 0.989502
0.507118 1.000000 0.970504
0.807080 1.000000 0.953429
0.933318 0.991348 0.942077
0.981064 0.987610 0.938506
1.000000 0.986526 0.938048
0.000000 1.000000 1.000000
0.000000 1.000000 1.000000
0.000000 1.000000 1.000000
0.000000 1.000000 0.998077
0.530465 1.000000 0.974640
0.806332 1.000000 0.953460
0.926589 1.000000 0.939620
0.973175 1.000000 0.934752
0.997177 1.000000 0.933867
0.000000 0.000000 1.000000
0.000000 0.000000 1.000000
0.000000 0.000000 1.000000
0.357198 0.000000 1.000000
0.688823 0.000000 1.000000
0.943664 0.000000 1.000000
1.000000 0.000000 1.000000
1.000000 0.000000 1.000000
1.000000 0.000000 1.000000
0.000000 0.000000 1.000000
0.000000 0.000000 1.000000
0.040116 0.000000 1.000000
0.413169 0.000000 1.000000
0.758526 0.000000 1.000000
1.000000 0.000000 1.000000
1.000000 0.000000 1.000000
1.000000 0.000000 1.000000
1.000000 0.000000 1.000000
0.000000 0.000000 1.000000
0.000000 0.000000 1.000000
0.004517 0.000000 1.000000
0.445228 0.000000 1.000000
0.813077 0.000000 1.000000
1.000000 0.000000 1.000000
1.000000 0.000000 1.000000
1.000000 0.000000 1.000000
1.000000 0.000000 1.000000
0.000000 0.000000 1.000000
0.000000 0.000000 1.000000
0.000000 0.000000 1.000000
0.377066 0.000000 1.000000
0.793271 0.000000 1.000000
1.000000 0.000000 1.000000
1.000000 0.000000 1.000000
1.000000 0.000000 1.000000
1.000000 0.171786 1.000000
0.000000 0.548699 1.000000
0.000000 0.600137 1.000000
0.000000 0.627588 1.000000
0.000000 0.621637 1.000000
0.676295 0.592493 1.000000
0.946731 0.573129 1.000000
1.000000 0.576883 1.000000
1.000000 0.607874 1.000000
1.000000 0.647593 1.000000
0.000000 0.856901 1.000000
0.000000 0.879240 1.000000
0.000000 0.887022 1.000000
0.000000 0.876341 1.000000
0.551339 0.852049 1.000000
0.860609 0.833539 1.000000
0.992096 0.828367 1.000000
1.000000 0.837949 1.000000
1.000000 0.851987 1.000000
0.000000 0.993103 1.000000
0.000000 1.000000 1.000000
0.000000 1.000000 1.000000
0.000000 0.990036 1.000000
0.489067 0.968658 1.000000
0.812009 0.950134 0.994827
0.946990 0.940154 0.989075
0.996963 0.939559 0.988785
1.000000 0.941588 0.989990
0.000000 1.000000 1.000000
0.000000 1.000000 1.000000
0.000000 1.000000 1.000000
0.000000 1.000000 1.000000
0.505699 1.000000 1.000000
0.804959 0.994537 0.991012
0.931243 0.983169 0.982132
0.979126 0.979126 0.979126
1.000000 0.977935 0.978469
0.000000 1.000000 1.000000
0.000000 1.000000 1.000000
0.000000 1.000000 1.000000
0.000000 1.000000 1.000000
0.524010 1.000000 1.000000
0.802350 1.000000 0.989456
0.923934 1.000000 0.979019
0.970962 0.999802 0.975250
0.995285 0.998520 0.974472
0.000000 0.000000 1.000000
0.000000 0.000000 1.000000
0.000000 0.000000 1.000000
0.361837 0.000000 1.000000
0.696239 0.000000 1.000000
0.950942 0.000000 1.000000
1.000000 0.000000 1.000000
1.000000 0.000000 1.000000
1.000000 0.000000 1.000000
0.000000 0.000000 1.000000
0.000000 0.000000 1.000000
0.051270 0.000000 1.000000
0.424521 0.000000 1.000000
0.771344 0.000000 1.000000
1.000000 0.000000 1.000000
1.000000 0.000000 1.000000
1.000000 0.000000 1.000000
1.000000 0.000000 1.000000
0.000000 0.000000 1.000000
0.000000 0.000000 1.000000
0.018662 0.000000 1.000000
0.460594 0.000000 1.000000
0.828656 0.000000 1.000000
1.000000 0.000000 1.000000
1.000000 0.000000 1.000000
1.000000 0.000000 1.000000
1.000000 0.000000 1.000000
0.000000 0.000000 1.000000
0.000000 0.000000 1.000000
0.000000 0.016892 1.000000
0.394339 0.000000 1.000000
0.808179 0.000000 1.000000
1.000000 0.000000 1.000000
1.000000 0.000000 1.000000
1.000000 0.048539 1.000000
1.000000 0.215457 1.000000
0.000000 0.562936 1.000000
0.000000 0.614191 1.000000
0.000000 0.641123 1.000000
0.025238 0.634379 1.000000
0.687816 0.602884 1.000000
0.952224 0.583246 1.000000
1.000000 0.587900 1.000000
1.000000 0.620401 1.000000
1.000000 0.660929 1.000000
0.000000 0.863050 1.000000
0.000000 0.884688 1.000000
0.000000 0.892439 1.000000
0.000000 0.880919 1.000000
0.563699 0.855070 1.000000
0.865904 0.836011 1.000000
0.993729 0.830396 1.000000
1.000000 0.840040 1.000000
1.000000 0.854292 1.000000
0.000000 0.994980 1.000000
0.000000 1.000000 1.000000
0.000000 1.000000 1.000000
0.000000 0.991028 1.000000
0.499657 0.967880 1.000000
0.815946 0.948486 1.000000
0.948150 0.938033 1.000000
0.996963 0.936812 1.000000
1.000000 0.938399 1.000000
0.000000 1.000000 1.000000
0.000000 1.000000 1.000000
0.000000 1.000000 1.000000
0.000000 1.000000 1.000000
0.510033 1.000000 1.000000
0.805600 0.991318 1.000000
0.930877 0.979461 1.000000
0.978469 0.975143 0.999176
1.000000 0.973922 0.998474
0.000000 1.000000 1.000000
0.000000 1.000000 1.000000
0.000000 1.000000 1.000000
0.000000 1.000000 1.000000
0.524056 1.000000 1.000000
0.801556 1.000000 1.000000
0.923140 1.000000 0.998505
0.970245 0.995865 0.995346
0.994553 0.994553 0.994553
