MEDT/Pirringer/Unterricht/2025-02-26/Korrektur und Grading FootageFotos-20250226T115430Z-001/Korrektur und Grading FootageFotos/Bounce Color True Basic Log Conversion LUTs/Monitor LUTs 17x17/Canon C-Log to Rec.709 LUT.cube
# Converted by Briz LUT Converter
LUT_3D_SIZE 9
0.000000 0.000000 0.000000
0.190936 0.000000 0.000000
0.454734 0.000000 0.000000
0.668269 0.000000 0.000000
0.861540 0.000000 0.000000
1.000000 0.000000 0.000000
1.000000 0.000000 0.000000
1.000000 0.000000 0.000000
1.000000 0.000000 0.000000
0.000000 0.157855 0.000000
0.132143 0.141222 0.000000
0.430686 0.074296 0.000000
0.652338 0.000000 0.000000
0.849500 0.000000 0.000000
1.000000 0.000000 0.000000
1.000000 0.000000 0.000000
1.000000 0.000000 0.000000
1.000000 0.000000 0.000000
0.000000 0.391546 0.000000
0.000000 0.384237 0.000000
0.342428 0.359762 0.000000
0.598184 0.322683 0.000000
0.809537 0.269520 0.000000
0.988128 0.197192 0.000000
1.000000 0.097826 0.000000
1.000000 0.000000 0.000000
1.000000 0.000000 0.000000
0.000000 0.580713 0.000000
0.000000 0.575830 0.000000
0.158938 0.559838 0.000000
0.512642 0.536675 0.000000
0.749844 0.506050 0.000000
0.940871 0.469947 0.000000
1.000000 0.432639 0.000000
1.000000 0.398947 0.000000
1.000000 0.372045 0.000000
0.000000 0.751949 0.000000
0.000000 0.748241 0.000000
0.000000 0.736187 0.000000
0.378164 0.719020 0.000000
0.666712 0.696803 0.000000
0.877516 0.671427 0.000000
1.000000 0.646189 0.000000
1.000000 0.624369 0.000000
1.000000 0.607645 0.000000
0.000000 0.901503 0.000000
0.000000 0.898466 0.000000
0.000000 0.888624 0.000000
0.126345 0.874693 0.000000
0.560006 0.856825 0.000000
0.801297 0.836667 0.000000
0.974182 0.816922 0.000000
1.000000 0.800076 0.000000
1.000000 0.787320 0.000000
0.000000 1.000000 0.000000
0.000000 1.000000 0.000000
0.000000 1.000000 0.000000
0.000000 0.999161 0.000000
0.433234 0.983780 0.000000
0.720333 0.966537 0.000000
0.910079 0.949737 0.000000
1.000000 0.935500 0.000000
1.000000 0.924788 0.000000
0.000000 1.000000 0.000000
0.000000 1.000000 0.000000
0.000000 1.000000 0.000000
0.000000 1.000000 0.000000
0.288594 1.000000 0.000000
0.644587 1.000000 0.000000
0.852674 1.000000 0.000000
0.990753 1.000000 0.000000
1.000000 1.000000 0.000000
0.000000 1.000000 0.000000
0.000000 1.000000 0.000000
0.000000 1.000000 0.000000
0.000000 1.000000 0.000000
0.105348 1.000000 0.000000
0.581659 1.000000 0.000000
0.807202 1.000000 0.000000
0.952529 1.000000 0.000000
1.000000 1.000000 0.000000
0.000000 0.000000 0.145983
0.181933 0.000000 0.144015
0.450706 0.000000 0.137575
0.665568 0.000000 0.128191
0.859495 0.000000 0.115709
1.000000 0.000000 0.100816
1.000000 0.000000 0.085222
1.000000 0.000000 0.071015
1.000000 0.000000 0.060624
0.000000 0.134005 0.109621
0.120089 0.115068 0.107210
0.426429 0.039658 0.099275
0.649577 0.000000 0.087495
0.847425 0.000000 0.071382
1.000000 0.000000 0.053757
1.000000 0.000000 0.036927
1.000000 0.000000 0.022919
1.000000 0.000000 0.012528
0.000000 0.381216 0.000000
0.000000 0.373693 0.000000
0.337087 0.348516 0.000000
0.595163 0.310170 0.000000
0.807340 0.254688 0.000000
0.986374 0.177493 0.000000
1.000000 0.063844 0.000000
1.000000 0.000000 0.000000
1.000000 0.000000 0.000000
0.000000 0.573831 0.000000
0.000000 0.568872 0.000000
0.148470 0.552666 0.000000
0.509071 0.529183 0.000000
0.747463 0.498085 0.000000
0.939010 0.461341 0.000000
1.000000 0.423285 0.000000
1.000000 0.388800 0.000000
1.000000 0.361166 0.000000
0.000000 0.746715 0.000000
0.000000 0.742977 0.000000
0.000000 0.730846 0.000000
0.373327 0.713527 0.000000
0.664012 0.691127 0.000000
0.875502 0.665507 0.000000
1.000000 0.640040 0.000000
1.000000 0.617975 0.000000
1.000000 0.601068 0.000000
0.000000 0.897215 0.000000
0.000000 0.894163 0.000000
0.000000 0.884276 0.000000
0.113893 0.870253 0.000000
0.556756 0.852308 0.000000
0.799084 0.832029 0.000000
0.972381 0.812146 0.000000
1.000000 0.795193 0.000000
1.000000 0.782361 0.000000
0.000000 1.000000 0.000000
0.000000 1.000000 0.000000
0.000000 1.000000 0.000000
0.000000 0.995331 0.000000
0.429007 0.979904 0.000000
0.717845 0.962570 0.000000
0.908156 0.945693 0.000000
1.000000 0.931395 0.000000
1.000000 0.920623 0.000000
0.000000 1.000000 0.000000
0.000000 1.000000 0.000000
0.000000 1.000000 0.000000
0.000000 1.000000 0.000000
0.282322 1.000000 0.000000
0.641779 1.000000 0.000000
0.850599 1.000000 0.000000
0.988998 1.000000 0.000000
1.000000 1.000000 0.000000
0.000000 1.000000 0.000000
0.000000 1.000000 0.000000
0.000000 1.000000 0.000000
0.000000 1.000000 0.000000
0.091203 1.000000 0.000000
0.578531 1.000000 0.000000
0.804990 1.000000 0.000000
0.950683 1.000000 0.000000
1.000000 1.000000 0.000000
0.000000 0.000000 0.368856
0.150240 0.000000 0.367971
0.437522 0.000000 0.365103
0.656825 0.000000 0.361074
0.852872 0.000000 0.355947
1.000000 0.000000 0.350210
1.000000 0.000000 0.344640
1.000000 0.000000 0.339940
1.000000 0.000000 0.336431
0.000000 0.032044 0.353552
0.074266 0.007431 0.352621
0.412467 0.000000 0.349630
0.640604 0.000000 0.345418
0.840711 0.000000 0.340063
1.000000 0.000000 0.334066
1.000000 0.000000 0.328252
1.000000 0.000000 0.323339
1.000000 0.000000 0.319646
0.000000 0.345998 0.299413
0.000000 0.337743 0.298329
0.319402 0.309819 0.294835
0.585306 0.266423 0.289891
0.800244 0.200855 0.283574
0.980697 0.097688 0.276448
1.000000 0.000000 0.269505
1.000000 0.000000 0.263584
1.000000 0.000000 0.259129
0.000000 0.551080 0.203738
0.000000 0.545922 0.202228
0.110475 0.528984 0.197299
0.497459 0.504372 0.190249
0.739757 0.471595 0.181094
0.933013 0.432593 0.170550
1.000000 0.391775 0.159991
1.000000 0.354314 0.150790
1.000000 0.323888 0.143679
0.000000 0.729656 0.000000
0.000000 0.725826 0.000000
0.000000 0.713375 0.000000
0.357351 0.695598 0.000000
0.655253 0.672557 0.000000
0.869017 0.646159 0.000000
1.000000 0.619837 0.000000
1.000000 0.596994 0.000000
1.000000 0.579446 0.000000
0.000000 0.883314 0.000000
0.000000 0.880201 0.000000
0.000000 0.870130 0.000000
0.066545 0.855863 0.000000
0.546181 0.837583 0.000000
0.791913 0.816892 0.000000
0.966613 0.796613 0.000000
1.000000 0.779278 0.000000
1.000000 0.766155 0.000000
0.000000 1.000000 0.000000
0.000000 1.000000 0.000000
0.000000 0.995239 0.000000
0.000000 0.982956 0.000000
0.415137 0.967300 0.000000
0.709789 0.949722 0.000000
0.901930 0.932586 0.000000
1.000000 0.918059 0.000000
1.000000 0.907103 0.000000
0.000000 1.000000 0.000000
0.000000 1.000000 0.000000
0.000000 1.000000 0.000000
0.000000 1.000000 0.000000
0.261295 1.000000 0.000000
0.632685 1.000000 0.000000
0.843915 1.000000 0.000000
0.983337 1.000000 0.000000
1.000000 1.000000 0.000000
0.000000 1.000000 0.000000
0.000000 1.000000 0.000000
0.000000 1.000000 0.000000
0.000000 1.000000 0.000000
0.040558 1.000000 0.000000
0.568368 1.000000 0.000000
0.797894 1.000000 0.000000
0.944778 1.000000 0.000000
1.000000 1.000000 0.000000
0.000000 0.000000 0.549279
0.095262 0.000000 0.548684
0.418418 0.000000 0.546777
0.644404 0.000000 0.544076
0.843549 0.000000 0.540688
1.000000 0.000000 0.536919
1.000000 0.000000 0.533303
1.000000 0.000000 0.530266
1.000000 0.000000 0.527993
0.000000 0.000000 0.539101
0.003494 0.000000 0.538506
0.392172 0.000000 0.536538
0.627848 0.000000 0.533806
0.831235 0.000000 0.530343
1.000000 0.000000 0.526497
1.000000 0.000000 0.522805
1.000000 0.000000 0.519707
1.000000 0.000000 0.517388
0.000000 0.290242 0.505013
0.000000 0.280476 0.504356
0.293080 0.246799 0.502266
0.571252 0.191669 0.499336
0.790249 0.095293 0.495613
0.972717 0.000000 0.491493
1.000000 0.000000 0.487526
1.000000 0.000000 0.484199
1.000000 0.000000 0.481712
0.000000 0.517601 0.453040
0.000000 0.512093 0.452323
0.042344 0.493965 0.449989
0.480751 0.467475 0.446708
0.728847 0.431891 0.442542
0.924575 0.388952 0.437919
1.000000 0.343130 0.433463
1.000000 0.300008 0.429709
1.000000 0.263905 0.426917
0.000000 0.705119 0.377813
0.000000 0.701137 0.376944
0.000000 0.688212 0.374151
0.333852 0.669718 0.370199
0.642802 0.645701 0.365194
0.859892 0.618067 0.359594
1.000000 0.590433 0.354177
1.000000 0.566339 0.349599
1.000000 0.547768 0.346181
0.000000 0.863493 0.272984
0.000000 0.860304 0.271809
0.000000 0.849973 0.268009
0.000000 0.835340 0.262608
0.531044 0.816541 0.255680
0.781796 0.795254 0.247868
0.958511 0.774350 0.240192
1.000000 0.756466 0.233631
1.000000 0.742916 0.228672
0.000000 0.989502 0.116457
0.000000 0.986770 0.114153
0.000000 0.977905 0.106538
0.000000 0.965393 0.095293
0.394965 0.949416 0.079698
0.698375 0.931456 0.062074
0.893172 0.913939 0.045243
1.000000 0.899077 0.031235
1.000000 0.887877 0.020859
0.000000 1.000000 0.000000
0.000000 1.000000 0.000000
0.000000 1.000000 0.000000
0.000000 1.000000 0.000000
0.229160 1.000000 0.000000
0.619760 1.000000 0.000000
0.834470 1.000000 0.000000
0.975372 1.000000 0.000000
1.000000 0.991165 0.000000
0.000000 1.000000 0.000000
0.000000 1.000000 0.000000
0.000000 1.000000 0.000000
0.000000 1.000000 0.000000
0.000000 1.000000 0.000000
0.553872 1.000000 0.000000
0.787854 1.000000 0.000000
0.936446 1.000000 0.000000
1.000000 1.000000 0.000000
0.000000 0.000000 0.712581
0.006790 0.000000 0.712139
0.393133 0.000000 0.710674
0.628443 0.000000 0.708644
0.831678 0.000000 0.706081
1.000000 0.000000 0.703243
1.000000 0.000000 0.700511
1.000000 0.000000 0.698238
1.000000 0.000000 0.696544
0.000000 0.000000 0.704890
0.000000 0.000000 0.704433
0.365118 0.000000 0.702953
0.611429 0.000000 0.700893
0.819165 0.000000 0.698299
0.995880 0.000000 0.695430
1.000000 0.000000 0.692668
1.000000 0.000000 0.690364
1.000000 0.000000 0.688655
0.000000 0.202014 0.679515
0.000000 0.188479 0.679042
0.256596 0.138506 0.677516
0.553063 0.039200 0.675364
0.777478 0.000000 0.672663
0.962585 0.000000 0.669673
1.000000 0.000000 0.666804
1.000000 0.000000 0.664408
1.000000 0.000000 0.662623
0.000000 0.472129 0.642329
0.000000 0.466072 0.641825
0.000000 0.446052 0.640192
0.458915 0.416510 0.637919
0.714885 0.376181 0.635050
0.913848 0.326253 0.631861
1.000000 0.270741 0.628809
1.000000 0.215228 0.626261
1.000000 0.164630 0.624353
0.000000 0.672938 0.592111
0.000000 0.668757 0.591562
0.000000 0.655146 0.589792
0.301915 0.635615 0.587304
0.626795 0.610178 0.584161
0.848264 0.580774 0.580697
1.000000 0.551171 0.577356
1.000000 0.525216 0.574563
1.000000 0.505074 0.572488
0.000000 0.837873 0.531029
0.000000 0.834577 0.530419
0.000000 0.823896 0.528435
0.000000 0.808728 0.525643
0.511391 0.789242 0.522133
0.768872 0.767147 0.518227
0.948211 0.745388 0.514458
1.000000 0.726726 0.511315
1.000000 0.712551 0.508965
0.000000 0.967544 0.465049
0.000000 0.964736 0.464347
0.000000 0.955657 0.462074
0.000000 0.942809 0.458869
0.368124 0.926390 0.454826
0.683742 0.907927 0.450324
0.882017 0.889906 0.445991
1.000000 0.874601 0.442344
1.000000 0.863050 0.439628
0.000000 1.000000 0.401877
0.000000 1.000000 0.401068
0.000000 1.000000 0.398428
0.000000 1.000000 0.394720
0.182330 1.000000 0.390021
0.603113 1.000000 0.384771
0.822446 0.992966 0.379705
0.965286 0.979431 0.375433
1.000000 0.969253 0.372229
0.000000 1.000000 0.347860
0.000000 1.000000 0.346929
0.000000 1.000000 0.343893
0.000000 1.000000 0.339620
0.000000 1.000000 0.334173
0.535088 1.000000 0.328084
0.775036 1.000000 0.322148
0.925872 1.000000 0.317143
1.000000 1.000000 0.313390
0.000000 0.000000 0.855222
0.000000 0.000000 0.854856
0.363302 0.000000 0.853666
0.610346 0.000000 0.852003
0.818372 0.000000 0.849897
0.995254 0.000000 0.847578
1.000000 0.000000 0.845350
1.000000 0.000000 0.843488
1.000000 0.000000 0.842115
0.000000 0.000000 0.848920
0.000000 0.000000 0.848554
0.332891 0.000000 0.847349
0.592782 0.000000 0.845655
0.805631 0.000000 0.843549
0.985000 0.000000 0.841199
1.000000 0.000000 0.838956
1.000000 0.000000 0.837095
1.000000 0.000000 0.835706
0.000000 0.038270 0.828305
0.000000 0.013657 0.827924
0.210178 0.000000 0.826688
0.532296 0.000000 0.824964
0.763149 0.000000 0.822782
0.951278 0.000000 0.820371
1.000000 0.000000 0.818067
1.000000 0.000000 0.816144
1.000000 0.000000 0.814725
0.000000 0.416251 0.798566
0.000000 0.409369 0.798169
0.000000 0.386450 0.796872
0.433555 0.352056 0.795087
0.699168 0.303685 0.792813
0.901869 0.240467 0.790311
1.000000 0.162341 0.787915
1.000000 0.063615 0.785901
1.000000 0.000000 0.784421
0.000000 0.635447 0.759411
0.000000 0.631006 0.758984
0.000000 0.616510 0.757626
0.262669 0.595651 0.755734
0.608652 0.568322 0.753338
0.835248 0.536538 0.750683
1.000000 0.504250 0.748150
1.000000 0.475670 0.746029
1.000000 0.453300 0.744457
0.000000 0.808606 0.713573
0.000000 0.805173 0.713130
0.000000 0.794064 0.711666
0.000000 0.778271 0.709636
0.488792 0.757931 0.707073
0.754360 0.734813 0.704234
0.936706 0.711986 0.701518
1.000000 0.692363 0.699245
1.000000 0.677424 0.697566
0.000000 0.942702 0.666651
0.000000 0.939803 0.666163
0.000000 0.930449 0.664607
0.000000 0.917205 0.662409
0.336172 0.900282 0.659648
0.667247 0.881209 0.656596
0.869566 0.862577 0.653666
1.000000 0.846723 0.651225
1.000000 0.834745 0.649393
0.000000 1.000000 0.624720
0.000000 1.000000 0.624201
0.000000 1.000000 0.622522
0.000000 1.000000 0.620188
0.116060 1.000000 0.617227
0.584192 0.985275 0.613947
0.808988 0.968841 0.610803
0.954009 0.954925 0.608164
1.000000 0.944442 0.606210
0.000000 1.000000 0.591608
0.000000 1.000000 0.591058
0.000000 1.000000 0.589273
0.000000 1.000000 0.586786
0.000000 1.000000 0.583658
0.513558 1.000000 0.580179
0.760662 1.000000 0.576837
0.914076 1.000000 0.574044
1.000000 1.000000 0.571954
0.000000 0.000000 0.970535
0.000000 0.000000 0.970214
0.332433 0.000000 0.969177
0.592523 0.000000 0.967727
0.805447 0.000000 0.965896
0.984863 0.000000 0.963882
1.000000 0.000000 0.961944
1.000000 0.000000 0.960342
1.000000 0.000000 0.959152
0.000000 0.000000 0.965057
0.000000 0.000000 0.964721
0.299107 0.000000 0.963684
0.574395 0.000000 0.962219
0.792477 0.000000 0.960388
0.974487 0.000000 0.958358
1.000000 0.000000 0.956420
1.000000 0.000000 0.954803
1.000000 0.000000 0.953597
0.000000 0.000000 0.947204
0.000000 0.000000 0.946868
0.156054 0.000000 0.945815
0.511650 0.000000 0.944320
0.749187 0.000000 0.942443
0.940352 0.000000 0.940368
1.000000 0.000000 0.938384
1.000000 0.000000 0.936736
1.000000 0.000000 0.935500
0.000000 0.354910 0.921660
0.000000 0.346853 0.921324
0.000000 0.319677 0.920226
0.407889 0.277684 0.918685
0.683803 0.215045 0.916747
0.890272 0.120516 0.914611
1.000000 0.000000 0.912566
1.000000 0.000000 0.910872
1.000000 0.000000 0.909606
0.000000 0.597345 0.888426
0.000000 0.592599 0.888075
0.000000 0.577096 0.886931
0.219577 0.554681 0.885328
0.590768 0.525139 0.883314
0.822599 0.490471 0.881086
0.991440 0.454856 0.878965
1.000000 0.422934 0.877180
1.000000 0.397620 0.875868
0.000000 0.779553 0.850156
0.000000 0.775982 0.849790
0.000000 0.764416 0.848585
0.000000 0.747936 0.846906
0.466194 0.726680 0.844785
0.740215 0.702449 0.842451
0.925582 0.678447 0.840208
1.000000 0.657755 0.838346
1.000000 0.641947 0.836957
0.000000 0.918273 0.811765
0.000000 0.915297 0.811368
0.000000 0.905653 0.810101
0.000000 0.892012 0.808347
0.302724 0.874556 0.806119
0.651057 0.854856 0.803662
0.857481 0.835569 0.801297
0.994827 0.819135 0.799329
1.000000 0.806714 0.797864
0.000000 1.000000 0.778225
0.000000 1.000000 0.777813
0.000000 1.000000 0.776501
0.000000 0.994842 0.774639
0.026413 0.979385 0.772305
0.565499 0.962051 0.769741
0.795895 0.945159 0.767269
0.943114 0.930846 0.765209
1.000000 0.920073 0.763668
0.000000 1.000000 0.752316
0.000000 1.000000 0.751888
0.000000 1.000000 0.750515
0.000000 1.000000 0.748592
0.000000 1.000000 0.746166
0.492103 1.000000 0.743496
0.746639 1.000000 0.740932
0.902647 1.000000 0.738796
1.000000 0.995087 0.737194
0.000000 0.000000 1.000000
0.000000 0.000000 1.000000
0.304509 0.000000 1.000000
0.577249 0.000000 1.000000
0.794507 0.000000 1.000000
0.976120 0.000000 1.000000
1.000000 0.000000 1.000000
1.000000 0.000000 1.000000
1.000000 0.000000 1.000000
0.000000 0.000000 1.000000
0.000000 0.000000 1.000000
0.268040 0.000000 1.000000
0.558602 0.000000 1.000000
0.781338 0.000000 1.000000
0.965637 0.000000 1.000000
1.000000 0.000000 1.000000
1.000000 0.000000 1.000000
1.000000 0.000000 1.000000
0.000000 0.000000 1.000000
0.000000 0.000000 1.000000
0.096803 0.000000 1.000000
0.493782 0.000000 1.000000
0.737346 0.000000 1.000000
0.931136 0.000000 1.000000
1.000000 0.000000 1.000000
1.000000 0.000000 1.000000
1.000000 0.000000 1.000000
0.000000 0.294774 1.000000
0.000000 0.285161 1.000000
0.000000 0.252033 1.000000
0.385260 0.198108 1.000000
0.670710 0.105638 1.000000
0.880476 0.000000 1.000000
1.000000 0.000000 1.000000
1.000000 0.000000 1.000000
1.000000 0.000000 1.000000
0.000000 0.563561 0.981888
0.000000 0.558526 0.981567
0.000000 0.541985 0.980545
0.177340 0.518013 0.979110
0.575448 0.486183 0.977310
0.811917 0.448447 0.975326
0.982773 0.409201 0.973419
1.000000 0.373449 0.971832
1.000000 0.344625 0.970657
0.000000 0.754437 0.947768
0.000000 0.750744 0.947448
0.000000 0.738735 0.946380
0.000000 0.721630 0.944884
0.446479 0.699504 0.943008
0.728222 0.674235 0.940948
0.916213 0.649119 0.938964
1.000000 0.627390 0.937301
1.000000 0.610758 0.936080
0.000000 0.897383 0.913878
0.000000 0.894331 0.913527
0.000000 0.884443 0.912428
0.000000 0.870436 0.910872
0.272038 0.852476 0.908919
0.637263 0.832197 0.906767
0.847272 0.812329 0.904707
0.986175 0.795377 0.902983
1.000000 0.782544 0.901701
0.000000 0.999603 0.884565
0.000000 0.996887 0.884215
0.000000 0.988128 0.883070
0.000000 0.975753 0.881453
0.000000 0.959960 0.879438
0.549447 0.942229 0.877195
0.784817 0.924941 0.875059
0.933944 0.910277 0.873274
1.000000 0.899229 0.871946
0.000000 1.000000 0.862135
0.000000 1.000000 0.861769
0.000000 1.000000 0.860578
0.000000 1.000000 0.858930
0.000000 1.000000 0.856840
0.473487 1.000000 0.854536
0.734752 0.999542 0.852338
0.893004 0.986099 0.850507
0.992874 0.975998 0.849134
0.000000 0.000000 1.000000
0.000000 0.000000 1.000000
0.282185 0.000000 1.000000
0.565652 0.000000 1.000000
0.786297 0.000000 1.000000
0.969573 0.000000 1.000000
1.000000 0.000000 1.000000
1.000000 0.000000 1.000000
1.000000 0.000000 1.000000
0.000000 0.000000 1.000000
0.000000 0.000000 1.000000
0.242756 0.000000 1.000000
0.546593 0.000000 1.000000
0.772976 0.000000 1.000000
0.959030 0.000000 1.000000
1.000000 0.000000 1.000000
1.000000 0.000000 1.000000
1.000000 0.000000 1.000000
0.000000 0.000000 1.000000
0.000000 0.000000 1.000000
0.039643 0.000000 1.000000
0.480110 0.000000 1.000000
0.728420 0.000000 1.000000
0.924254 0.000000 1.000000
1.000000 0.000000 1.000000
1.000000 0.000000 1.000000
1.000000 0.000000 1.000000
0.000000 0.241642 1.000000
0.000000 0.230091 1.000000
0.000000 0.189059 1.000000
0.367590 0.115541 1.000000
0.660838 0.000000 1.000000
0.873152 0.000000 1.000000
1.000000 0.000000 1.000000
1.000000 0.000000 1.000000
1.000000 0.000000 1.000000
0.000000 0.537087 1.000000
0.000000 0.531777 1.000000
0.000000 0.514366 1.000000
0.140002 0.488991 1.000000
0.563806 0.455100 1.000000
0.803906 0.414557 1.000000
0.976272 0.371801 1.000000
1.000000 0.332204 1.000000
1.000000 0.299687 1.000000
0.000000 0.735210 1.000000
0.000000 0.731411 1.000000
0.000000 0.719066 1.000000
0.000000 0.701442 1.000000
0.431296 0.678614 1.000000
0.719188 0.652461 1.000000
0.909194 0.626429 1.000000
1.000000 0.603845 1.000000
1.000000 0.586511 1.000000
0.000000 0.881544 0.982147
0.000000 0.878416 0.981826
0.000000 0.868330 0.980804
0.000000 0.854032 0.979370
0.247105 0.835691 0.977569
0.626825 0.814969 0.975586
0.839612 0.794629 0.973678
0.979721 0.777249 0.972091
1.000000 0.764080 0.970916
0.000000 0.985565 0.955154
0.000000 0.982803 0.954818
0.000000 0.973907 0.953765
0.000000 0.961334 0.952285
0.000000 0.945281 0.950439
0.537224 0.927230 0.948379
0.776486 0.909621 0.946426
0.927062 0.894682 0.944778
1.000000 0.883421 0.943557
0.000000 1.000000 0.934569
0.000000 1.000000 0.934234
0.000000 1.000000 0.933150
0.000000 1.000000 0.931640
0.000000 1.000000 0.929747
0.459205 1.000000 0.927642
0.725811 0.985504 0.925628
0.885786 0.971847 0.923949
0.986450 0.961593 0.922698
