MEDT/Pirringer/Unterricht/2025-02-26/Korrektur und Grading FootageFotos-20250226T115430Z-001/Korrektur und Grading FootageFotos/Bounce Color True Basic Log Conversion LUTs/Monitor LUTs 17x17/Canon C-Log to Rec.709 LUT.cube
# Converted by Briz LUT Converter
LUT_3D_SIZE 17
0.000000 0.000000 0.000000
0.000000 0.000000 0.000000
0.190936 0.000000 0.000000
0.335271 0.000000 0.000000
0.454734 0.000000 0.000000
0.564355 0.000000 0.000000
0.668269 0.000000 0.000000
0.767452 0.000000 0.000000
0.861540 0.000000 0.000000
0.949554 0.000000 0.000000
1.000000 0.000000 0.000000
1.000000 0.000000 0.000000
1.000000 0.000000 0.000000
1.000000 0.000000 0.000000
1.000000 0.000000 0.000000
1.000000 0.000000 0.000000
1.000000 0.000000 0.000000
0.000000 0.000000 0.000000
0.000000 0.000000 0.000000
0.190936 0.000000 0.000000
0.335271 0.000000 0.000000
0.454734 0.000000 0.000000
0.564355 0.000000 0.000000
0.668269 0.000000 0.000000
0.767452 0.000000 0.000000
0.861540 0.000000 0.000000
0.949554 0.000000 0.000000
1.000000 0.000000 0.000000
1.000000 0.000000 0.000000
1.000000 0.000000 0.000000
1.000000 0.000000 0.000000
1.000000 0.000000 0.000000
1.000000 0.000000 0.000000
1.000000 0.000000 0.000000
0.000000 0.157855 0.000000
0.000000 0.157855 0.000000
0.132143 0.141222 0.000000
0.302235 0.114137 0.000000
0.430686 0.074296 0.000000
0.545235 0.023102 0.000000
0.652338 0.000000 0.000000
0.753765 0.000000 0.000000
0.849500 0.000000 0.000000
0.938766 0.000000 0.000000
1.000000 0.000000 0.000000
1.000000 0.000000 0.000000
1.000000 0.000000 0.000000
1.000000 0.000000 0.000000
1.000000 0.000000 0.000000
1.000000 0.000000 0.000000
1.000000 0.000000 0.000000
0.000000 0.285725 0.000000
0.000000 0.285725 0.000000
0.006729 0.275807 0.000000
0.247196 0.260792 0.000000
0.393118 0.241550 0.000000
0.516136 0.216922 0.000000
0.628428 0.185168 0.000000
0.733394 0.143343 0.000000
0.831662 0.084413 0.000000
0.922805 0.008362 0.000000
1.000000 0.000000 0.000000
1.000000 0.000000 0.000000
1.000000 0.000000 0.000000
1.000000 0.000000 0.000000
1.000000 0.000000 0.000000
1.000000 0.000000 0.000000
1.000000 0.000000 0.000000
0.000000 0.391546 0.000000
0.000000 0.391546 0.000000
0.000000 0.384237 0.000000
0.161395 0.373342 0.000000
0.342428 0.359762 0.000000
0.478569 0.343023 0.000000
0.598184 0.322683 0.000000
0.707912 0.298299 0.000000
0.809537 0.269520 0.000000
0.903120 0.235996 0.000000
0.988128 0.197192 0.000000
1.000000 0.152102 0.000000
1.000000 0.097826 0.000000
1.000000 0.034073 0.000000
1.000000 0.000000 0.000000
1.000000 0.000000 0.000000
1.000000 0.000000 0.000000
0.000000 0.488655 0.000000
0.000000 0.488655 0.000000
0.000000 0.482811 0.000000
0.000000 0.474174 0.000000
0.271244 0.463523 0.000000
0.429801 0.450584 0.000000
0.560174 0.435157 0.000000
0.676432 0.417182 0.000000
0.782452 0.396704 0.000000
0.879179 0.374029 0.000000
0.966522 0.349599 0.000000
1.000000 0.324056 0.000000
1.000000 0.298131 0.000000
1.000000 0.272557 0.000000
1.000000 0.248035 0.000000
1.000000 0.225132 0.000000
1.000000 0.204242 0.000000
0.000000 0.580713 0.000000
0.000000 0.580713 0.000000
0.000000 0.575830 0.000000
0.000000 0.568643 0.000000
0.158938 0.559838 0.000000
0.365576 0.549218 0.000000
0.512642 0.536675 0.000000
0.637995 0.522240 0.000000
0.749844 0.506050 0.000000
0.850614 0.488457 0.000000
0.940871 0.469947 0.000000
1.000000 0.451118 0.000000
1.000000 0.432639 0.000000
1.000000 0.415091 0.000000
1.000000 0.398947 0.000000
1.000000 0.384543 0.000000
1.000000 0.372045 0.000000
0.000000 0.668589 0.000000
0.000000 0.668589 0.000000
0.000000 0.664378 0.000000
0.000000 0.658213 0.000000
0.000000 0.650675 0.000000
0.277211 0.641627 0.000000
0.453239 0.631006 0.000000
0.591714 0.618860 0.000000
0.711330 0.605356 0.000000
0.817243 0.590814 0.000000
0.911116 0.575692 0.000000
0.993515 0.560510 0.000000
1.000000 0.545800 0.000000
1.000000 0.532036 0.000000
1.000000 0.519570 0.000000
1.000000 0.508598 0.000000
1.000000 0.499199 0.000000
0.000000 0.751949 0.000000
0.000000 0.751949 0.000000
0.000000 0.748241 0.000000
0.000000 0.742809 0.000000
0.000000 0.736187 0.000000
0.135424 0.728283 0.000000
0.378164 0.719020 0.000000
0.536645 0.708476 0.000000
0.666712 0.696803 0.000000
0.779171 0.684321 0.000000
0.877516 0.671427 0.000000
0.963073 0.658564 0.000000
1.000000 0.646189 0.000000
1.000000 0.634699 0.000000
1.000000 0.624369 0.000000
1.000000 0.615335 0.000000
1.000000 0.607645 0.000000
0.000000 0.829908 0.000000
0.000000 0.829908 0.000000
0.000000 0.826581 0.000000
0.000000 0.821714 0.000000
0.000000 0.815793 0.000000
0.000000 0.808713 0.000000
0.279332 0.800458 0.000000
0.471672 0.791089 0.000000
0.616144 0.780743 0.000000
0.736889 0.769726 0.000000
0.840604 0.758389 0.000000
0.929900 0.747127 0.000000
1.000000 0.736339 0.000000
1.000000 0.726360 0.000000
1.000000 0.717433 0.000000
1.000000 0.709651 0.000000
1.000000 0.703059 0.000000
0.000000 0.901503 0.000000
0.000000 0.901503 0.000000
0.000000 0.898466 0.000000
0.000000 0.894026 0.000000
0.000000 0.888624 0.000000
0.000000 0.882185 0.000000
0.126345 0.874693 0.000000
0.394995 0.866178 0.000000
0.560006 0.856825 0.000000
0.691173 0.846891 0.000000
0.801297 0.836667 0.000000
0.894896 0.826566 0.000000
0.974182 0.816922 0.000000
1.000000 0.808026 0.000000
1.000000 0.800076 0.000000
1.000000 0.793164 0.000000
1.000000 0.787320 0.000000
0.000000 0.965835 0.000000
0.000000 0.965835 0.000000
0.000000 0.963027 0.000000
0.000000 0.958907 0.000000
0.000000 0.953918 0.000000
0.000000 0.947967 0.000000
0.000000 0.941039 0.000000
0.302480 0.933211 0.000000
0.498848 0.924605 0.000000
0.643183 0.915465 0.000000
0.760784 0.906096 0.000000
0.859190 0.896849 0.000000
0.941787 0.888029 0.000000
1.000000 0.879911 0.000000
1.000000 0.872679 0.000000
1.000000 0.866407 0.000000
1.000000 0.861097 0.000000
0.000000 1.000000 0.000000
0.000000 1.000000 0.000000
0.000000 1.000000 0.000000
0.000000 1.000000 0.000000
0.000000 1.000000 0.000000
0.000000 1.000000 0.000000
0.000000 0.999161 0.000000
0.180850 0.991821 0.000000
0.433234 0.983780 0.000000
0.594186 0.975265 0.000000
0.720333 0.966537 0.000000
0.823987 0.957931 0.000000
0.910079 0.949737 0.000000
0.981353 0.942199 0.000000
1.000000 0.935500 0.000000
1.000000 0.929686 0.000000
1.000000 0.924788 0.000000
0.000000 1.000000 0.000000
0.000000 1.000000 0.000000
0.000000 1.000000 0.000000
0.000000 1.000000 0.000000
0.000000 1.000000 0.000000
0.000000 1.000000 0.000000
0.000000 1.000000 0.000000
0.000000 1.000000 0.000000
0.363363 1.000000 0.000000
0.545541 1.000000 0.000000
0.681224 1.000000 0.000000
0.790433 1.000000 0.000000
0.880110 1.000000 0.000000
0.953857 0.995224 0.000000
1.000000 0.988922 0.000000
1.000000 0.983459 0.000000
1.000000 0.978851 0.000000
0.000000 1.000000 0.000000
0.000000 1.000000 0.000000
0.000000 1.000000 0.000000
0.000000 1.000000 0.000000
0.000000 1.000000 0.000000
0.000000 1.000000 0.000000
0.000000 1.000000 0.000000
0.000000 1.000000 0.000000
0.288594 1.000000 0.000000
0.498497 1.000000 0.000000
0.644587 1.000000 0.000000
0.759441 1.000000 0.000000
0.852674 1.000000 0.000000
0.928817 1.000000 0.000000
0.990753 1.000000 0.000000
1.000000 1.000000 0.000000
1.000000 1.000000 0.000000
0.000000 1.000000 0.000000
0.000000 1.000000 0.000000
0.000000 1.000000 0.000000
0.000000 1.000000 0.000000
0.000000 1.000000 0.000000
0.000000 1.000000 0.000000
0.000000 1.000000 0.000000
0.000000 1.000000 0.000000
0.206088 1.000000 0.000000
0.454093 1.000000 0.000000
0.611215 1.000000 0.000000
0.731670 1.000000 0.000000
0.828290 1.000000 0.000000
0.906676 1.000000 0.000000
0.970184 1.000000 0.000000
1.000000 1.000000 0.000000
1.000000 1.000000 0.000000
0.000000 1.000000 0.000000
0.000000 1.000000 0.000000
0.000000 1.000000 0.000000
0.000000 1.000000 0.000000
0.000000 1.000000 0.000000
0.000000 1.000000 0.000000
0.000000 1.000000 0.000000
0.000000 1.000000 0.000000
0.105348 1.000000 0.000000
0.413138 1.000000 0.000000
0.581659 1.000000 0.000000
0.707439 1.000000 0.000000
0.807202 1.000000 0.000000
0.887617 1.000000 0.000000
0.952529 1.000000 0.000000
1.000000 1.000000 0.000000
1.000000 1.000000 0.000000
0.000000 0.000000 0.000000
0.000000 0.000000 0.000000
0.190936 0.000000 0.000000
0.335271 0.000000 0.000000
0.454734 0.000000 0.000000
0.564355 0.000000 0.000000
0.668269 0.000000 0.000000
0.767452 0.000000 0.000000
0.861540 0.000000 0.000000
0.949554 0.000000 0.000000
1.000000 0.000000 0.000000
1.000000 0.000000 0.000000
1.000000 0.000000 0.000000
1.000000 0.000000 0.000000
1.000000 0.000000 0.000000
1.000000 0.000000 0.000000
1.000000 0.000000 0.000000
0.000000 0.000000 0.000000
0.000000 0.000000 0.000000
0.190936 0.000000 0.000000
0.335271 0.000000 0.000000
0.454734 0.000000 0.000000
0.564355 0.000000 0.000000
0.668269 0.000000 0.000000
0.767452 0.000000 0.000000
0.861540 0.000000 0.000000
0.949554 0.000000 0.000000
1.000000 0.000000 0.000000
1.000000 0.000000 0.000000
1.000000 0.000000 0.000000
1.000000 0.000000 0.000000
1.000000 0.000000 0.000000
1.000000 0.000000 0.000000
1.000000 0.000000 0.000000
0.000000 0.157855 0.000000
0.000000 0.157855 0.000000
0.132143 0.141222 0.000000
0.302235 0.114137 0.000000
0.430686 0.074296 0.000000
0.545235 0.023102 0.000000
0.652338 0.000000 0.000000
0.753765 0.000000 0.000000
0.849500 0.000000 0.000000
0.938766 0.000000 0.000000
1.000000 0.000000 0.000000
1.000000 0.000000 0.000000
1.000000 0.000000 0.000000
1.000000 0.000000 0.000000
1.000000 0.000000 0.000000
1.000000 0.000000 0.000000
1.000000 0.000000 0.000000
0.000000 0.285725 0.000000
0.000000 0.285725 0.000000
0.006729 0.275807 0.000000
0.247196 0.260792 0.000000
0.393118 0.241550 0.000000
0.516136 0.216922 0.000000
0.628428 0.185168 0.000000
0.733394 0.143343 0.000000
0.831662 0.084413 0.000000
0.922805 0.008362 0.000000
1.000000 0.000000 0.000000
1.000000 0.000000 0.000000
1.000000 0.000000 0.000000
1.000000 0.000000 0.000000
1.000000 0.000000 0.000000
1.000000 0.000000 0.000000
1.000000 0.000000 0.000000
0.000000 0.391546 0.000000
0.000000 0.391546 0.000000
0.000000 0.384237 0.000000
0.161395 0.373342 0.000000
0.342428 0.359762 0.000000
0.478569 0.343023 0.000000
0.598184 0.322683 0.000000
0.707912 0.298299 0.000000
0.809537 0.269520 0.000000
0.903120 0.235996 0.000000
0.988128 0.197192 0.000000
1.000000 0.152102 0.000000
1.000000 0.097826 0.000000
1.000000 0.034073 0.000000
1.000000 0.000000 0.000000
1.000000 0.000000 0.000000
1.000000 0.000000 0.000000
0.000000 0.488655 0.000000
0.000000 0.488655 0.000000
0.000000 0.482811 0.000000
0.000000 0.474174 0.000000
0.271244 0.463523 0.000000
0.429801 0.450584 0.000000
0.560174 0.435157 0.000000
0.676432 0.417182 0.000000
0.782452 0.396704 0.000000
0.879179 0.374029 0.000000
0.966522 0.349599 0.000000
1.000000 0.324056 0.000000
1.000000 0.298131 0.000000
1.000000 0.272557 0.000000
1.000000 0.248035 0.000000
1.000000 0.225132 0.000000
1.000000 0.204242 0.000000
0.000000 0.580713 0.000000
0.000000 0.580713 0.000000
0.000000 0.575830 0.000000
0.000000 0.568643 0.000000
0.158938 0.559838 0.000000
0.365576 0.549218 0.000000
0.512642 0.536675 0.000000
0.637995 0.522240 0.000000
0.749844 0.506050 0.000000
0.850614 0.488457 0.000000
0.940871 0.469947 0.000000
1.000000 0.451118 0.000000
1.000000 0.432639 0.000000
1.000000 0.415091 0.000000
1.000000 0.398947 0.000000
1.000000 0.384543 0.000000
1.000000 0.372045 0.000000
0.000000 0.668589 0.000000
0.000000 0.668589 0.000000
0.000000 0.664378 0.000000
0.000000 0.658213 0.000000
0.000000 0.650675 0.000000
0.277211 0.641627 0.000000
0.453239 0.631006 0.000000
0.591714 0.618860 0.000000
0.711330 0.605356 0.000000
0.817243 0.590814 0.000000
0.911116 0.575692 0.000000
0.993515 0.560510 0.000000
1.000000 0.545800 0.000000
1.000000 0.532036 0.000000
1.000000 0.519570 0.000000
1.000000 0.508598 0.000000
1.000000 0.499199 0.000000
0.000000 0.751949 0.000000
0.000000 0.751949 0.000000
0.000000 0.748241 0.000000
0.000000 0.742809 0.000000
0.000000 0.736187 0.000000
0.135424 0.728283 0.000000
0.378164 0.719020 0.000000
0.536645 0.708476 0.000000
0.666712 0.696803 0.000000
0.779171 0.684321 0.000000
0.877516 0.671427 0.000000
0.963073 0.658564 0.000000
1.000000 0.646189 0.000000
1.000000 0.634699 0.000000
1.000000 0.624369 0.000000
1.000000 0.615335 0.000000
1.000000 0.607645 0.000000
0.000000 0.829908 0.000000
0.000000 0.829908 0.000000
0.000000 0.826581 0.000000
0.000000 0.821714 0.000000
0.000000 0.815793 0.000000
0.000000 0.808713 0.000000
0.279332 0.800458 0.000000
0.471672 0.791089 0.000000
0.616144 0.780743 0.000000
0.736889 0.769726 0.000000
0.840604 0.758389 0.000000
0.929900 0.747127 0.000000
1.000000 0.736339 0.000000
1.000000 0.726360 0.000000
1.000000 0.717433 0.000000
1.000000 0.709651 0.000000
1.000000 0.703059 0.000000
0.000000 0.901503 0.000000
0.000000 0.901503 0.000000
0.000000 0.898466 0.000000
0.000000 0.894026 0.000000
0.000000 0.888624 0.000000
0.000000 0.882185 0.000000
0.126345 0.874693 0.000000
0.394995 0.866178 0.000000
0.560006 0.856825 0.000000
0.691173 0.846891 0.000000
0.801297 0.836667 0.000000
0.894896 0.826566 0.000000
0.974182 0.816922 0.000000
1.000000 0.808026 0.000000
1.000000 0.800076 0.000000
1.000000 0.793164 0.000000
1.000000 0.787320 0.000000
0.000000 0.965835 0.000000
0.000000 0.965835 0.000000
0.000000 0.963027 0.000000
0.000000 0.958907 0.000000
0.000000 0.953918 0.000000
0.000000 0.947967 0.000000
0.000000 0.941039 0.000000
0.302480 0.933211 0.000000
0.498848 0.924605 0.000000
0.643183 0.915465 0.000000
0.760784 0.906096 0.000000
0.859190 0.896849 0.000000
0.941787 0.888029 0.000000
1.000000 0.879911 0.000000
1.000000 0.872679 0.000000
1.000000 0.866407 0.000000
1.000000 0.861097 0.000000
0.000000 1.000000 0.000000
0.000000 1.000000 0.000000
0.000000 1.000000 0.000000
0.000000 1.000000 0.000000
0.000000 1.000000 0.000000
0.000000 1.000000 0.000000
0.000000 0.999161 0.000000
0.180850 0.991821 0.000000
0.433234 0.983780 0.000000
0.594186 0.975265 0.000000
0.720333 0.966537 0.000000
0.823987 0.957931 0.000000
0.910079 0.949737 0.000000
0.981353 0.942199 0.000000
1.000000 0.935500 0.000000
1.000000 0.929686 0.000000
1.000000 0.924788 0.000000
0.000000 1.000000 0.000000
0.000000 1.000000 0.000000
0.000000 1.000000 0.000000
0.000000 1.000000 0.000000
0.000000 1.000000 0.000000
0.000000 1.000000 0.000000
0.000000 1.000000 0.000000
0.000000 1.000000 0.000000
0.363363 1.000000 0.000000
0.545541 1.000000 0.000000
0.681224 1.000000 0.000000
0.790433 1.000000 0.000000
0.880110 1.000000 0.000000
0.953857 0.995224 0.000000
1.000000 0.988922 0.000000
1.000000 0.983459 0.000000
1.000000 0.978851 0.000000
0.000000 1.000000 0.000000
0.000000 1.000000 0.000000
0.000000 1.000000 0.000000
0.000000 1.000000 0.000000
0.000000 1.000000 0.000000
0.000000 1.000000 0.000000
0.000000 1.000000 0.000000
0.000000 1.000000 0.000000
0.288594 1.000000 0.000000
0.498497 1.000000 0.000000
0.644587 1.000000 0.000000
0.759441 1.000000 0.000000
0.852674 1.000000 0.000000
0.928817 1.000000 0.000000
0.990753 1.000000 0.000000
1.000000 1.000000 0.000000
1.000000 1.000000 0.000000
0.000000 1.000000 0.000000
0.000000 1.000000 0.000000
0.000000 1.000000 0.000000
0.000000 1.000000 0.000000
0.000000 1.000000 0.000000
0.000000 1.000000 0.000000
0.000000 1.000000 0.000000
0.000000 1.000000 0.000000
0.206088 1.000000 0.000000
0.454093 1.000000 0.000000
0.611215 1.000000 0.000000
0.731670 1.000000 0.000000
0.828290 1.000000 0.000000
0.906676 1.000000 0.000000
0.970184 1.000000 0.000000
1.000000 1.000000 0.000000
1.000000 1.000000 0.000000
0.000000 1.000000 0.000000
0.000000 1.000000 0.000000
0.000000 1.000000 0.000000
0.000000 1.000000 0.000000
0.000000 1.000000 0.000000
0.000000 1.000000 0.000000
0.000000 1.000000 0.000000
0.000000 1.000000 0.000000
0.105348 1.000000 0.000000
0.413138 1.000000 0.000000
0.581659 1.000000 0.000000
0.707439 1.000000 0.000000
0.807202 1.000000 0.000000
0.887617 1.000000 0.000000
0.952529 1.000000 0.000000
1.000000 1.000000 0.000000
1.000000 1.000000 0.000000
0.000000 0.000000 0.145983
0.000000 0.000000 0.145983
0.181933 0.000000 0.144015
0.329824 0.000000 0.141115
0.450706 0.000000 0.137575
0.561120 0.000000 0.133272
0.665568 0.000000 0.128191
0.765133 0.000000 0.122316
0.859495 0.000000 0.115709
0.947723 0.000000 0.108476
1.000000 0.000000 0.100816
1.000000 0.000000 0.092989
1.000000 0.000000 0.085222
1.000000 0.000000 0.077592
1.000000 0.000000 0.071015
1.000000 0.000000 0.065370
1.000000 0.000000 0.060624
0.000000 0.000000 0.145983
0.000000 0.000000 0.145983
0.181933 0.000000 0.144015
0.329824 0.000000 0.141115
0.450706 0.000000 0.137575
0.561120 0.000000 0.133272
0.665568 0.000000 0.128191
0.765133 0.000000 0.122316
0.859495 0.000000 0.115709
0.947723 0.000000 0.108476
1.000000 0.000000 0.100816
1.000000 0.000000 0.092989
1.000000 0.000000 0.085222
1.000000 0.000000 0.077592
1.000000 0.000000 0.071015
1.000000 0.000000 0.065370
1.000000 0.000000 0.060624
0.000000 0.134005 0.109621
0.000000 0.134005 0.109621
0.120089 0.115068 0.107210
0.296223 0.083146 0.103670
0.426429 0.039658 0.099275
0.541894 0.000000 0.093919
0.649577 0.000000 0.087495
0.751400 0.000000 0.079713
0.847425 0.000000 0.071382
0.936889 0.000000 0.062623
1.000000 0.000000 0.053757
1.000000 0.000000 0.045090
1.000000 0.000000 0.036927
1.000000 0.000000 0.029480
1.000000 0.000000 0.022919
1.000000 0.000000 0.017273
1.000000 0.000000 0.012528
0.000000 0.271672 0.042145
0.000000 0.271672 0.042145
0.000000 0.261280 0.039292
0.239979 0.245487 0.035172
0.388449 0.225132 0.030167
0.512596 0.198810 0.024262
0.625559 0.164340 0.017441
0.730953 0.117510 0.009766
0.829541 0.049546 0.001434
0.920913 0.000000 0.000000
1.000000 0.000000 0.000000
1.000000 0.000000 0.000000
1.000000 0.000000 0.000000
1.000000 0.000000 0.000000
1.000000 0.000000 0.000000
1.000000 0.000000 0.000000
1.000000 0.000000 0.000000
0.000000 0.381216 0.000000
0.000000 0.381216 0.000000
0.000000 0.373693 0.000000
0.151049 0.362509 0.000000
0.337087 0.348516 0.000000
0.474739 0.331243 0.000000
0.595163 0.310170 0.000000
0.705379 0.284810 0.000000
0.807340 0.254688 0.000000
0.901167 0.219211 0.000000
0.986374 0.177493 0.000000
1.000000 0.127504 0.000000
1.000000 0.063844 0.000000
1.000000 0.000000 0.000000
1.000000 0.000000 0.000000
1.000000 0.000000 0.000000
1.000000 0.000000 0.000000
0.000000 0.480400 0.000000
0.000000 0.480400 0.000000
0.000000 0.474449 0.000000
0.000000 0.465660 0.000000
0.264607 0.454810 0.000000
0.425544 0.441611 0.000000
0.556924 0.425864 0.000000
0.673762 0.407477 0.000000
0.780179 0.386496 0.000000
0.877180 0.363195 0.000000
0.964721 0.338033 0.000000
1.000000 0.311604 0.000000
1.000000 0.284642 0.000000
1.000000 0.257877 0.000000
1.000000 0.232013 0.000000
1.000000 0.207614 0.000000
1.000000 0.185138 0.000000
0.000000 0.573831 0.000000
0.000000 0.573831 0.000000
0.000000 0.568872 0.000000
0.000000 0.561593 0.000000
0.148470 0.552666 0.000000
0.360586 0.541909 0.000000
0.509071 0.529183 0.000000
0.635172 0.514534 0.000000
0.747463 0.498085 0.000000
0.848539 0.480186 0.000000
0.939010 0.461341 0.000000
1.000000 0.442161 0.000000
1.000000 0.423285 0.000000
1.000000 0.405341 0.000000
1.000000 0.388800 0.000000
1.000000 0.374029 0.000000
1.000000 0.361166 0.000000
0.000000 0.662654 0.000000
0.000000 0.662654 0.000000
0.000000 0.658412 0.000000
0.000000 0.652171 0.000000
0.000000 0.644556 0.000000
0.270710 0.635416 0.000000
0.449195 0.624689 0.000000
0.588647 0.612406 0.000000
0.708797 0.598749 0.000000
0.815076 0.584039 0.000000
0.909194 0.568734 0.000000
0.991760 0.553353 0.000000
1.000000 0.538445 0.000000
1.000000 0.524483 0.000000
1.000000 0.511818 0.000000
1.000000 0.500679 0.000000
1.000000 0.491127 0.000000
0.000000 0.746715 0.000000
0.000000 0.746715 0.000000
0.000000 0.742977 0.000000
0.000000 0.737514 0.000000
0.000000 0.730846 0.000000
0.123583 0.722866 0.000000
0.373327 0.713527 0.000000
0.533242 0.702892 0.000000
0.664012 0.691127 0.000000
0.776898 0.678538 0.000000
0.875502 0.665507 0.000000
0.961257 0.652522 0.000000
1.000000 0.640040 0.000000
1.000000 0.628428 0.000000
1.000000 0.617975 0.000000
1.000000 0.608850 0.000000
1.000000 0.601068 0.000000
0.000000 0.825223 0.000000
0.000000 0.825223 0.000000
0.000000 0.821866 0.000000
0.000000 0.816968 0.000000
0.000000 0.811017 0.000000
0.000000 0.803891 0.000000
0.272877 0.795590 0.000000
0.467781 0.786145 0.000000
0.613214 0.775738 0.000000
0.734447 0.764630 0.000000
0.838499 0.753201 0.000000
0.928023 0.741863 0.000000
1.000000 0.730999 0.000000
1.000000 0.720943 0.000000
1.000000 0.711940 0.000000
1.000000 0.704097 0.000000
1.000000 0.697444 0.000000
0.000000 0.897215 0.000000
0.000000 0.897215 0.000000
0.000000 0.894163 0.000000
0.000000 0.889693 0.000000
0.000000 0.884276 0.000000
0.000000 0.877806 0.000000
0.113893 0.870253 0.000000
0.390356 0.861708 0.000000
0.556756 0.852308 0.000000
0.688579 0.842298 0.000000
0.799084 0.832029 0.000000
0.892943 0.821851 0.000000
0.972381 0.812146 0.000000
1.000000 0.803189 0.000000
1.000000 0.795193 0.000000
1.000000 0.788235 0.000000
1.000000 0.782361 0.000000
0.000000 0.961868 0.000000
0.000000 0.961868 0.000000
0.000000 0.959045 0.000000
0.000000 0.954910 0.000000
0.000000 0.949889 0.000000
0.000000 0.943923 0.000000
0.000000 0.936965 0.000000
0.296483 0.929091 0.000000
0.495186 0.920439 0.000000
0.640375 0.911254 0.000000
0.758434 0.901839 0.000000
0.857145 0.892531 0.000000
0.939925 0.883680 0.000000
1.000000 0.875517 0.000000
1.000000 0.868238 0.000000
1.000000 0.861936 0.000000
1.000000 0.856596 0.000000
0.000000 1.000000 0.000000
0.000000 1.000000 0.000000
0.000000 1.000000 0.000000
0.000000 1.000000 0.000000
0.000000 1.000000 0.000000
0.000000 1.000000 0.000000
0.000000 0.995331 0.000000
0.171420 0.987976 0.000000
0.429007 0.979904 0.000000
0.591134 0.971328 0.000000
0.717845 0.962570 0.000000
0.821836 0.953918 0.000000
0.908156 0.945693 0.000000
0.979583 0.938125 0.000000
1.000000 0.931395 0.000000
1.000000 0.925551 0.000000
1.000000 0.920623 0.000000
0.000000 1.000000 0.000000
0.000000 1.000000 0.000000
0.000000 1.000000 0.000000
0.000000 1.000000 0.000000
0.000000 1.000000 0.000000
0.000000 1.000000 0.000000
0.000000 1.000000 0.000000
0.000000 1.000000 0.000000
0.358343 1.000000 0.000000
0.542199 1.000000 0.000000
0.678584 1.000000 0.000000
0.788174 1.000000 0.000000
0.878111 0.998520 0.000000
0.952026 0.991394 0.000000
1.000000 0.985061 0.000000
1.000000 0.979568 0.000000
1.000000 0.974945 0.000000
0.000000 1.000000 0.000000
0.000000 1.000000 0.000000
0.000000 1.000000 0.000000
0.000000 1.000000 0.000000
0.000000 1.000000 0.000000
0.000000 1.000000 0.000000
0.000000 1.000000 0.000000
0.000000 1.000000 0.000000
0.282322 1.000000 0.000000
0.494820 1.000000 0.000000
0.641779 1.000000 0.000000
0.757092 1.000000 0.000000
0.850599 1.000000 0.000000
0.926925 1.000000 0.000000
0.988998 1.000000 0.000000
1.000000 1.000000 0.000000
1.000000 1.000000 0.000000
0.000000 1.000000 0.000000
0.000000 1.000000 0.000000
0.000000 1.000000 0.000000
0.000000 1.000000 0.000000
0.000000 1.000000 0.000000
0.000000 1.000000 0.000000
0.000000 1.000000 0.000000
0.000000 1.000000 0.000000
0.197635 1.000000 0.000000
0.450065 1.000000 0.000000
0.608255 1.000000 0.000000
0.729213 1.000000 0.000000
0.826154 1.000000 0.000000
0.904738 1.000000 0.000000
0.968383 1.000000 0.000000
1.000000 1.000000 0.000000
1.000000 1.000000 0.000000
0.000000 1.000000 0.000000
0.000000 1.000000 0.000000
0.000000 1.000000 0.000000
0.000000 1.000000 0.000000
0.000000 1.000000 0.000000
0.000000 1.000000 0.000000
0.000000 1.000000 0.000000
0.000000 1.000000 0.000000
0.091203 1.000000 0.000000
0.408698 1.000000 0.000000
0.578531 1.000000 0.000000
0.704906 1.000000 0.000000
0.804990 1.000000 0.000000
0.885634 1.000000 0.000000
0.950683 1.000000 0.000000
1.000000 1.000000 0.000000
1.000000 1.000000 0.000000
0.000000 0.000000 0.267933
0.000000 0.000000 0.267933
0.168154 0.000000 0.266728
0.321767 0.000000 0.264988
0.444785 0.000000 0.262852
0.556405 0.000000 0.260319
0.661616 0.000000 0.257359
0.761730 0.000000 0.254002
0.856504 0.000000 0.250309
0.945037 0.000000 0.246387
1.000000 0.000000 0.242344
1.000000 0.000000 0.238331
1.000000 0.000000 0.234516
1.000000 0.000000 0.230976
1.000000 0.000000 0.227817
1.000000 0.000000 0.225071
1.000000 0.000000 0.222736
0.000000 0.000000 0.267933
0.000000 0.000000 0.267933
0.168154 0.000000 0.266728
