MEDT/Pirringer/Unterricht/2025-02-26/Korrektur und Grading FootageFotos-20250226T115430Z-001/Korrektur und Grading FootageFotos/Bounce Color True Basic Log Conversion LUTs/Monitor LUTs 17x17/Canon C-Log to Rec.709 LUT.cube
# Converted by Briz LUT Converter
LUT_3D_SIZE 5
0.000000 0.000000 0.000000
0.454734 0.000000 0.000000
0.861540 0.000000 0.000000
1.000000 0.000000 0.000000
1.000000 0.000000 0.000000
0.000000 0.391546 0.000000
0.342428 0.359762 0.000000
0.809537 0.269520 0.000000
1.000000 0.097826 0.000000
1.000000 0.000000 0.000000
0.000000 0.751949 0.000000
0.000000 0.736187 0.000000
0.666712 0.696803 0.000000
1.000000 0.646189 0.000000
1.000000 0.607645 0.000000
0.000000 1.000000 0.000000
0.000000 1.000000 0.000000
0.433234 0.983780 0.000000
0.910079 0.949737 0.000000
1.000000 0.924788 0.000000
0.000000 1.000000 0.000000
0.000000 1.000000 0.000000
0.105348 1.000000 0.000000
0.807202 1.000000 0.000000
1.000000 1.000000 0.000000
0.000000 0.000000 0.368856
0.437522 0.000000 0.365103
0.852872 0.000000 0.355947
1.000000 0.000000 0.344640
1.000000 0.000000 0.336431
0.000000 0.345998 0.299413
0.319402 0.309819 0.294835
0.800244 0.200855 0.283574
1.000000 0.000000 0.269505
1.000000 0.000000 0.259129
0.000000 0.729656 0.000000
0.000000 0.713375 0.000000
0.655253 0.672557 0.000000
1.000000 0.619837 0.000000
1.000000 0.579446 0.000000
0.000000 1.000000 0.000000
0.000000 0.995239 0.000000
0.415137 0.967300 0.000000
0.901930 0.932586 0.000000
1.000000 0.907103 0.000000
0.000000 1.000000 0.000000
0.000000 1.000000 0.000000
0.040558 1.000000 0.000000
0.797894 1.000000 0.000000
1.000000 1.000000 0.000000
0.000000 0.000000 0.712581
0.393133 0.000000 0.710674
0.831678 0.000000 0.706081
1.000000 0.000000 0.700511
1.000000 0.000000 0.696544
0.000000 0.202014 0.679515
0.256596 0.138506 0.677516
0.777478 0.000000 0.672663
1.000000 0.000000 0.666804
1.000000 0.000000 0.662623
0.000000 0.672938 0.592111
0.000000 0.655146 0.589792
0.626795 0.610178 0.584161
1.000000 0.551171 0.577356
1.000000 0.505074 0.572488
0.000000 0.967544 0.465049
0.000000 0.955657 0.462074
0.368124 0.926390 0.454826
0.882017 0.889906 0.445991
1.000000 0.863050 0.439628
0.000000 1.000000 0.347860
0.000000 1.000000 0.343893
0.000000 1.000000 0.334173
0.775036 1.000000 0.322148
1.000000 1.000000 0.313390
0.000000 0.000000 0.970535
0.332433 0.000000 0.969177
0.805447 0.000000 0.965896
1.000000 0.000000 0.961944
1.000000 0.000000 0.959152
0.000000 0.000000 0.947204
0.156054 0.000000 0.945815
0.749187 0.000000 0.942443
1.000000 0.000000 0.938384
1.000000 0.000000 0.935500
0.000000 0.597345 0.888426
0.000000 0.577096 0.886931
0.590768 0.525139 0.883314
0.991440 0.454856 0.878965
1.000000 0.397620 0.875868
0.000000 0.918273 0.811765
0.000000 0.905653 0.810101
0.302724 0.874556 0.806119
0.857481 0.835569 0.801297
1.000000 0.806714 0.797864
0.000000 1.000000 0.752316
0.000000 1.000000 0.750515
0.000000 1.000000 0.746166
0.746639 1.000000 0.740932
1.000000 0.995087 0.737194
0.000000 0.000000 1.000000
0.282185 0.000000 1.000000
0.786297 0.000000 1.000000
1.000000 0.000000 1.000000
1.000000 0.000000 1.000000
0.000000 0.000000 1.000000
0.039643 0.000000 1.000000
0.728420 0.000000 1.000000
1.000000 0.000000 1.000000
1.000000 0.000000 1.000000
0.000000 0.537087 1.000000
0.000000 0.514366 1.000000
0.563806 0.455100 1.000000
0.976272 0.371801 1.000000
1.000000 0.299687 1.000000
0.000000 0.881544 0.982147
0.000000 0.868330 0.980804
0.247105 0.835691 0.977569
0.839612 0.794629 0.973678
1.000000 0.764080 0.970916
0.000000 1.000000 0.934569
0.000000 1.000000 0.933150
0.000000 1.000000 0.929747
0.725811 0.985504 0.925628
0.986450 0.961593 0.922698
