MEDT/Pirringer/Unterricht/2025-02-26/Korrektur und Grading FootageFotos-20250226T115430Z-001/Korrektur und Grading FootageFotos/Bounce Color True Basic Log Conversion LUTs/Monitor LUTs 17x17/DJI D-Log to Rec.709 LUT.cube
# Converted by Briz LUT Converter
LUT_3D_SIZE 17
0.000000 0.000000 0.000000
0.000000 0.000000 0.000000
0.043473 0.000000 0.000000
0.134005 0.000000 0.000000
0.231098 0.000000 0.000000
0.340856 0.000000 0.000000
0.467079 0.000000 0.000000
0.609003 0.000000 0.000000
0.760266 0.000000 0.000000
0.908843 0.000000 0.000000
1.000000 0.000000 0.000000
1.000000 0.000000 0.000000
1.000000 0.000000 0.000000
1.000000 0.000000 0.000000
1.000000 0.000000 0.000000
1.000000 0.000000 0.000000
1.000000 0.000000 0.000000
0.000000 0.000000 0.000000
0.000000 0.000000 0.000000
0.043473 0.000000 0.000000
0.134005 0.000000 0.000000
0.231098 0.000000 0.000000
0.340856 0.000000 0.000000
0.467079 0.000000 0.000000
0.609003 0.000000 0.000000
0.760266 0.000000 0.000000
0.908843 0.000000 0.000000
1.000000 0.000000 0.000000
1.000000 0.000000 0.000000
1.000000 0.000000 0.000000
1.000000 0.000000 0.000000
1.000000 0.000000 0.000000
1.000000 0.000000 0.000000
1.000000 0.000000 0.000000
0.000000 0.034638 0.000000
0.000000 0.034638 0.000000
0.028428 0.032090 0.000000
0.122667 0.026246 0.000000
0.223804 0.016434 0.000000
0.335760 0.000183 0.000000
0.463340 0.000000 0.000000
0.606165 0.000000 0.000000
0.758022 0.000000 0.000000
0.906996 0.000000 0.000000
1.000000 0.000000 0.000000
1.000000 0.000000 0.000000
1.000000 0.000000 0.000000
1.000000 0.000000 0.000000
1.000000 0.000000 0.000000
1.000000 0.000000 0.000000
1.000000 0.000000 0.000000
0.000000 0.111345 0.000000
0.000000 0.111345 0.000000
0.000000 0.109209 0.000000
0.093446 0.104234 0.000000
0.206241 0.095521 0.000000
0.323751 0.079698 0.000000
0.454643 0.053803 0.000000
0.599603 0.014954 0.000000
0.752850 0.000000 0.000000
0.902754 0.000000 0.000000
1.000000 0.000000 0.000000
1.000000 0.000000 0.000000
1.000000 0.000000 0.000000
1.000000 0.000000 0.000000
1.000000 0.000000 0.000000
1.000000 0.000000 0.000000
1.000000 0.000000 0.000000
0.000000 0.198978 0.000000
0.000000 0.198978 0.000000
0.000000 0.197604 0.000000
0.035721 0.194385 0.000000
0.173648 0.188907 0.000000
0.302632 0.179553 0.000000
0.439673 0.163775 0.000000
0.588403 0.137652 0.000000
0.744106 0.094652 0.000000
0.895582 0.030106 0.000000
1.000000 0.000000 0.000000
1.000000 0.000000 0.000000
1.000000 0.000000 0.000000
1.000000 0.000000 0.000000
1.000000 0.000000 0.000000
1.000000 0.000000 0.000000
1.000000 0.000000 0.000000
0.000000 0.298054 0.000000
0.000000 0.298054 0.000000
0.000000 0.297093 0.000000
0.000000 0.294850 0.000000
0.105440 0.291035 0.000000
0.264302 0.284642 0.000000
0.413687 0.274174 0.000000
0.569360 0.257740 0.000000
0.729351 0.233555 0.000000
0.883574 0.200870 0.000000
1.000000 0.160952 0.000000
1.000000 0.116960 0.000000
1.000000 0.072450 0.000000
1.000000 0.038209 0.000000
1.000000 0.027069 0.000000
1.000000 0.027069 0.000000
1.000000 0.027069 0.000000
0.000000 0.412009 0.000000
0.000000 0.412009 0.000000
0.000000 0.411292 0.000000
0.000000 0.409644 0.000000
0.000000 0.406867 0.000000
0.190097 0.402243 0.000000
0.368551 0.394736 0.000000
0.537545 0.383215 0.000000
0.705150 0.366842 0.000000
0.864042 0.345907 0.000000
1.000000 0.322499 0.000000
1.000000 0.299870 0.000000
1.000000 0.280888 0.000000
1.000000 0.266789 0.000000
1.000000 0.262058 0.000000
1.000000 0.262058 0.000000
1.000000 0.262058 0.000000
0.000000 0.540124 0.000000
0.000000 0.540124 0.000000
0.000000 0.539574 0.000000
0.000000 0.538323 0.000000
0.000000 0.536233 0.000000
0.001740 0.532723 0.000000
0.288548 0.527092 0.000000
0.485771 0.518532 0.000000
0.667079 0.506523 0.000000
0.833799 0.491524 0.000000
0.976806 0.475212 0.000000
1.000000 0.459968 0.000000
1.000000 0.447608 0.000000
1.000000 0.438682 0.000000
1.000000 0.435737 0.000000
1.000000 0.435737 0.000000
1.000000 0.435737 0.000000
0.000000 0.676661 0.000000
0.000000 0.676661 0.000000
0.000000 0.676219 0.000000
0.000000 0.675242 0.000000
0.000000 0.673579 0.000000
0.000000 0.670832 0.000000
0.122942 0.666423 0.000000
0.403937 0.659739 0.000000
0.610697 0.650446 0.000000
0.790219 0.638956 0.000000
0.940490 0.626627 0.000000
1.000000 0.615244 0.000000
1.000000 0.606134 0.000000
1.000000 0.599619 0.000000
1.000000 0.597482 0.000000
1.000000 0.597482 0.000000
1.000000 0.597482 0.000000
0.000000 0.810773 0.000000
0.000000 0.810773 0.000000
0.000000 0.810422 0.000000
0.000000 0.809613 0.000000
0.000000 0.808255 0.000000
0.000000 0.805982 0.000000
0.000000 0.802365 0.000000
0.274372 0.796902 0.000000
0.533700 0.789349 0.000000
0.733410 0.780041 0.000000
0.894118 0.770108 0.000000
1.000000 0.761013 0.000000
1.000000 0.753765 0.000000
1.000000 0.748623 0.000000
1.000000 0.746944 0.000000
1.000000 0.746944 0.000000
1.000000 0.746944 0.000000
0.000000 0.929747 0.000000
0.000000 0.929747 0.000000
0.000000 0.929442 0.000000
0.000000 0.928740 0.000000
0.000000 0.927565 0.000000
0.000000 0.925628 0.000000
0.000000 0.922530 0.000000
0.005005 0.917845 0.000000
0.437827 0.911376 0.000000
0.667994 0.903426 0.000000
0.842268 0.894987 0.000000
0.971313 0.887282 0.000000
1.000000 0.881163 0.000000
1.000000 0.876829 0.000000
1.000000 0.875410 0.000000
1.000000 0.875410 0.000000
1.000000 0.875410 0.000000
0.000000 1.000000 0.000000
0.000000 1.000000 0.000000
0.000000 1.000000 0.000000
0.000000 1.000000 0.000000
0.000000 1.000000 0.000000
0.000000 1.000000 0.000000
0.000000 1.000000 0.000000
0.000000 1.000000 0.000000
0.328084 1.000000 0.000000
0.602365 1.000000 0.000000
0.792187 0.993301 0.000000
0.928878 0.986450 0.000000
1.000000 0.981003 0.000000
1.000000 0.977157 0.000000
1.000000 0.975891 0.000000
1.000000 0.975891 0.000000
1.000000 0.975891 0.000000
0.000000 1.000000 0.000000
0.000000 1.000000 0.000000
0.000000 1.000000 0.000000
0.000000 1.000000 0.000000
0.000000 1.000000 0.000000
0.000000 1.000000 0.000000
0.000000 1.000000 0.000000
0.000000 1.000000 0.000000
0.207553 1.000000 0.000000
0.544839 1.000000 0.000000
0.750210 1.000000 0.000000
0.893904 1.000000 0.000000
0.991241 1.000000 0.000000
1.000000 1.000000 0.000000
1.000000 1.000000 0.000000
1.000000 1.000000 0.000000
1.000000 1.000000 0.000000
0.000000 1.000000 0.000000
0.000000 1.000000 0.000000
0.000000 1.000000 0.000000
0.000000 1.000000 0.000000
0.000000 1.000000 0.000000
0.000000 1.000000 0.000000
0.000000 1.000000 0.000000
0.000000 1.000000 0.000000
0.061189 1.000000 0.000000
0.500191 1.000000 0.000000
0.719020 1.000000 0.000000
0.868315 1.000000 0.000000
0.968490 1.000000 0.000000
1.000000 1.000000 0.000000
1.000000 1.000000 0.000000
1.000000 1.000000 0.000000
1.000000 1.000000 0.000000
0.000000 1.000000 0.000000
0.000000 1.000000 0.000000
0.000000 1.000000 0.000000
0.000000 1.000000 0.000000
0.000000 1.000000 0.000000
0.000000 1.000000 0.000000
0.000000 1.000000 0.000000
0.000000 1.000000 0.000000
0.000000 1.000000 0.000000
0.484779 1.000000 0.000000
0.708568 1.000000 0.000000
0.859815 1.000000 0.000000
0.960952 1.000000 0.000000
1.000000 1.000000 0.000000
1.000000 1.000000 0.000000
1.000000 1.000000 0.000000
1.000000 1.000000 0.000000
0.000000 1.000000 0.000000
0.000000 1.000000 0.000000
0.000000 1.000000 0.000000
0.000000 1.000000 0.000000
0.000000 1.000000 0.000000
0.000000 1.000000 0.000000
0.000000 1.000000 0.000000
0.000000 1.000000 0.000000
0.000000 1.000000 0.000000
0.484779 1.000000 0.000000
0.708568 1.000000 0.000000
0.859815 1.000000 0.000000
0.960952 1.000000 0.000000
1.000000 1.000000 0.000000
1.000000 1.000000 0.000000
1.000000 1.000000 0.000000
1.000000 1.000000 0.000000
0.000000 1.000000 0.000000
0.000000 1.000000 0.000000
0.000000 1.000000 0.000000
0.000000 1.000000 0.000000
0.000000 1.000000 0.000000
0.000000 1.000000 0.000000
0.000000 1.000000 0.000000
0.000000 1.000000 0.000000
0.000000 1.000000 0.000000
0.484779 1.000000 0.000000
0.708568 1.000000 0.000000
0.859815 1.000000 0.000000
0.960952 1.000000 0.000000
1.000000 1.000000 0.000000
1.000000 1.000000 0.000000
1.000000 1.000000 0.000000
1.000000 1.000000 0.000000
0.000000 0.000000 0.000000
0.000000 0.000000 0.000000
0.043473 0.000000 0.000000
0.134005 0.000000 0.000000
0.231098 0.000000 0.000000
0.340856 0.000000 0.000000
0.467079 0.000000 0.000000
0.609003 0.000000 0.000000
0.760266 0.000000 0.000000
0.908843 0.000000 0.000000
1.000000 0.000000 0.000000
1.000000 0.000000 0.000000
1.000000 0.000000 0.000000
1.000000 0.000000 0.000000
1.000000 0.000000 0.000000
1.000000 0.000000 0.000000
1.000000 0.000000 0.000000
0.000000 0.000000 0.000000
0.000000 0.000000 0.000000
0.043473 0.000000 0.000000
0.134005 0.000000 0.000000
0.231098 0.000000 0.000000
0.340856 0.000000 0.000000
0.467079 0.000000 0.000000
0.609003 0.000000 0.000000
0.760266 0.000000 0.000000
0.908843 0.000000 0.000000
1.000000 0.000000 0.000000
1.000000 0.000000 0.000000
1.000000 0.000000 0.000000
1.000000 0.000000 0.000000
1.000000 0.000000 0.000000
1.000000 0.000000 0.000000
1.000000 0.000000 0.000000
0.000000 0.034638 0.000000
0.000000 0.034638 0.000000
0.028428 0.032090 0.000000
0.122667 0.026246 0.000000
0.223804 0.016434 0.000000
0.335760 0.000183 0.000000
0.463340 0.000000 0.000000
0.606165 0.000000 0.000000
0.758022 0.000000 0.000000
0.906996 0.000000 0.000000
1.000000 0.000000 0.000000
1.000000 0.000000 0.000000
1.000000 0.000000 0.000000
1.000000 0.000000 0.000000
1.000000 0.000000 0.000000
1.000000 0.000000 0.000000
1.000000 0.000000 0.000000
0.000000 0.111345 0.000000
0.000000 0.111345 0.000000
0.000000 0.109209 0.000000
0.093446 0.104234 0.000000
0.206241 0.095521 0.000000
0.323751 0.079698 0.000000
0.454643 0.053803 0.000000
0.599603 0.014954 0.000000
0.752850 0.000000 0.000000
0.902754 0.000000 0.000000
1.000000 0.000000 0.000000
1.000000 0.000000 0.000000
1.000000 0.000000 0.000000
1.000000 0.000000 0.000000
1.000000 0.000000 0.000000
1.000000 0.000000 0.000000
1.000000 0.000000 0.000000
0.000000 0.198978 0.000000
0.000000 0.198978 0.000000
0.000000 0.197604 0.000000
0.035721 0.194385 0.000000
0.173648 0.188907 0.000000
0.302632 0.179553 0.000000
0.439673 0.163775 0.000000
0.588403 0.137652 0.000000
0.744106 0.094652 0.000000
0.895582 0.030106 0.000000
1.000000 0.000000 0.000000
1.000000 0.000000 0.000000
1.000000 0.000000 0.000000
1.000000 0.000000 0.000000
1.000000 0.000000 0.000000
1.000000 0.000000 0.000000
1.000000 0.000000 0.000000
0.000000 0.298054 0.000000
0.000000 0.298054 0.000000
0.000000 0.297093 0.000000
0.000000 0.294850 0.000000
0.105440 0.291035 0.000000
0.264302 0.284642 0.000000
0.413687 0.274174 0.000000
0.569360 0.257740 0.000000
0.729351 0.233555 0.000000
0.883574 0.200870 0.000000
1.000000 0.160952 0.000000
1.000000 0.116960 0.000000
1.000000 0.072450 0.000000
1.000000 0.038209 0.000000
1.000000 0.027069 0.000000
1.000000 0.027069 0.000000
1.000000 0.027069 0.000000
0.000000 0.412009 0.000000
0.000000 0.412009 0.000000
0.000000 0.411292 0.000000
0.000000 0.409644 0.000000
0.000000 0.406867 0.000000
0.190097 0.402243 0.000000
0.368551 0.394736 0.000000
0.537545 0.383215 0.000000
0.705150 0.366842 0.000000
0.864042 0.345907 0.000000
1.000000 0.322499 0.000000
1.000000 0.299870 0.000000
1.000000 0.280888 0.000000
1.000000 0.266789 0.000000
1.000000 0.262058 0.000000
1.000000 0.262058 0.000000
1.000000 0.262058 0.000000
0.000000 0.540124 0.000000
0.000000 0.540124 0.000000
0.000000 0.539574 0.000000
0.000000 0.538323 0.000000
0.000000 0.536233 0.000000
0.001740 0.532723 0.000000
0.288548 0.527092 0.000000
0.485771 0.518532 0.000000
0.667079 0.506523 0.000000
0.833799 0.491524 0.000000
0.976806 0.475212 0.000000
1.000000 0.459968 0.000000
1.000000 0.447608 0.000000
1.000000 0.438682 0.000000
1.000000 0.435737 0.000000
1.000000 0.435737 0.000000
1.000000 0.435737 0.000000
0.000000 0.676661 0.000000
0.000000 0.676661 0.000000
0.000000 0.676219 0.000000
0.000000 0.675242 0.000000
0.000000 0.673579 0.000000
0.000000 0.670832 0.000000
0.122942 0.666423 0.000000
0.403937 0.659739 0.000000
0.610697 0.650446 0.000000
0.790219 0.638956 0.000000
0.940490 0.626627 0.000000
1.000000 0.615244 0.000000
1.000000 0.606134 0.000000
1.000000 0.599619 0.000000
1.000000 0.597482 0.000000
1.000000 0.597482 0.000000
1.000000 0.597482 0.000000
0.000000 0.810773 0.000000
0.000000 0.810773 0.000000
0.000000 0.810422 0.000000
0.000000 0.809613 0.000000
0.000000 0.808255 0.000000
0.000000 0.805982 0.000000
0.000000 0.802365 0.000000
0.274372 0.796902 0.000000
0.533700 0.789349 0.000000
0.733410 0.780041 0.000000
0.894118 0.770108 0.000000
1.000000 0.761013 0.000000
1.000000 0.753765 0.000000
1.000000 0.748623 0.000000
1.000000 0.746944 0.000000
1.000000 0.746944 0.000000
1.000000 0.746944 0.000000
0.000000 0.929747 0.000000
0.000000 0.929747 0.000000
0.000000 0.929442 0.000000
0.000000 0.928740 0.000000
0.000000 0.927565 0.000000
0.000000 0.925628 0.000000
0.000000 0.922530 0.000000
0.005005 0.917845 0.000000
0.437827 0.911376 0.000000
0.667994 0.903426 0.000000
0.842268 0.894987 0.000000
0.971313 0.887282 0.000000
1.000000 0.881163 0.000000
1.000000 0.876829 0.000000
1.000000 0.875410 0.000000
1.000000 0.875410 0.000000
1.000000 0.875410 0.000000
0.000000 1.000000 0.000000
0.000000 1.000000 0.000000
0.000000 1.000000 0.000000
0.000000 1.000000 0.000000
0.000000 1.000000 0.000000
0.000000 1.000000 0.000000
0.000000 1.000000 0.000000
0.000000 1.000000 0.000000
0.328084 1.000000 0.000000
0.602365 1.000000 0.000000
0.792187 0.993301 0.000000
0.928878 0.986450 0.000000
1.000000 0.981003 0.000000
1.000000 0.977157 0.000000
1.000000 0.975891 0.000000
1.000000 0.975891 0.000000
1.000000 0.975891 0.000000
0.000000 1.000000 0.000000
0.000000 1.000000 0.000000
0.000000 1.000000 0.000000
0.000000 1.000000 0.000000
0.000000 1.000000 0.000000
0.000000 1.000000 0.000000
0.000000 1.000000 0.000000
0.000000 1.000000 0.000000
0.207553 1.000000 0.000000
0.544839 1.000000 0.000000
0.750210 1.000000 0.000000
0.893904 1.000000 0.000000
0.991241 1.000000 0.000000
1.000000 1.000000 0.000000
1.000000 1.000000 0.000000
1.000000 1.000000 0.000000
1.000000 1.000000 0.000000
0.000000 1.000000 0.000000
0.000000 1.000000 0.000000
0.000000 1.000000 0.000000
0.000000 1.000000 0.000000
0.000000 1.000000 0.000000
0.000000 1.000000 0.000000
0.000000 1.000000 0.000000
0.000000 1.000000 0.000000
0.061189 1.000000 0.000000
0.500191 1.000000 0.000000
0.719020 1.000000 0.000000
0.868315 1.000000 0.000000
0.968490 1.000000 0.000000
1.000000 1.000000 0.000000
1.000000 1.000000 0.000000
1.000000 1.000000 0.000000
1.000000 1.000000 0.000000
0.000000 1.000000 0.000000
0.000000 1.000000 0.000000
0.000000 1.000000 0.000000
0.000000 1.000000 0.000000
0.000000 1.000000 0.000000
0.000000 1.000000 0.000000
0.000000 1.000000 0.000000
0.000000 1.000000 0.000000
0.000000 1.000000 0.000000
0.484779 1.000000 0.000000
0.708568 1.000000 0.000000
0.859815 1.000000 0.000000
0.960952 1.000000 0.000000
1.000000 1.000000 0.000000
1.000000 1.000000 0.000000
1.000000 1.000000 0.000000
1.000000 1.000000 0.000000
0.000000 1.000000 0.000000
0.000000 1.000000 0.000000
0.000000 1.000000 0.000000
0.000000 1.000000 0.000000
0.000000 1.000000 0.000000
0.000000 1.000000 0.000000
0.000000 1.000000 0.000000
0.000000 1.000000 0.000000
0.000000 1.000000 0.000000
0.484779 1.000000 0.000000
0.708568 1.000000 0.000000
0.859815 1.000000 0.000000
0.960952 1.000000 0.000000
1.000000 1.000000 0.000000
1.000000 1.000000 0.000000
1.000000 1.000000 0.000000
1.000000 1.000000 0.000000
0.000000 1.000000 0.000000
0.000000 1.000000 0.000000
0.000000 1.000000 0.000000
0.000000 1.000000 0.000000
0.000000 1.000000 0.000000
0.000000 1.000000 0.000000
0.000000 1.000000 0.000000
0.000000 1.000000 0.000000
0.000000 1.000000 0.000000
0.484779 1.000000 0.000000
0.708568 1.000000 0.000000
0.859815 1.000000 0.000000
0.960952 1.000000 0.000000
1.000000 1.000000 0.000000
1.000000 1.000000 0.000000
1.000000 1.000000 0.000000
1.000000 1.000000 0.000000
0.000000 0.000000 0.033341
0.000000 0.000000 0.033341
0.041016 0.000000 0.032273
0.132204 0.000000 0.029831
0.229923 0.000000 0.025727
0.340032 0.000000 0.018952
0.466468 0.000000 0.008133
0.608545 0.000000 0.000000
0.759899 0.000000 0.000000
0.908537 0.000000 0.000000
1.000000 0.000000 0.000000
1.000000 0.000000 0.000000
1.000000 0.000000 0.000000
1.000000 0.000000 0.000000
1.000000 0.000000 0.000000
1.000000 0.000000 0.000000
1.000000 0.000000 0.000000
0.000000 0.000000 0.033341
0.000000 0.000000 0.033341
0.041016 0.000000 0.032273
0.132204 0.000000 0.029831
0.229923 0.000000 0.025727
0.340032 0.000000 0.018952
0.466468 0.000000 0.008133
0.608545 0.000000 0.000000
0.759899 0.000000 0.000000
0.908537 0.000000 0.000000
1.000000 0.000000 0.000000
1.000000 0.000000 0.000000
1.000000 0.000000 0.000000
1.000000 0.000000 0.000000
1.000000 0.000000 0.000000
1.000000 0.000000 0.000000
1.000000 0.000000 0.000000
0.000000 0.028504 0.027024
0.000000 0.028504 0.027024
0.025956 0.025956 0.025956
0.120729 0.020111 0.023514
0.222599 0.010300 0.019425
0.334920 0.000000 0.012634
0.462730 0.000000 0.001816
0.605707 0.000000 0.000000
0.757656 0.000000 0.000000
0.906691 0.000000 0.000000
1.000000 0.000000 0.000000
1.000000 0.000000 0.000000
1.000000 0.000000 0.000000
1.000000 0.000000 0.000000
1.000000 0.000000 0.000000
1.000000 0.000000 0.000000
1.000000 0.000000 0.000000
0.000000 0.106188 0.012543
0.000000 0.106188 0.012543
0.000000 0.103990 0.011475
0.091157 0.098848 0.009033
0.204944 0.089830 0.004944
0.322881 0.073579 0.000000
0.454017 0.047684 0.000000
0.599130 0.008820 0.000000
0.752483 0.000000 0.000000
0.902449 0.000000 0.000000
1.000000 0.000000 0.000000
1.000000 0.000000 0.000000
1.000000 0.000000 0.000000
1.000000 0.000000 0.000000
1.000000 0.000000 0.000000
1.000000 0.000000 0.000000
1.000000 0.000000 0.000000
0.000000 0.195636 0.000000
0.000000 0.195636 0.000000
0.000000 0.194232 0.000000
0.033265 0.190982 0.000000
0.172152 0.185428 0.000000
0.301701 0.175921 0.000000
0.439033 0.159869 0.000000
0.587930 0.133196 0.000000
0.743725 0.088930 0.000000
0.895277 0.023987 0.000000
1.000000 0.000000 0.000000
1.000000 0.000000 0.000000
1.000000 0.000000 0.000000
1.000000 0.000000 0.000000
1.000000 0.000000 0.000000
1.000000 0.000000 0.000000
1.000000 0.000000 0.000000
0.000000 0.295720 0.000000
0.000000 0.295720 0.000000
0.000000 0.294743 0.000000
0.000000 0.292470 0.000000
0.103304 0.288640 0.000000
0.263249 0.282200 0.000000
0.413001 0.271641 0.000000
0.568856 0.255070 0.000000
0.728969 0.230640 0.000000
0.883268 0.197559 0.000000
1.000000 0.157000 0.000000
1.000000 0.111971 0.000000
1.000000 0.066331 0.000000
1.000000 0.032074 0.000000
1.000000 0.020951 0.000000
1.000000 0.020951 0.000000
1.000000 0.020951 0.000000
0.000000 0.410285 0.000000
0.000000 0.410285 0.000000
0.000000 0.409567 0.000000
0.000000 0.407919 0.000000
0.000000 0.405127 0.000000
0.188708 0.400473 0.000000
0.367788 0.392950 0.000000
0.537011 0.381369 0.000000
0.704753 0.364904 0.000000
0.863737 0.343862 0.000000
1.000000 0.320317 0.000000
1.000000 0.297536 0.000000
1.000000 0.278416 0.000000
1.000000 0.264195 0.000000
1.000000 0.259419 0.000000
1.000000 0.259419 0.000000
1.000000 0.259419 0.000000
0.000000 0.538811 0.000000
0.000000 0.538811 0.000000
0.000000 0.538262 0.000000
0.000000 0.537011 0.000000
0.000000 0.534905 0.000000
0.000000 0.531395 0.000000
0.287572 0.525750 0.000000
0.485191 0.517159 0.000000
0.666651 0.505135 0.000000
0.833463 0.490089 0.000000
0.976532 0.473732 0.000000
1.000000 0.458442 0.000000
1.000000 0.446021 0.000000
1.000000 0.437064 0.000000
1.000000 0.434119 0.000000
1.000000 0.434119 0.000000
1.000000 0.434119 0.000000
0.000000 0.675624 0.000000
0.000000 0.675624 0.000000
0.000000 0.675196 0.000000
0.000000 0.674205 0.000000
0.000000 0.672541 0.000000
0.000000 0.669795 0.000000
0.121004 0.665370 0.000000
0.403235 0.658671 0.000000
0.610239 0.649378 0.000000
0.789868 0.637858 0.000000
0.940200 0.625498 0.000000
1.000000 0.614099 0.000000
1.000000 0.604974 0.000000
1.000000 0.598444 0.000000
1.000000 0.596307 0.000000
1.000000 0.596307 0.000000
1.000000 0.596307 0.000000
0.000000 0.809918 0.000000
0.000000 0.809918 0.000000
0.000000 0.809567 0.000000
0.000000 0.808759 0.000000
0.000000 0.807401 0.000000
0.000000 0.805127 0.000000
0.000000 0.801511 0.000000
0.273350 0.796048 0.000000
0.533181 0.788479 0.000000
0.733028 0.779156 0.000000
0.893812 0.769207 0.000000
1.000000 0.760098 0.000000
1.000000 0.752850 0.000000
1.000000 0.747692 0.000000
1.000000 0.746014 0.000000
1.000000 0.746014 0.000000
1.000000 0.746014 0.000000
0.000000 0.929015 0.000000
0.000000 0.929015 0.000000
0.000000 0.928710 0.000000
0.000000 0.928008 0.000000
0.000000 0.926833 0.000000
0.000000 0.924895 0.000000
0.000000 0.921782 0.000000
0.002533 0.917098 0.000000
0.437171 0.910628 0.000000
0.667582 0.902678 0.000000
0.841947 0.894224 0.000000
0.971038 0.886519 0.000000
1.000000 0.880385 0.000000
1.000000 0.876051 0.000000
1.000000 0.874632 0.000000
1.000000 0.874632 0.000000
1.000000 0.874632 0.000000
0.000000 1.000000 0.000000
0.000000 1.000000 0.000000
0.000000 1.000000 0.000000
0.000000 1.000000 0.000000
0.000000 1.000000 0.000000
0.000000 1.000000 0.000000
0.000000 1.000000 0.000000
0.000000 1.000000 0.000000
0.327214 1.000000 0.000000
0.601892 1.000000 0.000000
0.791836 0.992630 0.000000
0.928588 0.985763 0.000000
1.000000 0.980316 0.000000
1.000000 0.976455 0.000000
1.000000 0.975204 0.000000
1.000000 0.975204 0.000000
1.000000 0.975204 0.000000
0.000000 1.000000 0.000000
0.000000 1.000000 0.000000
0.000000 1.000000 0.000000
0.000000 1.000000 0.000000
0.000000 1.000000 0.000000
0.000000 1.000000 0.000000
0.000000 1.000000 0.000000
0.000000 1.000000 0.000000
0.206256 1.000000 0.000000
0.544320 1.000000 0.000000
0.749844 1.000000 0.000000
0.893584 1.000000 0.000000
0.990967 1.000000 0.000000
1.000000 1.000000 0.000000
1.000000 1.000000 0.000000
1.000000 1.000000 0.000000
1.000000 1.000000 0.000000
0.000000 1.000000 0.000000
0.000000 1.000000 0.000000
0.000000 1.000000 0.000000
0.000000 1.000000 0.000000
0.000000 1.000000 0.000000
0.000000 1.000000 0.000000
0.000000 1.000000 0.000000
0.000000 1.000000 0.000000
0.058732 1.000000 0.000000
0.499626 1.000000 0.000000
0.718639 1.000000 0.000000
0.867994 1.000000 0.000000
0.968200 1.000000 0.000000
1.000000 1.000000 0.000000
1.000000 1.000000 0.000000
1.000000 1.000000 0.000000
1.000000 1.000000 0.000000
0.000000 1.000000 0.000000
0.000000 1.000000 0.000000
0.000000 1.000000 0.000000
0.000000 1.000000 0.000000
0.000000 1.000000 0.000000
0.000000 1.000000 0.000000
0.000000 1.000000 0.000000
0.000000 1.000000 0.000000
0.000000 1.000000 0.000000
0.484199 1.000000 0.000000
0.708171 1.000000 0.000000
0.859495 1.000000 0.000000
0.960678 1.000000 0.000000
1.000000 1.000000 0.000000
1.000000 1.000000 0.000000
1.000000 1.000000 0.000000
1.000000 1.000000 0.000000
0.000000 1.000000 0.000000
0.000000 1.000000 0.000000
0.000000 1.000000 0.000000
0.000000 1.000000 0.000000
0.000000 1.000000 0.000000
0.000000 1.000000 0.000000
0.000000 1.000000 0.000000
0.000000 1.000000 0.000000
0.000000 1.000000 0.000000
0.484199 1.000000 0.000000
0.708171 1.000000 0.000000
0.859495 1.000000 0.000000
0.960678 1.000000 0.000000
1.000000 1.000000 0.000000
1.000000 1.000000 0.000000
1.000000 1.000000 0.000000
1.000000 1.000000 0.000000
0.000000 1.000000 0.000000
0.000000 1.000000 0.000000
0.000000 1.000000 0.000000
0.000000 1.000000 0.000000
0.000000 1.000000 0.000000
0.000000 1.000000 0.000000
0.000000 1.000000 0.000000
0.000000 1.000000 0.000000
0.000000 1.000000 0.000000
0.484199 1.000000 0.000000
0.708171 1.000000 0.000000
0.859495 1.000000 0.000000
0.960678 1.000000 0.000000
1.000000 1.000000 0.000000
1.000000 1.000000 0.000000
1.000000 1.000000 0.000000
1.000000 1.000000 0.000000
0.000000 0.000000 0.107744
0.000000 0.000000 0.107744
0.035355 0.000000 0.106844
0.127977 0.000000 0.104753
0.227192 0.000000 0.101183
0.338109 0.000000 0.095094
0.465064 0.000000 0.084871
0.607477 0.000000 0.068437
0.759060 0.000000 0.046158
0.907835 0.000000 0.019058
1.000000 0.000000 0.000000
1.000000 0.000000 0.000000
1.000000 0.000000 0.000000
1.000000 0.000000 0.000000
1.000000 0.000000 0.000000
1.000000 0.000000 0.000000
1.000000 0.000000 0.000000
0.000000 0.000000 0.107744
0.000000 0.000000 0.107744
0.035355 0.000000 0.106844
