MEDT/Pirringer/Unterricht/2025-02-26/Korrektur und Grading FootageFotos-20250226T115430Z-001/Korrektur und Grading FootageFotos/Bounce Color True Basic Log Conversion LUTs/Monitor LUTs 17x17/Fujifilm F-Log to Rec.709 LUT.cube
# Converted by Briz LUT Converter
LUT_3D_SIZE 17
0.000000 0.000000 0.000000
0.000000 0.000000 0.000000
0.038788 0.000000 0.000000
0.132677 0.000000 0.000000
0.222629 0.000000 0.000000
0.315267 0.000000 0.000000
0.415091 0.000000 0.000000
0.523629 0.000000 0.000000
0.640314 0.000000 0.000000
0.762417 0.000000 0.000000
0.885161 0.000000 0.000000
1.000000 0.000000 0.000000
1.000000 0.000000 0.000000
1.000000 0.000000 0.000000
1.000000 0.000000 0.000000
1.000000 0.000000 0.000000
1.000000 0.000000 0.000000
0.000000 0.000000 0.000000
0.000000 0.000000 0.000000
0.038788 0.000000 0.000000
0.132677 0.000000 0.000000
0.222629 0.000000 0.000000
0.315267 0.000000 0.000000
0.415091 0.000000 0.000000
0.523629 0.000000 0.000000
0.640314 0.000000 0.000000
0.762417 0.000000 0.000000
0.885161 0.000000 0.000000
1.000000 0.000000 0.000000
1.000000 0.000000 0.000000
1.000000 0.000000 0.000000
1.000000 0.000000 0.000000
1.000000 0.000000 0.000000
1.000000 0.000000 0.000000
0.000000 0.029633 0.000000
0.000000 0.029633 0.000000
0.023438 0.025528 0.000000
0.121019 0.014679 0.000000
0.214939 0.000000 0.000000
0.309667 0.000000 0.000000
0.410788 0.000000 0.000000
0.520226 0.000000 0.000000
0.637568 0.000000 0.000000
0.760143 0.000000 0.000000
0.883223 0.000000 0.000000
1.000000 0.000000 0.000000
1.000000 0.000000 0.000000
1.000000 0.000000 0.000000
1.000000 0.000000 0.000000
1.000000 0.000000 0.000000
1.000000 0.000000 0.000000
0.000000 0.106249 0.000000
0.000000 0.106249 0.000000
0.000000 0.102708 0.000000
0.085695 0.092943 0.000000
0.193378 0.077104 0.000000
0.294347 0.053712 0.000000
0.399207 0.020218 0.000000
0.511147 0.000000 0.000000
0.630228 0.000000 0.000000
0.754086 0.000000 0.000000
0.878096 0.000000 0.000000
0.996201 0.000000 0.000000
1.000000 0.000000 0.000000
1.000000 0.000000 0.000000
1.000000 0.000000 0.000000
1.000000 0.000000 0.000000
1.000000 0.000000 0.000000
0.000000 0.185931 0.000000
0.000000 0.185931 0.000000
0.000000 0.183566 0.000000
0.025421 0.177203 0.000000
0.157397 0.167468 0.000000
0.270268 0.152422 0.000000
0.381460 0.128740 0.000000
0.497398 0.089586 0.000000
0.619226 0.027039 0.000000
0.745022 0.000000 0.000000
0.870436 0.000000 0.000000
0.989548 0.000000 0.000000
1.000000 0.000000 0.000000
1.000000 0.000000 0.000000
1.000000 0.000000 0.000000
1.000000 0.000000 0.000000
1.000000 0.000000 0.000000
0.000000 0.267994 0.000000
0.000000 0.267994 0.000000
0.000000 0.266270 0.000000
0.000000 0.261646 0.000000
0.089616 0.254688 0.000000
0.231235 0.244221 0.000000
0.354025 0.228519 0.000000
0.476631 0.204990 0.000000
0.602808 0.169406 0.000000
0.731594 0.113298 0.000000
0.859113 0.021195 0.000000
0.979751 0.000000 0.000000
1.000000 0.000000 0.000000
1.000000 0.000000 0.000000
1.000000 0.000000 0.000000
1.000000 0.000000 0.000000
1.000000 0.000000 0.000000
0.000000 0.356420 0.000000
0.000000 0.356420 0.000000
0.000000 0.355108 0.000000
0.000000 0.351568 0.000000
0.000000 0.346288 0.000000
0.162799 0.338445 0.000000
0.310811 0.326925 0.000000
0.445212 0.310201 0.000000
0.578439 0.286366 0.000000
0.711910 0.253086 0.000000
0.842649 0.207385 0.000000
0.965530 0.144198 0.000000
1.000000 0.049851 0.000000
1.000000 0.000000 0.000000
1.000000 0.000000 0.000000
1.000000 0.000000 0.000000
1.000000 0.000000 0.000000
0.000000 0.452583 0.000000
0.000000 0.452583 0.000000
0.000000 0.451530 0.000000
0.000000 0.448753 0.000000
0.000000 0.444602 0.000000
0.011002 0.438483 0.000000
0.239185 0.429572 0.000000
0.397345 0.416846 0.000000
0.542626 0.399145 0.000000
0.683467 0.375418 0.000000
0.819104 0.344991 0.000000
0.945342 0.307942 0.000000
1.000000 0.265354 0.000000
1.000000 0.219059 0.000000
1.000000 0.171084 0.000000
1.000000 0.123018 0.000000
1.000000 0.075227 0.000000
0.000000 0.555947 0.000000
0.000000 0.555947 0.000000
0.000000 0.555108 0.000000
0.000000 0.552850 0.000000
0.000000 0.549508 0.000000
0.000000 0.544579 0.000000
0.093522 0.537453 0.000000
0.322545 0.527367 0.000000
0.490364 0.513512 0.000000
0.643229 0.495293 0.000000
0.786328 0.472541 0.000000
0.917510 0.445960 0.000000
1.000000 0.417121 0.000000
1.000000 0.388220 0.000000
1.000000 0.361440 0.000000
1.000000 0.338369 0.000000
1.000000 0.319753 0.000000
0.000000 0.664134 0.000000
0.000000 0.664134 0.000000
0.000000 0.663432 0.000000
0.000000 0.661555 0.000000
0.000000 0.658793 0.000000
0.000000 0.654719 0.000000
0.000000 0.648859 0.000000
0.192966 0.640604 0.000000
0.414130 0.629343 0.000000
0.587701 0.614679 0.000000
0.742275 0.596643 0.000000
0.880598 0.575967 0.000000
1.000000 0.554040 0.000000
1.000000 0.532662 0.000000
1.000000 0.513466 0.000000
1.000000 0.497429 0.000000
1.000000 0.484855 0.000000
0.000000 0.772869 0.000000
0.000000 0.772869 0.000000
0.000000 0.772274 0.000000
0.000000 0.770687 0.000000
0.000000 0.768338 0.000000
0.000000 0.764889 0.000000
0.000000 0.759930 0.000000
0.000000 0.752972 0.000000
0.299107 0.743526 0.000000
0.513069 0.731304 0.000000
0.685542 0.716381 0.000000
0.834089 0.699428 0.000000
0.960433 0.681697 0.000000
1.000000 0.664622 0.000000
1.000000 0.649500 0.000000
1.000000 0.637018 0.000000
1.000000 0.627344 0.000000
0.000000 0.876692 0.000000
0.000000 0.876692 0.000000
0.000000 0.876173 0.000000
0.000000 0.874784 0.000000
0.000000 0.872740 0.000000
0.000000 0.869749 0.000000
0.000000 0.865446 0.000000
0.000000 0.859403 0.000000
0.075395 0.851240 0.000000
0.414542 0.840711 0.000000
0.616144 0.827909 0.000000
0.778973 0.813474 0.000000
0.913680 0.798459 0.000000
1.000000 0.784115 0.000000
1.000000 0.771496 0.000000
1.000000 0.761151 0.000000
1.000000 0.753170 0.000000
0.000000 0.970199 0.000000
0.000000 0.970199 0.000000
0.000000 0.969741 0.000000
0.000000 0.968505 0.000000
0.000000 0.966674 0.000000
0.000000 0.964004 0.000000
0.000000 0.960159 0.000000
0.000000 0.954787 0.000000
0.000000 0.947524 0.000000
0.281514 0.938170 0.000000
0.535668 0.926848 0.000000
0.718044 0.914107 0.000000
0.863127 0.900923 0.000000
0.978088 0.888395 0.000000
1.000000 0.877394 0.000000
1.000000 0.868421 0.000000
1.000000 0.861524 0.000000
0.000000 1.000000 0.000000
0.000000 1.000000 0.000000
0.000000 1.000000 0.000000
0.000000 1.000000 0.000000
0.000000 1.000000 0.000000
0.000000 1.000000 0.000000
0.000000 1.000000 0.000000
0.000000 1.000000 0.000000
0.000000 1.000000 0.000000
0.048402 1.000000 0.000000
0.446952 1.000000 0.000000
0.655497 0.998337 0.000000
0.812665 0.986389 0.000000
0.934462 0.975067 0.000000
1.000000 0.965164 0.000000
1.000000 0.957092 0.000000
1.000000 0.950896 0.000000
0.000000 1.000000 0.000000
0.000000 1.000000 0.000000
0.000000 1.000000 0.000000
0.000000 1.000000 0.000000
0.000000 1.000000 0.000000
0.000000 1.000000 0.000000
0.000000 1.000000 0.000000
0.000000 1.000000 0.000000
0.000000 1.000000 0.000000
0.000000 1.000000 0.000000
0.352804 1.000000 0.000000
0.595819 1.000000 0.000000
0.766140 1.000000 0.000000
0.894865 1.000000 0.000000
0.991577 1.000000 0.000000
1.000000 1.000000 0.000000
1.000000 1.000000 0.000000
0.000000 1.000000 0.000000
0.000000 1.000000 0.000000
0.000000 1.000000 0.000000
0.000000 1.000000 0.000000
0.000000 1.000000 0.000000
0.000000 1.000000 0.000000
0.000000 1.000000 0.000000
0.000000 1.000000 0.000000
0.000000 1.000000 0.000000
0.000000 1.000000 0.000000
0.254185 1.000000 0.000000
0.542718 1.000000 0.000000
0.726284 1.000000 0.000000
0.861494 1.000000 0.000000
0.961898 1.000000 0.000000
1.000000 1.000000 0.000000
1.000000 1.000000 0.000000
0.000000 1.000000 0.000000
0.000000 1.000000 0.000000
0.000000 1.000000 0.000000
0.000000 1.000000 0.000000
0.000000 1.000000 0.000000
0.000000 1.000000 0.000000
0.000000 1.000000 0.000000
0.000000 1.000000 0.000000
0.000000 1.000000 0.000000
0.000000 1.000000 0.000000
0.146365 1.000000 0.000000
0.498344 1.000000 0.000000
0.694286 1.000000 0.000000
0.835081 1.000000 0.000000
0.938598 1.000000 0.000000
1.000000 1.000000 0.000000
1.000000 1.000000 0.000000
0.000000 0.000000 0.000000
0.000000 0.000000 0.000000
0.038788 0.000000 0.000000
0.132677 0.000000 0.000000
0.222629 0.000000 0.000000
0.315267 0.000000 0.000000
0.415091 0.000000 0.000000
0.523629 0.000000 0.000000
0.640314 0.000000 0.000000
0.762417 0.000000 0.000000
0.885161 0.000000 0.000000
1.000000 0.000000 0.000000
1.000000 0.000000 0.000000
1.000000 0.000000 0.000000
1.000000 0.000000 0.000000
1.000000 0.000000 0.000000
1.000000 0.000000 0.000000
0.000000 0.000000 0.000000
0.000000 0.000000 0.000000
0.038788 0.000000 0.000000
0.132677 0.000000 0.000000
0.222629 0.000000 0.000000
0.315267 0.000000 0.000000
0.415091 0.000000 0.000000
0.523629 0.000000 0.000000
0.640314 0.000000 0.000000
0.762417 0.000000 0.000000
0.885161 0.000000 0.000000
1.000000 0.000000 0.000000
1.000000 0.000000 0.000000
1.000000 0.000000 0.000000
1.000000 0.000000 0.000000
1.000000 0.000000 0.000000
1.000000 0.000000 0.000000
0.000000 0.029633 0.000000
0.000000 0.029633 0.000000
0.023438 0.025528 0.000000
0.121019 0.014679 0.000000
0.214939 0.000000 0.000000
0.309667 0.000000 0.000000
0.410788 0.000000 0.000000
0.520226 0.000000 0.000000
0.637568 0.000000 0.000000
0.760143 0.000000 0.000000
0.883223 0.000000 0.000000
1.000000 0.000000 0.000000
1.000000 0.000000 0.000000
1.000000 0.000000 0.000000
1.000000 0.000000 0.000000
1.000000 0.000000 0.000000
1.000000 0.000000 0.000000
0.000000 0.106249 0.000000
0.000000 0.106249 0.000000
0.000000 0.102708 0.000000
0.085695 0.092943 0.000000
0.193378 0.077104 0.000000
0.294347 0.053712 0.000000
0.399207 0.020218 0.000000
0.511147 0.000000 0.000000
0.630228 0.000000 0.000000
0.754086 0.000000 0.000000
0.878096 0.000000 0.000000
0.996201 0.000000 0.000000
1.000000 0.000000 0.000000
1.000000 0.000000 0.000000
1.000000 0.000000 0.000000
1.000000 0.000000 0.000000
1.000000 0.000000 0.000000
0.000000 0.185931 0.000000
0.000000 0.185931 0.000000
0.000000 0.183566 0.000000
0.025421 0.177203 0.000000
0.157397 0.167468 0.000000
0.270268 0.152422 0.000000
0.381460 0.128740 0.000000
0.497398 0.089586 0.000000
0.619226 0.027039 0.000000
0.745022 0.000000 0.000000
0.870436 0.000000 0.000000
0.989548 0.000000 0.000000
1.000000 0.000000 0.000000
1.000000 0.000000 0.000000
1.000000 0.000000 0.000000
1.000000 0.000000 0.000000
1.000000 0.000000 0.000000
0.000000 0.267994 0.000000
0.000000 0.267994 0.000000
0.000000 0.266270 0.000000
0.000000 0.261646 0.000000
0.089616 0.254688 0.000000
0.231235 0.244221 0.000000
0.354025 0.228519 0.000000
0.476631 0.204990 0.000000
0.602808 0.169406 0.000000
0.731594 0.113298 0.000000
0.859113 0.021195 0.000000
0.979751 0.000000 0.000000
1.000000 0.000000 0.000000
1.000000 0.000000 0.000000
1.000000 0.000000 0.000000
1.000000 0.000000 0.000000
1.000000 0.000000 0.000000
0.000000 0.356420 0.000000
0.000000 0.356420 0.000000
0.000000 0.355108 0.000000
0.000000 0.351568 0.000000
0.000000 0.346288 0.000000
0.162799 0.338445 0.000000
0.310811 0.326925 0.000000
0.445212 0.310201 0.000000
0.578439 0.286366 0.000000
0.711910 0.253086 0.000000
0.842649 0.207385 0.000000
0.965530 0.144198 0.000000
1.000000 0.049851 0.000000
1.000000 0.000000 0.000000
1.000000 0.000000 0.000000
1.000000 0.000000 0.000000
1.000000 0.000000 0.000000
0.000000 0.452583 0.000000
0.000000 0.452583 0.000000
0.000000 0.451530 0.000000
0.000000 0.448753 0.000000
0.000000 0.444602 0.000000
0.011002 0.438483 0.000000
0.239185 0.429572 0.000000
0.397345 0.416846 0.000000
0.542626 0.399145 0.000000
0.683467 0.375418 0.000000
0.819104 0.344991 0.000000
0.945342 0.307942 0.000000
1.000000 0.265354 0.000000
1.000000 0.219059 0.000000
1.000000 0.171084 0.000000
1.000000 0.123018 0.000000
1.000000 0.075227 0.000000
0.000000 0.555947 0.000000
0.000000 0.555947 0.000000
0.000000 0.555108 0.000000
0.000000 0.552850 0.000000
0.000000 0.549508 0.000000
0.000000 0.544579 0.000000
0.093522 0.537453 0.000000
0.322545 0.527367 0.000000
0.490364 0.513512 0.000000
0.643229 0.495293 0.000000
0.786328 0.472541 0.000000
0.917510 0.445960 0.000000
1.000000 0.417121 0.000000
1.000000 0.388220 0.000000
1.000000 0.361440 0.000000
1.000000 0.338369 0.000000
1.000000 0.319753 0.000000
0.000000 0.664134 0.000000
0.000000 0.664134 0.000000
0.000000 0.663432 0.000000
0.000000 0.661555 0.000000
0.000000 0.658793 0.000000
0.000000 0.654719 0.000000
0.000000 0.648859 0.000000
0.192966 0.640604 0.000000
0.414130 0.629343 0.000000
0.587701 0.614679 0.000000
0.742275 0.596643 0.000000
0.880598 0.575967 0.000000
1.000000 0.554040 0.000000
1.000000 0.532662 0.000000
1.000000 0.513466 0.000000
1.000000 0.497429 0.000000
1.000000 0.484855 0.000000
0.000000 0.772869 0.000000
0.000000 0.772869 0.000000
0.000000 0.772274 0.000000
0.000000 0.770687 0.000000
0.000000 0.768338 0.000000
0.000000 0.764889 0.000000
0.000000 0.759930 0.000000
0.000000 0.752972 0.000000
0.299107 0.743526 0.000000
0.513069 0.731304 0.000000
0.685542 0.716381 0.000000
0.834089 0.699428 0.000000
0.960433 0.681697 0.000000
1.000000 0.664622 0.000000
1.000000 0.649500 0.000000
1.000000 0.637018 0.000000
1.000000 0.627344 0.000000
0.000000 0.876692 0.000000
0.000000 0.876692 0.000000
0.000000 0.876173 0.000000
0.000000 0.874784 0.000000
0.000000 0.872740 0.000000
0.000000 0.869749 0.000000
0.000000 0.865446 0.000000
0.000000 0.859403 0.000000
0.075395 0.851240 0.000000
0.414542 0.840711 0.000000
0.616144 0.827909 0.000000
0.778973 0.813474 0.000000
0.913680 0.798459 0.000000
1.000000 0.784115 0.000000
1.000000 0.771496 0.000000
1.000000 0.761151 0.000000
1.000000 0.753170 0.000000
0.000000 0.970199 0.000000
0.000000 0.970199 0.000000
0.000000 0.969741 0.000000
0.000000 0.968505 0.000000
0.000000 0.966674 0.000000
0.000000 0.964004 0.000000
0.000000 0.960159 0.000000
0.000000 0.954787 0.000000
0.000000 0.947524 0.000000
0.281514 0.938170 0.000000
0.535668 0.926848 0.000000
0.718044 0.914107 0.000000
0.863127 0.900923 0.000000
0.978088 0.888395 0.000000
1.000000 0.877394 0.000000
1.000000 0.868421 0.000000
1.000000 0.861524 0.000000
0.000000 1.000000 0.000000
0.000000 1.000000 0.000000
0.000000 1.000000 0.000000
0.000000 1.000000 0.000000
0.000000 1.000000 0.000000
0.000000 1.000000 0.000000
0.000000 1.000000 0.000000
0.000000 1.000000 0.000000
0.000000 1.000000 0.000000
0.048402 1.000000 0.000000
0.446952 1.000000 0.000000
0.655497 0.998337 0.000000
0.812665 0.986389 0.000000
0.934462 0.975067 0.000000
1.000000 0.965164 0.000000
1.000000 0.957092 0.000000
1.000000 0.950896 0.000000
0.000000 1.000000 0.000000
0.000000 1.000000 0.000000
0.000000 1.000000 0.000000
0.000000 1.000000 0.000000
0.000000 1.000000 0.000000
0.000000 1.000000 0.000000
0.000000 1.000000 0.000000
0.000000 1.000000 0.000000
0.000000 1.000000 0.000000
0.000000 1.000000 0.000000
0.352804 1.000000 0.000000
0.595819 1.000000 0.000000
0.766140 1.000000 0.000000
0.894865 1.000000 0.000000
0.991577 1.000000 0.000000
1.000000 1.000000 0.000000
1.000000 1.000000 0.000000
0.000000 1.000000 0.000000
0.000000 1.000000 0.000000
0.000000 1.000000 0.000000
0.000000 1.000000 0.000000
0.000000 1.000000 0.000000
0.000000 1.000000 0.000000
0.000000 1.000000 0.000000
0.000000 1.000000 0.000000
0.000000 1.000000 0.000000
0.000000 1.000000 0.000000
0.254185 1.000000 0.000000
0.542718 1.000000 0.000000
0.726284 1.000000 0.000000
0.861494 1.000000 0.000000
0.961898 1.000000 0.000000
1.000000 1.000000 0.000000
1.000000 1.000000 0.000000
0.000000 1.000000 0.000000
0.000000 1.000000 0.000000
0.000000 1.000000 0.000000
0.000000 1.000000 0.000000
0.000000 1.000000 0.000000
0.000000 1.000000 0.000000
0.000000 1.000000 0.000000
0.000000 1.000000 0.000000
0.000000 1.000000 0.000000
0.000000 1.000000 0.000000
0.146365 1.000000 0.000000
0.498344 1.000000 0.000000
0.694286 1.000000 0.000000
0.835081 1.000000 0.000000
0.938598 1.000000 0.000000
1.000000 1.000000 0.000000
1.000000 1.000000 0.000000
0.000000 0.000000 0.026673
0.000000 0.000000 0.026673
0.036164 0.000000 0.026200
0.130739 0.000000 0.024948
0.221332 0.000000 0.023102
0.314305 0.000000 0.020386
0.414359 0.000000 0.016525
0.523049 0.000000 0.011139
0.639841 0.000000 0.003922
0.762036 0.000000 0.000000
0.884825 0.000000 0.000000
1.000000 0.000000 0.000000
1.000000 0.000000 0.000000
1.000000 0.000000 0.000000
1.000000 0.000000 0.000000
1.000000 0.000000 0.000000
1.000000 0.000000 0.000000
0.000000 0.000000 0.026673
0.000000 0.000000 0.026673
0.036164 0.000000 0.026200
0.130739 0.000000 0.024948
0.221332 0.000000 0.023102
0.314305 0.000000 0.020386
0.414359 0.000000 0.016525
0.523049 0.000000 0.011139
0.639841 0.000000 0.003922
0.762036 0.000000 0.000000
0.884825 0.000000 0.000000
1.000000 0.000000 0.000000
1.000000 0.000000 0.000000
1.000000 0.000000 0.000000
1.000000 0.000000 0.000000
1.000000 0.000000 0.000000
1.000000 0.000000 0.000000
0.000000 0.023865 0.018662
0.000000 0.023865 0.018662
0.020813 0.019760 0.018189
0.118944 0.008911 0.016938
0.213596 0.000000 0.015091
0.308690 0.000000 0.012390
0.410056 0.000000 0.008515
0.519646 0.000000 0.003128
0.637095 0.000000 0.000000
0.759762 0.000000 0.000000
0.882902 0.000000 0.000000
1.000000 0.000000 0.000000
1.000000 0.000000 0.000000
1.000000 0.000000 0.000000
1.000000 0.000000 0.000000
1.000000 0.000000 0.000000
1.000000 0.000000 0.000000
0.000000 0.101244 0.000000
0.000000 0.101244 0.000000
0.000000 0.097597 0.000000
0.083116 0.087495 0.000000
0.191913 0.071336 0.000000
0.293324 0.047944 0.000000
0.398444 0.014450 0.000000
0.510552 0.000000 0.000000
0.629755 0.000000 0.000000
0.753689 0.000000 0.000000
0.877760 0.000000 0.000000
0.995911 0.000000 0.000000
1.000000 0.000000 0.000000
1.000000 0.000000 0.000000
1.000000 0.000000 0.000000
1.000000 0.000000 0.000000
1.000000 0.000000 0.000000
0.000000 0.182605 0.000000
0.000000 0.182605 0.000000
0.000000 0.180209 0.000000
0.022797 0.173754 0.000000
0.155673 0.163851 0.000000
0.269169 0.148531 0.000000
0.380667 0.124346 0.000000
0.496788 0.084031 0.000000
0.618753 0.021271 0.000000
0.744625 0.000000 0.000000
0.870085 0.000000 0.000000
0.989258 0.000000 0.000000
1.000000 0.000000 0.000000
1.000000 0.000000 0.000000
1.000000 0.000000 0.000000
1.000000 0.000000 0.000000
1.000000 0.000000 0.000000
0.000000 0.265568 0.000000
0.000000 0.265568 0.000000
0.000000 0.263828 0.000000
0.000000 0.259159 0.000000
0.087114 0.252140 0.000000
0.229984 0.241581 0.000000
0.353170 0.225711 0.000000
0.475990 0.201923 0.000000
0.602304 0.165835 0.000000
0.731197 0.108492 0.000000
0.858778 0.015427 0.000000
0.979446 0.000000 0.000000
1.000000 0.000000 0.000000
1.000000 0.000000 0.000000
1.000000 0.000000 0.000000
1.000000 0.000000 0.000000
1.000000 0.000000 0.000000
0.000000 0.354559 0.000000
0.000000 0.354559 0.000000
0.000000 0.353231 0.000000
0.000000 0.349676 0.000000
0.000000 0.344381 0.000000
0.161120 0.336492 0.000000
0.309850 0.324895 0.000000
0.444526 0.308064 0.000000
0.577920 0.284077 0.000000
0.711482 0.250523 0.000000
0.842298 0.204334 0.000000
0.965240 0.140154 0.000000
1.000000 0.044083 0.000000
1.000000 0.000000 0.000000
1.000000 0.000000 0.000000
1.000000 0.000000 0.000000
1.000000 0.000000 0.000000
0.000000 0.451102 0.000000
0.000000 0.451102 0.000000
0.000000 0.450050 0.000000
0.000000 0.447257 0.000000
0.000000 0.443091 0.000000
0.008377 0.436957 0.000000
0.237964 0.428016 0.000000
0.396582 0.415244 0.000000
0.542062 0.397482 0.000000
0.683024 0.373648 0.000000
0.818753 0.343053 0.000000
0.945037 0.305791 0.000000
1.000000 0.262898 0.000000
1.000000 0.216159 0.000000
1.000000 0.167544 0.000000
1.000000 0.118486 0.000000
1.000000 0.069444 0.000000
0.000000 0.554757 0.000000
0.000000 0.554757 0.000000
0.000000 0.553903 0.000000
0.000000 0.551644 0.000000
0.000000 0.548287 0.000000
0.000000 0.543359 0.000000
0.091081 0.536217 0.000000
0.321614 0.526101 0.000000
0.489738 0.512215 0.000000
0.642771 0.493935 0.000000
0.785962 0.471138 0.000000
0.917189 0.444465 0.000000
1.000000 0.415518 0.000000
1.000000 0.386496 0.000000
1.000000 0.359594 0.000000
1.000000 0.336416 0.000000
1.000000 0.317693 0.000000
0.000000 0.663142 0.000000
0.000000 0.663142 0.000000
0.000000 0.662440 0.000000
0.000000 0.660563 0.000000
0.000000 0.657786 0.000000
0.000000 0.653727 0.000000
0.000000 0.647852 0.000000
0.191501 0.639567 0.000000
0.413397 0.628305 0.000000
0.587198 0.613611 0.000000
0.741863 0.595544 0.000000
0.880262 0.574807 0.000000
1.000000 0.552834 0.000000
1.000000 0.531426 0.000000
1.000000 0.512169 0.000000
1.000000 0.496101 0.000000
1.000000 0.483482 0.000000
0.000000 0.772030 0.000000
0.000000 0.772030 0.000000
0.000000 0.771420 0.000000
0.000000 0.769833 0.000000
0.000000 0.767483 0.000000
0.000000 0.764035 0.000000
0.000000 0.759075 0.000000
0.000000 0.752102 0.000000
0.298116 0.742657 0.000000
0.512489 0.730404 0.000000
0.685115 0.715465 0.000000
0.833738 0.698497 0.000000
0.960128 0.680720 0.000000
1.000000 0.663630 0.000000
1.000000 0.648478 0.000000
1.000000 0.635981 0.000000
1.000000 0.626291 0.000000
0.000000 0.875959 0.000000
0.000000 0.875959 0.000000
0.000000 0.875441 0.000000
0.000000 0.874052 0.000000
0.000000 0.872007 0.000000
0.000000 0.869017 0.000000
0.000000 0.864698 0.000000
0.000000 0.858656 0.000000
0.072770 0.850492 0.000000
0.413809 0.839948 0.000000
0.615656 0.827131 0.000000
0.778592 0.812680 0.000000
0.913359 0.797650 0.000000
1.000000 0.783291 0.000000
1.000000 0.770657 0.000000
1.000000 0.760296 0.000000
1.000000 0.752316 0.000000
0.000000 0.969543 0.000000
0.000000 0.969543 0.000000
0.000000 0.969085 0.000000
0.000000 0.967849 0.000000
0.000000 0.966018 0.000000
0.000000 0.963333 0.000000
0.000000 0.959503 0.000000
0.000000 0.954116 0.000000
0.000000 0.946838 0.000000
0.280461 0.937484 0.000000
0.535103 0.926162 0.000000
0.717632 0.913405 0.000000
0.862776 0.900221 0.000000
0.977798 0.887663 0.000000
1.000000 0.876661 0.000000
1.000000 0.867689 0.000000
1.000000 0.860777 0.000000
0.000000 1.000000 0.000000
0.000000 1.000000 0.000000
0.000000 1.000000 0.000000
0.000000 1.000000 0.000000
0.000000 1.000000 0.000000
0.000000 1.000000 0.000000
0.000000 1.000000 0.000000
0.000000 1.000000 0.000000
0.000000 1.000000 0.000000
0.045777 1.000000 0.000000
0.446281 1.000000 0.000000
0.655039 0.997711 0.000000
0.812299 0.985748 0.000000
0.934142 0.974411 0.000000
1.000000 0.964508 0.000000
1.000000 0.956436 0.000000
1.000000 0.950225 0.000000
0.000000 1.000000 0.000000
0.000000 1.000000 0.000000
0.000000 1.000000 0.000000
0.000000 1.000000 0.000000
0.000000 1.000000 0.000000
0.000000 1.000000 0.000000
0.000000 1.000000 0.000000
0.000000 1.000000 0.000000
0.000000 1.000000 0.000000
0.000000 1.000000 0.000000
0.351949 1.000000 0.000000
0.595315 1.000000 0.000000
0.765759 1.000000 0.000000
0.894530 1.000000 0.000000
0.991287 1.000000 0.000000
1.000000 1.000000 0.000000
1.000000 1.000000 0.000000
0.000000 1.000000 0.000000
0.000000 1.000000 0.000000
0.000000 1.000000 0.000000
0.000000 1.000000 0.000000
0.000000 1.000000 0.000000
0.000000 1.000000 0.000000
0.000000 1.000000 0.000000
0.000000 1.000000 0.000000
0.000000 1.000000 0.000000
0.000000 1.000000 0.000000
0.253025 1.000000 0.000000
0.542153 1.000000 0.000000
0.725887 1.000000 0.000000
0.861143 1.000000 0.000000
0.961593 1.000000 0.000000
1.000000 1.000000 0.000000
1.000000 1.000000 0.000000
0.000000 1.000000 0.000000
0.000000 1.000000 0.000000
0.000000 1.000000 0.000000
0.000000 1.000000 0.000000
0.000000 1.000000 0.000000
0.000000 1.000000 0.000000
0.000000 1.000000 0.000000
0.000000 1.000000 0.000000
0.000000 1.000000 0.000000
0.000000 1.000000 0.000000
0.144549 1.000000 0.000000
0.497734 1.000000 0.000000
0.693843 1.000000 0.000000
0.834730 1.000000 0.000000
0.938277 1.000000 0.000000
1.000000 1.000000 0.000000
1.000000 1.000000 0.000000
0.000000 0.000000 0.096757
0.000000 0.000000 0.096757
0.029191 0.000000 0.096330
0.125475 0.000000 0.095186
0.217853 0.000000 0.093477
0.311772 0.000000 0.090959
0.412406 0.000000 0.087282
0.521508 0.000000 0.082017
0.638590 0.000000 0.074556
0.760998 0.000000 0.065354
0.883955 0.000000 0.054337
1.000000 0.000000 0.042145
1.000000 0.000000 0.029694
1.000000 0.000000 0.018051
1.000000 0.000000 0.007980
1.000000 0.000000 0.000000
1.000000 0.000000 0.000000
0.000000 0.000000 0.096757
0.000000 0.000000 0.096757
0.029191 0.000000 0.096330
