MEDT/Pirringer/Unterricht/2025-02-26/Korrektur und Grading FootageFotos-20250226T115430Z-001/Korrektur und Grading FootageFotos/Bounce Color True Basic Log Conversion LUTs/Monitor LUTs 17x17/Nikon N-Log to Rec.709 LUT.cube
# Converted by Briz LUT Converter
LUT_3D_SIZE 17
0.000000 0.000000 0.000000
0.000000 0.000000 0.000000
0.000992 0.000000 0.000000
0.144625 0.000000 0.000000
0.290578 0.000000 0.000000
0.430671 0.000000 0.000000
0.564508 0.000000 0.000000
0.688655 0.000000 0.000000
0.804990 0.000000 0.000000
0.920226 0.000000 0.000000
1.000000 0.000000 0.000000
1.000000 0.000000 0.000000
1.000000 0.000000 0.000000
1.000000 0.000000 0.000000
1.000000 0.000000 0.000000
1.000000 0.000000 0.000000
1.000000 0.000000 0.000000
0.000000 0.000000 0.000000
0.000000 0.000000 0.000000
0.000992 0.000000 0.000000
0.144625 0.000000 0.000000
0.290578 0.000000 0.000000
0.430671 0.000000 0.000000
0.564508 0.000000 0.000000
0.688655 0.000000 0.000000
0.804990 0.000000 0.000000
0.920226 0.000000 0.000000
1.000000 0.000000 0.000000
1.000000 0.000000 0.000000
1.000000 0.000000 0.000000
1.000000 0.000000 0.000000
1.000000 0.000000 0.000000
1.000000 0.000000 0.000000
1.000000 0.000000 0.000000
0.000000 0.000717 0.000000
0.000000 0.000717 0.000000
0.000610 0.000626 0.000000
0.144350 0.000000 0.000000
0.290425 0.000000 0.000000
0.430579 0.000000 0.000000
0.564431 0.000000 0.000000
0.688579 0.000000 0.000000
0.804944 0.000000 0.000000
0.920180 0.000000 0.000000
1.000000 0.000000 0.000000
1.000000 0.000000 0.000000
1.000000 0.000000 0.000000
1.000000 0.000000 0.000000
1.000000 0.000000 0.000000
1.000000 0.000000 0.000000
1.000000 0.000000 0.000000
0.000000 0.111528 0.000000
0.000000 0.111528 0.000000
0.000000 0.111437 0.000000
0.096742 0.098711 0.000000
0.265843 0.072084 0.000000
0.414023 0.030686 0.000000
0.551965 0.000000 0.000000
0.678508 0.000000 0.000000
0.796445 0.000000 0.000000
0.912840 0.000000 0.000000
1.000000 0.000000 0.000000
1.000000 0.000000 0.000000
1.000000 0.000000 0.000000
1.000000 0.000000 0.000000
1.000000 0.000000 0.000000
1.000000 0.000000 0.000000
1.000000 0.000000 0.000000
0.000000 0.237644 0.000000
0.000000 0.237644 0.000000
0.000000 0.237613 0.000000
0.000000 0.230610 0.000000
0.214008 0.217166 0.000000
0.381537 0.195392 0.000000
0.528084 0.163394 0.000000
0.659434 0.118151 0.000000
0.780453 0.050156 0.000000
0.899107 0.000000 0.000000
1.000000 0.000000 0.000000
1.000000 0.000000 0.000000
1.000000 0.000000 0.000000
1.000000 0.000000 0.000000
1.000000 0.000000 0.000000
1.000000 0.000000 0.000000
1.000000 0.000000 0.000000
0.000000 0.358709 0.000000
0.000000 0.358709 0.000000
0.000000 0.358679 0.000000
0.000000 0.353902 0.000000
0.105150 0.344900 0.000000
0.326574 0.330861 0.000000
0.489708 0.311498 0.000000
0.629419 0.287175 0.000000
0.755596 0.257191 0.000000
0.877913 0.218067 0.000000
0.990311 0.168551 0.000000
1.000000 0.106035 0.000000
1.000000 0.030152 0.000000
1.000000 0.000000 0.000000
1.000000 0.000000 0.000000
1.000000 0.000000 0.000000
1.000000 0.000000 0.000000
0.000000 0.474372 0.000000
0.000000 0.474372 0.000000
0.000000 0.474342 0.000000
0.000000 0.470726 0.000000
0.000000 0.463966 0.000000
0.237415 0.453529 0.000000
0.434104 0.439475 0.000000
0.587564 0.422309 0.000000
0.721523 0.402029 0.000000
0.849165 0.377203 0.000000
0.965255 0.348913 0.000000
1.000000 0.319066 0.000000
1.000000 0.290013 0.000000
1.000000 0.263828 0.000000
1.000000 0.241840 0.000000
1.000000 0.224475 0.000000
1.000000 0.223239 0.000000
0.000000 0.581643 0.000000
0.000000 0.581643 0.000000
0.000000 0.581613 0.000000
0.000000 0.578683 0.000000
0.000000 0.573220 0.000000
0.062180 0.564874 0.000000
0.357809 0.553689 0.000000
0.533852 0.540215 0.000000
0.679042 0.524544 0.000000
0.813886 0.505776 0.000000
0.934783 0.484977 0.000000
1.000000 0.463798 0.000000
1.000000 0.444038 0.000000
1.000000 0.427008 0.000000
1.000000 0.413336 0.000000
1.000000 0.402991 0.000000
1.000000 0.402258 0.000000
0.000000 0.682170 0.000000
0.000000 0.682170 0.000000
0.000000 0.682155 0.000000
0.000000 0.679683 0.000000
0.000000 0.675090 0.000000
0.000000 0.668055 0.000000
0.246357 0.658717 0.000000
0.465492 0.647532 0.000000
0.627329 0.634638 0.000000
0.771893 0.619333 0.000000
0.898955 0.602594 0.000000
1.000000 0.585794 0.000000
1.000000 0.570367 0.000000
1.000000 0.557275 0.000000
1.000000 0.546914 0.000000
1.000000 0.539147 0.000000
1.000000 0.538613 0.000000
0.000000 0.781750 0.000000
0.000000 0.781750 0.000000
0.000000 0.781735 0.000000
0.000000 0.779599 0.000000
0.000000 0.775631 0.000000
0.000000 0.769589 0.000000
0.000580 0.761578 0.000000
0.370809 0.752026 0.000000
0.561120 0.741070 0.000000
0.719905 0.728145 0.000000
0.855390 0.714107 0.000000
0.967880 0.700145 0.000000
1.000000 0.687419 0.000000
1.000000 0.676707 0.000000
1.000000 0.668284 0.000000
1.000000 0.662013 0.000000
1.000000 0.661570 0.000000
0.000000 0.874495 0.000000
0.000000 0.874495 0.000000
0.000000 0.874495 0.000000
0.000000 0.872602 0.000000
0.000000 0.869093 0.000000
0.000000 0.863767 0.000000
0.000000 0.856703 0.000000
0.233387 0.848310 0.000000
0.480293 0.838712 0.000000
0.659709 0.827436 0.000000
0.806149 0.815244 0.000000
0.925216 0.803174 0.000000
1.000000 0.792233 0.000000
1.000000 0.783062 0.000000
1.000000 0.775876 0.000000
1.000000 0.770535 0.000000
1.000000 0.770169 0.000000
0.000000 0.955489 0.000000
0.000000 0.955489 0.000000
0.000000 0.955474 0.000000
0.000000 0.953765 0.000000
0.000000 0.950591 0.000000
0.000000 0.945769 0.000000
0.000000 0.939376 0.000000
0.000000 0.931807 0.000000
0.385367 0.923156 0.000000
0.594827 0.913024 0.000000
0.754803 0.902098 0.000000
0.881453 0.891310 0.000000
0.979675 0.881559 0.000000
1.000000 0.873396 0.000000
1.000000 0.867033 0.000000
1.000000 0.862303 0.000000
1.000000 0.861982 0.000000
0.000000 1.000000 0.000000
0.000000 1.000000 0.000000
0.000000 1.000000 0.000000
0.000000 1.000000 0.000000
0.000000 1.000000 0.000000
0.000000 1.000000 0.000000
0.000000 1.000000 0.000000
0.000000 0.999939 0.000000
0.275273 0.991958 0.000000
0.529854 0.982605 0.000000
0.705516 0.972534 0.000000
0.840238 0.962631 0.000000
0.943191 0.953674 0.000000
1.000000 0.946197 0.000000
1.000000 0.940368 0.000000
1.000000 0.936049 0.000000
1.000000 0.935760 0.000000
0.000000 1.000000 0.000000
0.000000 1.000000 0.000000
0.000000 1.000000 0.000000
0.000000 1.000000 0.000000
0.000000 1.000000 0.000000
0.000000 1.000000 0.000000
0.000000 1.000000 0.000000
0.000000 1.000000 0.000000
0.137560 1.000000 0.000000
0.469215 1.000000 0.000000
0.661814 1.000000 0.000000
0.804440 1.000000 0.000000
0.911818 1.000000 0.000000
0.991012 1.000000 0.000000
1.000000 0.996506 0.000000
1.000000 0.992462 0.000000
1.000000 0.992172 0.000000
0.000000 1.000000 0.000000
0.000000 1.000000 0.000000
0.000000 1.000000 0.000000
0.000000 1.000000 0.000000
0.000000 1.000000 0.000000
0.000000 1.000000 0.000000
0.000000 1.000000 0.000000
0.000000 1.000000 0.000000
0.000000 1.000000 0.000000
0.416159 1.000000 0.000000
0.625742 1.000000 0.000000
0.775479 1.000000 0.000000
0.886687 1.000000 0.000000
0.968139 1.000000 0.000000
1.000000 1.000000 0.000000
1.000000 1.000000 0.000000
1.000000 1.000000 0.000000
0.000000 1.000000 0.000000
0.000000 1.000000 0.000000
0.000000 1.000000 0.000000
0.000000 1.000000 0.000000
0.000000 1.000000 0.000000
0.000000 1.000000 0.000000
0.000000 1.000000 0.000000
0.000000 1.000000 0.000000
0.000000 1.000000 0.000000
0.372351 1.000000 0.000000
0.597711 1.000000 0.000000
0.753384 1.000000 0.000000
0.867658 1.000000 0.000000
0.950912 1.000000 0.000000
1.000000 1.000000 0.000000
1.000000 1.000000 0.000000
1.000000 1.000000 0.000000
0.000000 1.000000 0.000000
0.000000 1.000000 0.000000
0.000000 1.000000 0.000000
0.000000 1.000000 0.000000
0.000000 1.000000 0.000000
0.000000 1.000000 0.000000
0.000000 1.000000 0.000000
0.000000 1.000000 0.000000
0.000000 1.000000 0.000000
0.369131 1.000000 0.000000
0.595728 1.000000 0.000000
0.751827 1.000000 0.000000
0.866331 1.000000 0.000000
0.949706 1.000000 0.000000
1.000000 1.000000 0.000000
1.000000 1.000000 0.000000
1.000000 1.000000 0.000000
0.000000 0.000000 0.000000
0.000000 0.000000 0.000000
0.000992 0.000000 0.000000
0.144625 0.000000 0.000000
0.290578 0.000000 0.000000
0.430671 0.000000 0.000000
0.564508 0.000000 0.000000
0.688655 0.000000 0.000000
0.804990 0.000000 0.000000
0.920226 0.000000 0.000000
1.000000 0.000000 0.000000
1.000000 0.000000 0.000000
1.000000 0.000000 0.000000
1.000000 0.000000 0.000000
1.000000 0.000000 0.000000
1.000000 0.000000 0.000000
1.000000 0.000000 0.000000
0.000000 0.000000 0.000000
0.000000 0.000000 0.000000
0.000992 0.000000 0.000000
0.144625 0.000000 0.000000
0.290578 0.000000 0.000000
0.430671 0.000000 0.000000
0.564508 0.000000 0.000000
0.688655 0.000000 0.000000
0.804990 0.000000 0.000000
0.920226 0.000000 0.000000
1.000000 0.000000 0.000000
1.000000 0.000000 0.000000
1.000000 0.000000 0.000000
1.000000 0.000000 0.000000
1.000000 0.000000 0.000000
1.000000 0.000000 0.000000
1.000000 0.000000 0.000000
0.000000 0.000717 0.000000
0.000000 0.000717 0.000000
0.000610 0.000626 0.000000
0.144350 0.000000 0.000000
0.290425 0.000000 0.000000
0.430579 0.000000 0.000000
0.564431 0.000000 0.000000
0.688579 0.000000 0.000000
0.804944 0.000000 0.000000
0.920180 0.000000 0.000000
1.000000 0.000000 0.000000
1.000000 0.000000 0.000000
1.000000 0.000000 0.000000
1.000000 0.000000 0.000000
1.000000 0.000000 0.000000
1.000000 0.000000 0.000000
1.000000 0.000000 0.000000
0.000000 0.111528 0.000000
0.000000 0.111528 0.000000
0.000000 0.111437 0.000000
0.096742 0.098711 0.000000
0.265843 0.072084 0.000000
0.414023 0.030686 0.000000
0.551965 0.000000 0.000000
0.678508 0.000000 0.000000
0.796445 0.000000 0.000000
0.912840 0.000000 0.000000
1.000000 0.000000 0.000000
1.000000 0.000000 0.000000
1.000000 0.000000 0.000000
1.000000 0.000000 0.000000
1.000000 0.000000 0.000000
1.000000 0.000000 0.000000
1.000000 0.000000 0.000000
0.000000 0.237644 0.000000
0.000000 0.237644 0.000000
0.000000 0.237613 0.000000
0.000000 0.230610 0.000000
0.214008 0.217166 0.000000
0.381537 0.195392 0.000000
0.528084 0.163394 0.000000
0.659434 0.118151 0.000000
0.780453 0.050156 0.000000
0.899107 0.000000 0.000000
1.000000 0.000000 0.000000
1.000000 0.000000 0.000000
1.000000 0.000000 0.000000
1.000000 0.000000 0.000000
1.000000 0.000000 0.000000
1.000000 0.000000 0.000000
1.000000 0.000000 0.000000
0.000000 0.358709 0.000000
0.000000 0.358709 0.000000
0.000000 0.358679 0.000000
0.000000 0.353902 0.000000
0.105150 0.344900 0.000000
0.326574 0.330861 0.000000
0.489708 0.311498 0.000000
0.629419 0.287175 0.000000
0.755596 0.257191 0.000000
0.877913 0.218067 0.000000
0.990311 0.168551 0.000000
1.000000 0.106035 0.000000
1.000000 0.030152 0.000000
1.000000 0.000000 0.000000
1.000000 0.000000 0.000000
1.000000 0.000000 0.000000
1.000000 0.000000 0.000000
0.000000 0.474372 0.000000
0.000000 0.474372 0.000000
0.000000 0.474342 0.000000
0.000000 0.470726 0.000000
0.000000 0.463966 0.000000
0.237415 0.453529 0.000000
0.434104 0.439475 0.000000
0.587564 0.422309 0.000000
0.721523 0.402029 0.000000
0.849165 0.377203 0.000000
0.965255 0.348913 0.000000
1.000000 0.319066 0.000000
1.000000 0.290013 0.000000
1.000000 0.263828 0.000000
1.000000 0.241840 0.000000
1.000000 0.224475 0.000000
1.000000 0.223239 0.000000
0.000000 0.581643 0.000000
0.000000 0.581643 0.000000
0.000000 0.581613 0.000000
0.000000 0.578683 0.000000
0.000000 0.573220 0.000000
0.062180 0.564874 0.000000
0.357809 0.553689 0.000000
0.533852 0.540215 0.000000
0.679042 0.524544 0.000000
0.813886 0.505776 0.000000
0.934783 0.484977 0.000000
1.000000 0.463798 0.000000
1.000000 0.444038 0.000000
1.000000 0.427008 0.000000
1.000000 0.413336 0.000000
1.000000 0.402991 0.000000
1.000000 0.402258 0.000000
0.000000 0.682170 0.000000
0.000000 0.682170 0.000000
0.000000 0.682155 0.000000
0.000000 0.679683 0.000000
0.000000 0.675090 0.000000
0.000000 0.668055 0.000000
0.246357 0.658717 0.000000
0.465492 0.647532 0.000000
0.627329 0.634638 0.000000
0.771893 0.619333 0.000000
0.898955 0.602594 0.000000
1.000000 0.585794 0.000000
1.000000 0.570367 0.000000
1.000000 0.557275 0.000000
1.000000 0.546914 0.000000
1.000000 0.539147 0.000000
1.000000 0.538613 0.000000
0.000000 0.781750 0.000000
0.000000 0.781750 0.000000
0.000000 0.781735 0.000000
0.000000 0.779599 0.000000
0.000000 0.775631 0.000000
0.000000 0.769589 0.000000
0.000580 0.761578 0.000000
0.370809 0.752026 0.000000
0.561120 0.741070 0.000000
0.719905 0.728145 0.000000
0.855390 0.714107 0.000000
0.967880 0.700145 0.000000
1.000000 0.687419 0.000000
1.000000 0.676707 0.000000
1.000000 0.668284 0.000000
1.000000 0.662013 0.000000
1.000000 0.661570 0.000000
0.000000 0.874495 0.000000
0.000000 0.874495 0.000000
0.000000 0.874495 0.000000
0.000000 0.872602 0.000000
0.000000 0.869093 0.000000
0.000000 0.863767 0.000000
0.000000 0.856703 0.000000
0.233387 0.848310 0.000000
0.480293 0.838712 0.000000
0.659709 0.827436 0.000000
0.806149 0.815244 0.000000
0.925216 0.803174 0.000000
1.000000 0.792233 0.000000
1.000000 0.783062 0.000000
1.000000 0.775876 0.000000
1.000000 0.770535 0.000000
1.000000 0.770169 0.000000
0.000000 0.955489 0.000000
0.000000 0.955489 0.000000
0.000000 0.955474 0.000000
0.000000 0.953765 0.000000
0.000000 0.950591 0.000000
0.000000 0.945769 0.000000
0.000000 0.939376 0.000000
0.000000 0.931807 0.000000
0.385367 0.923156 0.000000
0.594827 0.913024 0.000000
0.754803 0.902098 0.000000
0.881453 0.891310 0.000000
0.979675 0.881559 0.000000
1.000000 0.873396 0.000000
1.000000 0.867033 0.000000
1.000000 0.862303 0.000000
1.000000 0.861982 0.000000
0.000000 1.000000 0.000000
0.000000 1.000000 0.000000
0.000000 1.000000 0.000000
0.000000 1.000000 0.000000
0.000000 1.000000 0.000000
0.000000 1.000000 0.000000
0.000000 1.000000 0.000000
0.000000 0.999939 0.000000
0.275273 0.991958 0.000000
0.529854 0.982605 0.000000
0.705516 0.972534 0.000000
0.840238 0.962631 0.000000
0.943191 0.953674 0.000000
1.000000 0.946197 0.000000
1.000000 0.940368 0.000000
1.000000 0.936049 0.000000
1.000000 0.935760 0.000000
0.000000 1.000000 0.000000
0.000000 1.000000 0.000000
0.000000 1.000000 0.000000
0.000000 1.000000 0.000000
0.000000 1.000000 0.000000
0.000000 1.000000 0.000000
0.000000 1.000000 0.000000
0.000000 1.000000 0.000000
0.137560 1.000000 0.000000
0.469215 1.000000 0.000000
0.661814 1.000000 0.000000
0.804440 1.000000 0.000000
0.911818 1.000000 0.000000
0.991012 1.000000 0.000000
1.000000 0.996506 0.000000
1.000000 0.992462 0.000000
1.000000 0.992172 0.000000
0.000000 1.000000 0.000000
0.000000 1.000000 0.000000
0.000000 1.000000 0.000000
0.000000 1.000000 0.000000
0.000000 1.000000 0.000000
0.000000 1.000000 0.000000
0.000000 1.000000 0.000000
0.000000 1.000000 0.000000
0.000000 1.000000 0.000000
0.416159 1.000000 0.000000
0.625742 1.000000 0.000000
0.775479 1.000000 0.000000
0.886687 1.000000 0.000000
0.968139 1.000000 0.000000
1.000000 1.000000 0.000000
1.000000 1.000000 0.000000
1.000000 1.000000 0.000000
0.000000 1.000000 0.000000
0.000000 1.000000 0.000000
0.000000 1.000000 0.000000
0.000000 1.000000 0.000000
0.000000 1.000000 0.000000
0.000000 1.000000 0.000000
0.000000 1.000000 0.000000
0.000000 1.000000 0.000000
0.000000 1.000000 0.000000
0.372351 1.000000 0.000000
0.597711 1.000000 0.000000
0.753384 1.000000 0.000000
0.867658 1.000000 0.000000
0.950912 1.000000 0.000000
1.000000 1.000000 0.000000
1.000000 1.000000 0.000000
1.000000 1.000000 0.000000
0.000000 1.000000 0.000000
0.000000 1.000000 0.000000
0.000000 1.000000 0.000000
0.000000 1.000000 0.000000
0.000000 1.000000 0.000000
0.000000 1.000000 0.000000
0.000000 1.000000 0.000000
0.000000 1.000000 0.000000
0.000000 1.000000 0.000000
0.369131 1.000000 0.000000
0.595728 1.000000 0.000000
0.751827 1.000000 0.000000
0.866331 1.000000 0.000000
0.949706 1.000000 0.000000
1.000000 1.000000 0.000000
1.000000 1.000000 0.000000
1.000000 1.000000 0.000000
0.000000 0.000000 0.000641
0.000000 0.000000 0.000641
0.000931 0.000000 0.000626
0.144579 0.000000 0.000000
0.290562 0.000000 0.000000
0.430655 0.000000 0.000000
0.564508 0.000000 0.000000
0.688640 0.000000 0.000000
0.804990 0.000000 0.000000
0.920211 0.000000 0.000000
1.000000 0.000000 0.000000
1.000000 0.000000 0.000000
1.000000 0.000000 0.000000
1.000000 0.000000 0.000000
1.000000 0.000000 0.000000
1.000000 0.000000 0.000000
1.000000 0.000000 0.000000
0.000000 0.000000 0.000641
0.000000 0.000000 0.000641
0.000931 0.000000 0.000626
0.144579 0.000000 0.000000
0.290562 0.000000 0.000000
0.430655 0.000000 0.000000
0.564508 0.000000 0.000000
0.688640 0.000000 0.000000
0.804990 0.000000 0.000000
0.920211 0.000000 0.000000
1.000000 0.000000 0.000000
1.000000 0.000000 0.000000
1.000000 0.000000 0.000000
1.000000 0.000000 0.000000
1.000000 0.000000 0.000000
1.000000 0.000000 0.000000
1.000000 0.000000 0.000000
0.000000 0.000641 0.000565
0.000000 0.000641 0.000565
0.000549 0.000549 0.000549
0.144320 0.000000 0.000000
0.290410 0.000000 0.000000
0.430564 0.000000 0.000000
0.564416 0.000000 0.000000
0.688579 0.000000 0.000000
0.804929 0.000000 0.000000
0.920165 0.000000 0.000000
1.000000 0.000000 0.000000
1.000000 0.000000 0.000000
1.000000 0.000000 0.000000
1.000000 0.000000 0.000000
1.000000 0.000000 0.000000
1.000000 0.000000 0.000000
1.000000 0.000000 0.000000
0.000000 0.111452 0.000000
0.000000 0.111452 0.000000
0.000000 0.111376 0.000000
0.096681 0.098634 0.000000
0.265812 0.072023 0.000000
0.414008 0.030625 0.000000
0.551949 0.000000 0.000000
0.678492 0.000000 0.000000
0.796429 0.000000 0.000000
0.912840 0.000000 0.000000
1.000000 0.000000 0.000000
1.000000 0.000000 0.000000
1.000000 0.000000 0.000000
1.000000 0.000000 0.000000
1.000000 0.000000 0.000000
1.000000 0.000000 0.000000
1.000000 0.000000 0.000000
0.000000 0.237613 0.000000
0.000000 0.237613 0.000000
0.000000 0.237568 0.000000
0.000000 0.230579 0.000000
0.213977 0.217121 0.000000
0.381506 0.195346 0.000000
0.528069 0.163348 0.000000
0.659419 0.118105 0.000000
0.780453 0.050080 0.000000
0.899107 0.000000 0.000000
1.000000 0.000000 0.000000
1.000000 0.000000 0.000000
1.000000 0.000000 0.000000
1.000000 0.000000 0.000000
1.000000 0.000000 0.000000
1.000000 0.000000 0.000000
1.000000 0.000000 0.000000
0.000000 0.358694 0.000000
0.000000 0.358694 0.000000
0.000000 0.358663 0.000000
0.000000 0.353887 0.000000
0.105089 0.344884 0.000000
0.326558 0.330831 0.000000
0.489693 0.311482 0.000000
0.629419 0.287144 0.000000
0.755581 0.257160 0.000000
0.877897 0.218021 0.000000
0.990311 0.168505 0.000000
1.000000 0.105974 0.000000
1.000000 0.030076 0.000000
1.000000 0.000000 0.000000
1.000000 0.000000 0.000000
1.000000 0.000000 0.000000
1.000000 0.000000 0.000000
0.000000 0.474342 0.000000
0.000000 0.474342 0.000000
0.000000 0.474327 0.000000
0.000000 0.470710 0.000000
0.000000 0.463935 0.000000
0.237385 0.453513 0.000000
0.434089 0.439445 0.000000
0.587549 0.422278 0.000000
0.721523 0.401999 0.000000
0.849165 0.377188 0.000000
0.965255 0.348882 0.000000
1.000000 0.319036 0.000000
1.000000 0.289982 0.000000
1.000000 0.263798 0.000000
1.000000 0.241810 0.000000
1.000000 0.224445 0.000000
1.000000 0.223194 0.000000
0.000000 0.581628 0.000000
0.000000 0.581628 0.000000
0.000000 0.581598 0.000000
0.000000 0.578668 0.000000
0.000000 0.573205 0.000000
0.062120 0.564858 0.000000
0.357794 0.553674 0.000000
0.533837 0.540200 0.000000
0.679042 0.524529 0.000000
0.813870 0.505760 0.000000
0.934768 0.484962 0.000000
1.000000 0.463783 0.000000
1.000000 0.444007 0.000000
1.000000 0.426978 0.000000
1.000000 0.413321 0.000000
1.000000 0.402960 0.000000
1.000000 0.402243 0.000000
0.000000 0.682170 0.000000
0.000000 0.682170 0.000000
0.000000 0.682139 0.000000
0.000000 0.679667 0.000000
0.000000 0.675074 0.000000
0.000000 0.668055 0.000000
0.246326 0.658701 0.000000
0.465476 0.647517 0.000000
0.627314 0.634623 0.000000
0.771878 0.619318 0.000000
0.898955 0.602579 0.000000
1.000000 0.585779 0.000000
1.000000 0.570352 0.000000
1.000000 0.557260 0.000000
1.000000 0.546899 0.000000
1.000000 0.539132 0.000000
1.000000 0.538598 0.000000
0.000000 0.781735 0.000000
0.000000 0.781735 0.000000
0.000000 0.781720 0.000000
0.000000 0.779583 0.000000
0.000000 0.775616 0.000000
0.000000 0.769574 0.000000
0.000519 0.761563 0.000000
0.370779 0.752010 0.000000
0.561120 0.741054 0.000000
0.719890 0.728130 0.000000
0.855375 0.714092 0.000000
0.967865 0.700130 0.000000
1.000000 0.687404 0.000000
1.000000 0.676692 0.000000
1.000000 0.668269 0.000000
1.000000 0.661997 0.000000
1.000000 0.661555 0.000000
0.000000 0.874495 0.000000
0.000000 0.874495 0.000000
0.000000 0.874479 0.000000
0.000000 0.872587 0.000000
0.000000 0.869078 0.000000
0.000000 0.863752 0.000000
0.000000 0.856703 0.000000
0.233356 0.848295 0.000000
0.480278 0.838697 0.000000
0.659693 0.827436 0.000000
0.806134 0.815244 0.000000
0.925200 0.803174 0.000000
1.000000 0.792218 0.000000
1.000000 0.783047 0.000000
1.000000 0.775860 0.000000
1.000000 0.770520 0.000000
1.000000 0.770153 0.000000
0.000000 0.955489 0.000000
0.000000 0.955489 0.000000
0.000000 0.955474 0.000000
0.000000 0.953765 0.000000
0.000000 0.950576 0.000000
0.000000 0.945754 0.000000
0.000000 0.939376 0.000000
0.000000 0.931792 0.000000
0.385351 0.923156 0.000000
0.594812 0.913024 0.000000
0.754788 0.902083 0.000000
0.881437 0.891310 0.000000
0.979660 0.881544 0.000000
1.000000 0.873396 0.000000
1.000000 0.867018 0.000000
1.000000 0.862303 0.000000
1.000000 0.861967 0.000000
0.000000 1.000000 0.000000
0.000000 1.000000 0.000000
0.000000 1.000000 0.000000
0.000000 1.000000 0.000000
0.000000 1.000000 0.000000
0.000000 1.000000 0.000000
0.000000 1.000000 0.000000
0.000000 0.999939 0.000000
0.275242 0.991943 0.000000
0.529839 0.982589 0.000000
0.705501 0.972534 0.000000
0.840223 0.962615 0.000000
0.943175 0.953658 0.000000
1.000000 0.946197 0.000000
1.000000 0.940368 0.000000
1.000000 0.936049 0.000000
1.000000 0.935744 0.000000
0.000000 1.000000 0.000000
0.000000 1.000000 0.000000
0.000000 1.000000 0.000000
0.000000 1.000000 0.000000
0.000000 1.000000 0.000000
0.000000 1.000000 0.000000
0.000000 1.000000 0.000000
0.000000 1.000000 0.000000
0.137514 1.000000 0.000000
0.469200 1.000000 0.000000
0.661814 1.000000 0.000000
0.804425 1.000000 0.000000
0.911803 1.000000 0.000000
0.990997 1.000000 0.000000
1.000000 0.996506 0.000000
1.000000 0.992447 0.000000
1.000000 0.992172 0.000000
0.000000 1.000000 0.000000
0.000000 1.000000 0.000000
0.000000 1.000000 0.000000
0.000000 1.000000 0.000000
0.000000 1.000000 0.000000
0.000000 1.000000 0.000000
0.000000 1.000000 0.000000
0.000000 1.000000 0.000000
0.000000 1.000000 0.000000
0.416144 1.000000 0.000000
0.625727 1.000000 0.000000
0.775464 1.000000 0.000000
0.886671 1.000000 0.000000
0.968139 1.000000 0.000000
1.000000 1.000000 0.000000
1.000000 1.000000 0.000000
1.000000 1.000000 0.000000
0.000000 1.000000 0.000000
0.000000 1.000000 0.000000
0.000000 1.000000 0.000000
0.000000 1.000000 0.000000
0.000000 1.000000 0.000000
0.000000 1.000000 0.000000
0.000000 1.000000 0.000000
0.000000 1.000000 0.000000
0.000000 1.000000 0.000000
0.372335 1.000000 0.000000
0.597696 1.000000 0.000000
0.753368 1.000000 0.000000
0.867658 1.000000 0.000000
0.950912 1.000000 0.000000
1.000000 1.000000 0.000000
1.000000 1.000000 0.000000
1.000000 1.000000 0.000000
0.000000 1.000000 0.000000
0.000000 1.000000 0.000000
0.000000 1.000000 0.000000
0.000000 1.000000 0.000000
0.000000 1.000000 0.000000
0.000000 1.000000 0.000000
0.000000 1.000000 0.000000
0.000000 1.000000 0.000000
0.000000 1.000000 0.000000
0.369116 1.000000 0.000000
0.595712 1.000000 0.000000
0.751812 1.000000 0.000000
0.866316 1.000000 0.000000
0.949706 1.000000 0.000000
1.000000 1.000000 0.000000
1.000000 1.000000 0.000000
1.000000 1.000000 0.000000
0.000000 0.000000 0.102098
0.000000 0.000000 0.102098
0.000000 0.000000 0.102098
0.137774 0.000000 0.100160
0.286763 0.000000 0.096529
0.428061 0.000000 0.090852
0.562539 0.000000 0.083101
0.687037 0.000000 0.073365
0.803632 0.000000 0.062638
0.919051 0.000000 0.050202
1.000000 0.000000 0.036973
1.000000 0.000000 0.024079
1.000000 0.000000 0.012573
1.000000 0.000000 0.003052
1.000000 0.000000 0.000000
1.000000 0.000000 0.000000
1.000000 0.000000 0.000000
0.000000 0.000000 0.102098
0.000000 0.000000 0.102098
0.000000 0.000000 0.102098
