MEDT/Pirringer/Unterricht/2025-02-26/Korrektur und Grading FootageFotos-20250226T115430Z-001/Korrektur und Grading FootageFotos/Bounce Color True Basic Log Conversion LUTs/Monitor LUTs 17x17/RED RedLogFilm DragonColor2 to Rec.709.cube
# Converted by Briz LUT Converter
LUT_3D_SIZE 17
0.000000 0.000000 0.000000
0.000000 0.000000 0.000000
0.016922 0.000000 0.000000
0.066377 0.000000 0.000000
0.135317 0.000000 0.000000
0.210697 0.000000 0.000000
0.295201 0.000000 0.000000
0.391012 0.000000 0.000000
0.496406 0.000000 0.000000
0.608270 0.000000 0.000000
0.719799 0.000000 0.000000
0.822629 0.000000 0.000000
0.910124 0.000000 0.000000
0.978668 0.000000 0.000000
0.999802 0.000000 0.000000
0.999802 0.000000 0.000000
0.999802 0.000000 0.000000
0.000000 0.000000 0.000000
0.000000 0.000000 0.000000
0.016922 0.000000 0.000000
0.066377 0.000000 0.000000
0.135317 0.000000 0.000000
0.210697 0.000000 0.000000
0.295201 0.000000 0.000000
0.391012 0.000000 0.000000
0.496406 0.000000 0.000000
0.608270 0.000000 0.000000
0.719799 0.000000 0.000000
0.822629 0.000000 0.000000
0.910124 0.000000 0.000000
0.978668 0.000000 0.000000
0.999802 0.000000 0.000000
0.999802 0.000000 0.000000
0.999802 0.000000 0.000000
0.000000 0.016098 0.000000
0.000000 0.016098 0.000000
0.014969 0.014969 0.000000
0.064576 0.012039 0.000000
0.134295 0.007401 0.000046
0.209873 0.000000 0.000000
0.294438 0.000000 0.000000
0.390433 0.000000 0.000000
0.495949 0.000000 0.000000
0.607935 0.000000 0.000000
0.719463 0.000000 0.000000
0.822324 0.000000 0.000000
0.909865 0.000000 0.000000
0.978424 0.000000 0.000000
0.999802 0.000000 0.000000
0.999802 0.000000 0.000000
0.999802 0.000000 0.000000
0.000000 0.062608 0.000000
0.000000 0.062608 0.000000
0.009186 0.061631 0.000000
0.058717 0.058717 0.000000
0.130098 0.054063 0.000061
0.206744 0.046479 0.000000
0.292561 0.035065 0.000000
0.388861 0.017945 0.000000
0.494697 0.000000 0.000000
0.606851 0.000000 0.000000
0.718502 0.000000 0.000000
0.821500 0.000000 0.000000
0.909133 0.000000 0.000000
0.977737 0.000000 0.000000
0.999802 0.000000 0.000000
0.999802 0.000000 0.000000
0.999802 0.000000 0.000000
0.000000 0.129351 0.000000
0.000000 0.129351 0.000000
0.000000 0.128725 0.000000
0.049531 0.126497 0.000076
0.122866 0.122866 0.000000
0.201862 0.116854 0.000000
0.288899 0.107561 0.000000
0.386175 0.092439 0.000076
0.492729 0.068284 0.000000
0.605341 0.036194 0.000000
0.716976 0.000000 0.000000
0.820172 0.000000 0.000000
0.907942 0.000000 0.000000
0.976654 0.000000 0.000000
0.999802 0.000000 0.000000
0.999802 0.000000 0.000000
0.999802 0.000000 0.000000
0.000000 0.202564 0.000000
0.000000 0.202564 0.000000
0.000000 0.201984 0.000000
0.034623 0.200412 0.000000
0.111055 0.198093 0.000092
0.193957 0.193957 0.000031
0.283101 0.187472 0.000000
0.381674 0.177447 0.000000
0.489296 0.162753 0.000031
0.602625 0.141329 0.000076
0.714931 0.111635 0.000000
0.818662 0.072557 0.000000
0.906600 0.031846 0.000000
0.974929 0.000000 0.000000
0.999802 0.000000 0.000000
0.999802 0.000000 0.000000
0.999802 0.000000 0.000000
0.000000 0.285054 0.000000
0.000000 0.285054 0.000000
0.000000 0.284627 0.000000
0.011994 0.283574 0.000031
0.091127 0.281651 0.000061
0.181170 0.278599 0.000107
0.273762 0.273762 0.000000
0.374701 0.266712 0.000000
0.483864 0.256245 0.000000
0.598321 0.242008 0.000015
0.711391 0.223392 0.000000
0.815610 0.202029 0.000015
0.903685 0.179156 0.000000
0.972717 0.157534 0.000000
0.999954 0.139162 0.000000
1.000000 0.124758 0.000183
1.000000 0.120104 0.000092
0.000000 0.377966 0.000000
0.000000 0.377966 0.000000
0.000000 0.377691 0.000000
0.000015 0.376822 0.000015
0.057160 0.375296 0.000000
0.160220 0.373205 0.000000
0.259556 0.369421 0.000000
0.364141 0.364141 0.000000
0.475746 0.356481 0.000000
0.591852 0.345953 0.000031
0.705867 0.332876 0.000000
0.810727 0.317891 0.000000
0.899489 0.302983 0.000000
0.969055 0.289738 0.000031
1.000000 0.278935 0.000168
1.000000 0.270909 0.000244
1.000000 0.268482 0.000061
0.000000 0.480583 0.000000
0.000000 0.480583 0.000000
0.000000 0.480323 0.000000
0.000000 0.479606 0.000000
0.008896 0.478645 0.000000
0.126589 0.476829 0.000000
0.238148 0.474174 0.000092
0.348623 0.469902 0.000000
0.464012 0.464012 0.000076
0.582238 0.455787 0.000000
0.698039 0.445930 0.000000
0.804044 0.434806 0.000000
0.893660 0.423972 0.000046
0.963378 0.414374 0.000000
1.000000 0.406851 0.000076
1.000000 0.401068 0.000107
1.000000 0.399359 0.000015
0.000000 0.589609 0.000000
0.000000 0.589609 0.000000
0.000000 0.589395 0.000000
0.000000 0.588800 0.000000
0.000000 0.587854 0.000000
0.069993 0.586435 0.000000
0.206516 0.584329 0.000000
0.327077 0.580880 0.000000
0.447639 0.576028 0.000000
0.569558 0.569558 0.000031
0.687846 0.561639 0.000000
0.795163 0.553002 0.000015
0.885618 0.544366 0.000000
0.956054 0.536980 0.000015
1.000000 0.531319 0.000168
1.000000 0.527001 0.000031
1.000000 0.525689 0.000031
0.000000 0.697932 0.000000
0.000000 0.697932 0.000000
0.000000 0.697765 0.000000
0.000000 0.697292 0.000000
0.000000 0.696529 0.000000
0.000000 0.695277 0.000000
0.162341 0.693507 0.000000
0.299123 0.690761 0.000061
0.427497 0.686809 0.000000
0.553689 0.681453 0.000000
0.674784 0.674784 0.000000
0.784283 0.667689 0.000000
0.875776 0.660700 0.000000
0.947234 0.654688 0.000000
0.998932 0.649897 0.000015
0.999969 0.646494 0.000000
0.999969 0.645426 0.000000
0.000000 0.798108 0.000000
0.000000 0.798108 0.000000
0.000000 0.797955 0.000000
0.000000 0.797528 0.000000
0.000000 0.796841 0.000000
0.000000 0.795758 0.000000
0.100816 0.794339 0.000000
0.265599 0.792004 0.000000
0.404318 0.788388 0.000000
0.536049 0.783795 0.000000
0.660655 0.778378 0.000000
0.772091 0.772107 0.000000
0.865217 0.766110 0.000000
0.937407 0.761090 0.000000
0.989700 0.757015 0.000061
1.000000 0.754192 0.000107
1.000000 0.753307 0.000031
0.000000 0.883345 0.000000
0.000000 0.883345 0.000000
0.000000 0.883223 0.000000
0.000000 0.882856 0.000000
0.000000 0.882261 0.000000
0.000000 0.881285 0.000000
0.021057 0.879805 0.000000
0.229465 0.877638 0.000000
0.380529 0.874540 0.000000
0.518654 0.870466 0.000000
0.646510 0.865476 0.000000
0.760494 0.860105 0.000092
0.854856 0.854856 0.000046
0.927703 0.850187 0.000000
0.980591 0.846601 0.000000
1.000000 0.844129 0.000183
1.000000 0.843351 0.000122
0.000000 0.949981 0.000000
0.000000 0.949981 0.000000
0.000000 0.949859 0.000000
0.000000 0.949493 0.000000
0.000000 0.948928 0.000000
0.000000 0.948028 0.000000
0.000000 0.946715 0.000000
0.193683 0.944793 0.000000
0.359167 0.941939 0.000000
0.503090 0.938293 0.000000
0.634073 0.933455 0.000000
0.749920 0.928603 0.000000
0.845762 0.923735 0.000107
0.919432 0.919432 0.000000
0.972839 0.916167 0.000031
1.000000 0.913985 0.000076
1.000000 0.913298 0.000122
0.000000 0.998550 0.000000
0.000000 0.998550 0.000000
0.000000 0.998444 0.000000
0.000000 0.998169 0.000000
0.000031 0.997696 0.000031
0.000031 0.996841 0.000031
0.000000 0.995575 0.000000
0.161776 0.993820 0.000015
0.341436 0.990967 0.000000
0.490410 0.987579 0.000031
0.624399 0.982986 0.000000
0.741741 0.978485 0.000000
0.838636 0.973892 0.000122
0.912947 0.969848 0.000000
0.966751 0.966751 0.000046
1.000000 0.964508 0.000122
1.000000 0.963821 0.000122
0.000137 1.000000 0.000137
0.000137 1.000000 0.000137
0.000137 1.000000 0.000137
0.000137 1.000000 0.000137
0.000137 1.000000 0.000137
0.000137 1.000000 0.000137
0.000137 1.000000 0.000137
0.135576 1.000000 0.000397
0.328374 1.000000 0.000427
0.481498 1.000000 0.000427
0.617563 1.000000 0.000305
0.736171 1.000000 0.000336
0.833570 1.000000 0.000214
0.908370 1.000000 0.000244
0.962676 1.000000 0.000320
0.999268 0.999268 0.000000
1.000000 0.998703 0.000076
0.000137 1.000000 0.000137
0.000137 1.000000 0.000137
0.000137 1.000000 0.000137
0.000137 1.000000 0.000137
0.000137 1.000000 0.000137
0.000137 1.000000 0.000137
0.000137 1.000000 0.000137
0.126925 1.000000 0.000351
0.324392 1.000000 0.000366
0.478828 1.000000 0.000381
0.615427 1.000000 0.000290
0.734325 1.000000 0.000336
0.831968 1.000000 0.000214
0.907103 1.000000 0.000198
0.961303 1.000000 0.000320
0.998306 1.000000 0.000336
1.000000 1.000000 0.000443
0.000000 0.000000 0.000000
0.000000 0.000000 0.000000
0.016922 0.000000 0.000000
0.066377 0.000000 0.000000
0.135317 0.000000 0.000000
0.210697 0.000000 0.000000
0.295201 0.000000 0.000000
0.391012 0.000000 0.000000
0.496406 0.000000 0.000000
0.608270 0.000000 0.000000
0.719799 0.000000 0.000000
0.822629 0.000000 0.000000
0.910124 0.000000 0.000000
0.978668 0.000000 0.000000
0.999802 0.000000 0.000000
0.999802 0.000000 0.000000
0.999802 0.000000 0.000000
0.000000 0.000000 0.000000
0.000000 0.000000 0.000000
0.016922 0.000000 0.000000
0.066377 0.000000 0.000000
0.135317 0.000000 0.000000
0.210697 0.000000 0.000000
0.295201 0.000000 0.000000
0.391012 0.000000 0.000000
0.496406 0.000000 0.000000
0.608270 0.000000 0.000000
0.719799 0.000000 0.000000
0.822629 0.000000 0.000000
0.910124 0.000000 0.000000
0.978668 0.000000 0.000000
0.999802 0.000000 0.000000
0.999802 0.000000 0.000000
0.999802 0.000000 0.000000
0.000000 0.016098 0.000000
0.000000 0.016098 0.000000
0.014969 0.014969 0.000000
0.064576 0.012039 0.000000
0.134295 0.007401 0.000046
0.209873 0.000000 0.000000
0.294438 0.000000 0.000000
0.390433 0.000000 0.000000
0.495949 0.000000 0.000000
0.607935 0.000000 0.000000
0.719463 0.000000 0.000000
0.822324 0.000000 0.000000
0.909865 0.000000 0.000000
0.978424 0.000000 0.000000
0.999802 0.000000 0.000000
0.999802 0.000000 0.000000
0.999802 0.000000 0.000000
0.000000 0.062608 0.000000
0.000000 0.062608 0.000000
0.009186 0.061631 0.000000
0.058717 0.058717 0.000000
0.130098 0.054063 0.000061
0.206744 0.046479 0.000000
0.292561 0.035065 0.000000
0.388861 0.017945 0.000000
0.494697 0.000000 0.000000
0.606851 0.000000 0.000000
0.718502 0.000000 0.000000
0.821500 0.000000 0.000000
0.909133 0.000000 0.000000
0.977737 0.000000 0.000000
0.999802 0.000000 0.000000
0.999802 0.000000 0.000000
0.999802 0.000000 0.000000
0.000000 0.129351 0.000000
0.000000 0.129351 0.000000
0.000000 0.128725 0.000000
0.049531 0.126497 0.000076
0.122866 0.122866 0.000000
0.201862 0.116854 0.000000
0.288899 0.107561 0.000000
0.386175 0.092439 0.000076
0.492729 0.068284 0.000000
0.605341 0.036194 0.000000
0.716976 0.000000 0.000000
0.820172 0.000000 0.000000
0.907942 0.000000 0.000000
0.976654 0.000000 0.000000
0.999802 0.000000 0.000000
0.999802 0.000000 0.000000
0.999802 0.000000 0.000000
0.000000 0.202564 0.000000
0.000000 0.202564 0.000000
0.000000 0.201984 0.000000
0.034623 0.200412 0.000000
0.111055 0.198093 0.000092
0.193957 0.193957 0.000031
0.283101 0.187472 0.000000
0.381674 0.177447 0.000000
0.489296 0.162753 0.000031
0.602625 0.141329 0.000076
0.714931 0.111635 0.000000
0.818662 0.072557 0.000000
0.906600 0.031846 0.000000
0.974929 0.000000 0.000000
0.999802 0.000000 0.000000
0.999802 0.000000 0.000000
0.999802 0.000000 0.000000
0.000000 0.285054 0.000000
0.000000 0.285054 0.000000
0.000000 0.284627 0.000000
0.011994 0.283574 0.000031
0.091127 0.281651 0.000061
0.181170 0.278599 0.000107
0.273762 0.273762 0.000000
0.374701 0.266712 0.000000
0.483864 0.256245 0.000000
0.598321 0.242008 0.000015
0.711391 0.223392 0.000000
0.815610 0.202029 0.000015
0.903685 0.179156 0.000000
0.972717 0.157534 0.000000
0.999954 0.139162 0.000000
1.000000 0.124758 0.000183
1.000000 0.120104 0.000092
0.000000 0.377966 0.000000
0.000000 0.377966 0.000000
0.000000 0.377691 0.000000
0.000015 0.376822 0.000015
0.057160 0.375296 0.000000
0.160220 0.373205 0.000000
0.259556 0.369421 0.000000
0.364141 0.364141 0.000000
0.475746 0.356481 0.000000
0.591852 0.345953 0.000031
0.705867 0.332876 0.000000
0.810727 0.317891 0.000000
0.899489 0.302983 0.000000
0.969055 0.289738 0.000031
1.000000 0.278935 0.000168
1.000000 0.270909 0.000244
1.000000 0.268482 0.000061
0.000000 0.480583 0.000000
0.000000 0.480583 0.000000
0.000000 0.480323 0.000000
0.000000 0.479606 0.000000
0.008896 0.478645 0.000000
0.126589 0.476829 0.000000
0.238148 0.474174 0.000092
0.348623 0.469902 0.000000
0.464012 0.464012 0.000076
0.582238 0.455787 0.000000
0.698039 0.445930 0.000000
0.804044 0.434806 0.000000
0.893660 0.423972 0.000046
0.963378 0.414374 0.000000
1.000000 0.406851 0.000076
1.000000 0.401068 0.000107
1.000000 0.399359 0.000015
0.000000 0.589609 0.000000
0.000000 0.589609 0.000000
0.000000 0.589395 0.000000
0.000000 0.588800 0.000000
0.000000 0.587854 0.000000
0.069993 0.586435 0.000000
0.206516 0.584329 0.000000
0.327077 0.580880 0.000000
0.447639 0.576028 0.000000
0.569558 0.569558 0.000031
0.687846 0.561639 0.000000
0.795163 0.553002 0.000015
0.885618 0.544366 0.000000
0.956054 0.536980 0.000015
1.000000 0.531319 0.000168
1.000000 0.527001 0.000031
1.000000 0.525689 0.000031
0.000000 0.697932 0.000000
0.000000 0.697932 0.000000
0.000000 0.697765 0.000000
0.000000 0.697292 0.000000
0.000000 0.696529 0.000000
0.000000 0.695277 0.000000
0.162341 0.693507 0.000000
0.299123 0.690761 0.000061
0.427497 0.686809 0.000000
0.553689 0.681453 0.000000
0.674784 0.674784 0.000000
0.784283 0.667689 0.000000
0.875776 0.660700 0.000000
0.947234 0.654688 0.000000
0.998932 0.649897 0.000015
0.999969 0.646494 0.000000
0.999969 0.645426 0.000000
0.000000 0.798108 0.000000
0.000000 0.798108 0.000000
0.000000 0.797955 0.000000
0.000000 0.797528 0.000000
0.000000 0.796841 0.000000
0.000000 0.795758 0.000000
0.100816 0.794339 0.000000
0.265599 0.792004 0.000000
0.404318 0.788388 0.000000
0.536049 0.783795 0.000000
0.660655 0.778378 0.000000
0.772091 0.772107 0.000000
0.865217 0.766110 0.000000
0.937407 0.761090 0.000000
0.989700 0.757015 0.000061
1.000000 0.754192 0.000107
1.000000 0.753307 0.000031
0.000000 0.883345 0.000000
0.000000 0.883345 0.000000
0.000000 0.883223 0.000000
0.000000 0.882856 0.000000
0.000000 0.882261 0.000000
0.000000 0.881285 0.000000
0.021057 0.879805 0.000000
0.229465 0.877638 0.000000
0.380529 0.874540 0.000000
0.518654 0.870466 0.000000
0.646510 0.865476 0.000000
0.760494 0.860105 0.000092
0.854856 0.854856 0.000046
0.927703 0.850187 0.000000
0.980591 0.846601 0.000000
1.000000 0.844129 0.000183
1.000000 0.843351 0.000122
0.000000 0.949981 0.000000
0.000000 0.949981 0.000000
0.000000 0.949859 0.000000
0.000000 0.949493 0.000000
0.000000 0.948928 0.000000
0.000000 0.948028 0.000000
0.000000 0.946715 0.000000
0.193683 0.944793 0.000000
0.359167 0.941939 0.000000
0.503090 0.938293 0.000000
0.634073 0.933455 0.000000
0.749920 0.928603 0.000000
0.845762 0.923735 0.000107
0.919432 0.919432 0.000000
0.972839 0.916167 0.000031
1.000000 0.913985 0.000076
1.000000 0.913298 0.000122
0.000000 0.998550 0.000000
0.000000 0.998550 0.000000
0.000000 0.998444 0.000000
0.000000 0.998169 0.000000
0.000031 0.997696 0.000031
0.000031 0.996841 0.000031
0.000000 0.995575 0.000000
0.161776 0.993820 0.000015
0.341436 0.990967 0.000000
0.490410 0.987579 0.000031
0.624399 0.982986 0.000000
0.741741 0.978485 0.000000
0.838636 0.973892 0.000122
0.912947 0.969848 0.000000
0.966751 0.966751 0.000046
1.000000 0.964508 0.000122
1.000000 0.963821 0.000122
0.000137 1.000000 0.000137
0.000137 1.000000 0.000137
0.000137 1.000000 0.000137
0.000137 1.000000 0.000137
0.000137 1.000000 0.000137
0.000137 1.000000 0.000137
0.000137 1.000000 0.000137
0.135576 1.000000 0.000397
0.328374 1.000000 0.000427
0.481498 1.000000 0.000427
0.617563 1.000000 0.000305
0.736171 1.000000 0.000336
0.833570 1.000000 0.000214
0.908370 1.000000 0.000244
0.962676 1.000000 0.000320
0.999268 0.999268 0.000000
1.000000 0.998703 0.000076
0.000137 1.000000 0.000137
0.000137 1.000000 0.000137
0.000137 1.000000 0.000137
0.000137 1.000000 0.000137
0.000137 1.000000 0.000137
0.000137 1.000000 0.000137
0.000137 1.000000 0.000137
0.126925 1.000000 0.000351
0.324392 1.000000 0.000366
0.478828 1.000000 0.000381
0.615427 1.000000 0.000290
0.734325 1.000000 0.000336
0.831968 1.000000 0.000214
0.907103 1.000000 0.000198
0.961303 1.000000 0.000320
0.998306 1.000000 0.000336
1.000000 1.000000 0.000443
0.000000 0.000000 0.017594
0.000000 0.000000 0.017594
0.016587 0.000000 0.016587
0.066178 0.000000 0.013489
0.135180 0.000000 0.008820
0.210559 0.000000 0.001434
0.295109 0.000000 0.000000
0.390951 0.000000 0.000000
0.496345 0.000000 0.000000
0.608225 0.000000 0.000000
0.719753 0.000000 0.000000
0.822583 0.000000 0.000000
0.910094 0.000000 0.000000
0.978637 0.000000 0.000000
0.999802 0.000000 0.000000
0.999802 0.000000 0.000000
0.999802 0.000000 0.000000
0.000000 0.000000 0.017594
0.000000 0.000000 0.017594
0.016587 0.000000 0.016587
0.066178 0.000000 0.013489
0.135180 0.000000 0.008820
0.210559 0.000000 0.001434
0.295109 0.000000 0.000000
0.390951 0.000000 0.000000
0.496345 0.000000 0.000000
0.608225 0.000000 0.000000
0.719753 0.000000 0.000000
0.822583 0.000000 0.000000
0.910094 0.000000 0.000000
0.978637 0.000000 0.000000
0.999802 0.000000 0.000000
0.999802 0.000000 0.000000
0.999802 0.000000 0.000000
0.000000 0.015732 0.015732
0.000000 0.015732 0.015732
0.014786 0.014786 0.014786
0.064317 0.011841 0.011841
0.134157 0.007202 0.007202
0.209613 0.000000 0.000000
0.294362 0.000000 0.000000
0.390356 0.000000 0.000000
0.495903 0.000000 0.000000
0.607904 0.000000 0.000000
0.719417 0.000000 0.000000
0.822293 0.000000 0.000000
0.909834 0.000000 0.000000
0.978393 0.000000 0.000000
0.999802 0.000000 0.000000
0.999802 0.000000 0.000000
0.999802 0.000000 0.000000
0.000000 0.062348 0.009903
0.000000 0.062348 0.009903
0.008972 0.061433 0.008972
0.058503 0.058503 0.005814
0.129931 0.053834 0.001389
0.206638 0.046250 0.000000
0.292454 0.034791 0.000000
0.388785 0.017685 0.000000
0.494636 0.000000 0.000000
0.606806 0.000000 0.000000
0.718471 0.000000 0.000000
0.821469 0.000000 0.000000
0.909087 0.000000 0.000000
0.977722 0.000000 0.000000
0.999802 0.000000 0.000000
0.999802 0.000000 0.000000
0.999802 0.000000 0.000000
0.000000 0.129198 0.000504
0.000000 0.129198 0.000504
0.000000 0.128511 0.000000
0.049317 0.126345 0.000137
0.122652 0.122652 0.000000
0.201694 0.116655 0.000000
0.288792 0.107347 0.000000
0.386053 0.092210 0.000031
0.492668 0.068025 0.000000
0.605295 0.035920 0.000000
0.716930 0.000000 0.000000
0.820142 0.000000 0.000000
0.907912 0.000000 0.000000
0.976623 0.000000 0.000000
0.999802 0.000000 0.000000
0.999802 0.000000 0.000000
0.999802 0.000000 0.000000
0.000000 0.202426 0.000000
0.000000 0.202426 0.000000
0.000000 0.201846 0.000000
0.034348 0.200275 0.000000
0.110811 0.197955 0.000076
0.193805 0.193805 0.000031
0.282994 0.187335 0.000000
0.381598 0.177295 0.000000
0.489235 0.162585 0.000031
0.602533 0.141161 0.000046
0.714885 0.111421 0.000000
0.818631 0.072282 0.000000
0.906569 0.031586 0.000000
0.974899 0.000000 0.000000
0.999802 0.000000 0.000000
0.999802 0.000000 0.000000
0.999802 0.000000 0.000000
0.000000 0.284947 0.000000
0.000000 0.284947 0.000000
0.000000 0.284520 0.000000
0.011765 0.283467 0.000031
0.090868 0.281544 0.000061
0.181064 0.278523 0.000107
0.273686 0.273686 0.000000
0.374655 0.266621 0.000000
0.483833 0.256153 0.000000
0.598276 0.241886 0.000015
0.711345 0.223255 0.000000
0.815610 0.201923 0.000046
0.903655 0.179004 0.000000
0.972686 0.157351 0.000000
0.999954 0.138964 0.000000
1.000000 0.124575 0.000137
1.000000 0.119905 0.000092
0.000000 0.377890 0.000000
0.000000 0.377890 0.000000
0.000000 0.377615 0.000000
0.000015 0.376745 0.000015
0.056901 0.375219 0.000000
0.160052 0.373114 0.000000
0.259434 0.369329 0.000000
0.364065 0.364065 0.000000
0.475685 0.356390 0.000000
0.591806 0.345876 0.000031
0.705821 0.332784 0.000000
0.810697 0.317815 0.000000
0.899443 0.302876 0.000000
0.969009 0.289631 0.000031
1.000000 0.278828 0.000168
1.000000 0.270817 0.000229
1.000000 0.268360 0.000061
0.000000 0.480522 0.000000
0.000000 0.480522 0.000000
0.000000 0.480262 0.000000
0.000000 0.479561 0.000000
0.008621 0.478584 0.000000
0.126390 0.476768 0.000000
0.238041 0.474113 0.000076
0.348531 0.469825 0.000000
0.463951 0.463951 0.000061
0.582177 0.455726 0.000000
0.697993 0.445869 0.000000
0.804013 0.434745 0.000000
0.893614 0.423911 0.000031
0.963363 0.414298 0.000000
1.000000 0.406790 0.000092
1.000000 0.400992 0.000107
1.000000 0.399298 0.000000
0.000000 0.589563 0.000000
0.000000 0.589563 0.000000
0.000000 0.589349 0.000000
0.000000 0.588754 0.000000
0.000000 0.587808 0.000000
0.069719 0.586389 0.000000
0.206378 0.584283 0.000000
0.327001 0.580835 0.000000
0.447562 0.575982 0.000000
0.569512 0.569512 0.000046
0.687800 0.561578 0.000000
0.795102 0.552956 0.000015
0.885588 0.544305 0.000000
0.956024 0.536934 0.000015
1.000000 0.531273 0.000168
1.000000 0.526955 0.000031
1.000000 0.525628 0.000031
0.000000 0.697887 0.000000
0.000000 0.697887 0.000000
0.000000 0.697719 0.000000
0.000000 0.697261 0.000000
0.000000 0.696498 0.000000
0.000000 0.695232 0.000000
0.162173 0.693462 0.000000
0.299031 0.690715 0.000061
0.427420 0.686763 0.000000
0.553628 0.681422 0.000000
0.674739 0.674739 0.000000
0.784253 0.667628 0.000000
0.875746 0.660655 0.000000
0.947204 0.654643 0.000000
0.998901 0.649866 0.000015
0.999969 0.646448 0.000000
0.999969 0.645380 0.000000
0.000000 0.798077 0.000000
0.000000 0.798077 0.000000
0.000000 0.797925 0.000000
0.000000 0.797482 0.000000
0.000000 0.796796 0.000000
0.000000 0.795712 0.000000
0.100572 0.794308 0.000000
0.265492 0.791974 0.000000
0.404257 0.788357 0.000000
0.536004 0.783764 0.000000
0.660609 0.778347 0.000000
0.772061 0.772061 0.000000
0.865187 0.766079 0.000000
0.937377 0.761044 0.000000
0.989670 0.756985 0.000061
1.000000 0.754147 0.000107
1.000000 0.753277 0.000046
0.000000 0.883314 0.000000
0.000000 0.883314 0.000000
0.000000 0.883192 0.000000
0.000000 0.882826 0.000000
0.000000 0.882231 0.000000
0.000000 0.881254 0.000000
0.020783 0.879774 0.000000
0.229328 0.877607 0.000000
0.380438 0.874510 0.000000
0.518593 0.870420 0.000000
0.646464 0.865446 0.000000
0.760449 0.860075 0.000092
0.854826 0.854826 0.000061
0.927672 0.850141 0.000000
0.980560 0.846555 0.000000
1.000000 0.844083 0.000183
1.000000 0.843320 0.000122
0.000000 0.949950 0.000000
0.000000 0.949950 0.000000
0.000000 0.949813 0.000000
0.000000 0.949462 0.000000
0.000000 0.948898 0.000000
0.000000 0.947997 0.000000
0.000000 0.946685 0.000000
0.193530 0.944762 0.000000
0.359091 0.941894 0.000000
0.503044 0.938262 0.000000
0.634028 0.933440 0.000000
0.749889 0.928573 0.000000
0.845731 0.923705 0.000092
0.919402 0.919402 0.000000
0.972793 0.916121 0.000031
1.000000 0.913970 0.000076
1.000000 0.913268 0.000122
0.000000 0.998520 0.000000
0.000000 0.998520 0.000000
0.000000 0.998428 0.000000
0.000000 0.998154 0.000000
0.000031 0.997665 0.000031
0.000031 0.996811 0.000031
0.000000 0.995544 0.000000
0.161608 0.993790 0.000015
0.341344 0.990936 0.000000
0.490364 0.987549 0.000031
0.624353 0.982956 0.000000
0.741695 0.978454 0.000000
0.838590 0.973861 0.000122
0.912917 0.969818 0.000000
0.966720 0.966720 0.000046
1.000000 0.964477 0.000122
1.000000 0.963790 0.000107
0.000137 1.000000 0.000137
0.000137 1.000000 0.000137
0.000137 1.000000 0.000137
0.000137 1.000000 0.000137
0.000137 1.000000 0.000137
0.000137 1.000000 0.000137
0.000137 1.000000 0.000137
0.135393 1.000000 0.000397
0.328298 1.000000 0.000427
0.481437 1.000000 0.000443
0.617517 1.000000 0.000305
0.736126 1.000000 0.000336
0.833539 1.000000 0.000214
0.908339 1.000000 0.000259
0.962646 1.000000 0.000320
0.999237 0.999237 0.000000
1.000000 0.998688 0.000076
0.000137 1.000000 0.000137
0.000137 1.000000 0.000137
0.000137 1.000000 0.000137
0.000137 1.000000 0.000137
0.000137 1.000000 0.000137
0.000137 1.000000 0.000137
0.000137 1.000000 0.000137
0.126711 1.000000 0.000351
0.324300 1.000000 0.000366
0.478767 1.000000 0.000381
0.615366 1.000000 0.000290
0.734279 1.000000 0.000336
0.831937 1.000000 0.000214
0.907073 1.000000 0.000198
0.961273 1.000000 0.000320
0.998276 1.000000 0.000336
1.000000 1.000000 0.000443
0.000000 0.000000 0.069261
0.000000 0.000000 0.069261
0.015854 0.000000 0.068452
0.065553 0.000000 0.065553
0.134768 0.000000 0.060639
0.210224 0.000000 0.053178
0.294942 0.000000 0.041886
0.390723 0.000000 0.024659
0.496208 0.000000 0.000458
0.608118 0.000000 0.000000
0.719646 0.000000 0.000000
0.822492 0.000000 0.000000
0.910002 0.000000 0.000000
0.978561 0.000000 0.000000
0.999802 0.000000 0.000000
0.999802 0.000000 0.000000
0.999802 0.000000 0.000000
0.000000 0.000000 0.069261
0.000000 0.000000 0.069261
0.015854 0.000000 0.068452
