5AHITM/MEDT/Pirringer/Unterricht/2025-02-26/fotos/LUTs/Arri Log-C to Rec.709 LUT 33x33.cube
TITLE "Generated by Resolve"
LUT_3D_SIZE 9
0 0 0
0.0472419 0 0
0.233631 0 0
0.473854 0 0
0.774151 0 0
1 0 0
1 0 0
1 0 0
1 0 0
0 0.0389715 0
0.0315404 0.0369116 0
0.226108 0.0251926 0
0.470024 0 0
0.771862 0 0
1 0 0
1 0 0
1 0 0
1 0 0
0 0.206073 0
0 0.204974 0
0.178378 0.198703 0
0.447532 0.180468 0
0.758694 0.133822 0
1 0.0432136 0
1 0 0
1 0 0
1 0 0
0 0.426383 0
0 0.425818 0
0 0.422629 0
0.378698 0.413687 0
0.721019 0.39321 0
1 0.362783 0
1 0.337667 0
1 0.329625 0
1 0.329625 0
0 0.701778 0
0 0.701442 0
0 0.69955 0
0.146807 0.69427 0
0.629099 0.682445 0
0.953826 0.665568 0
1 0.652323 0
1 0.648219 0
1 0.648219 0
0 0.956634 0
0 0.95639 0
0 0.955047 0
0 0.951293 0
0.470054 0.942931 0
0.860807 0.931136 0
1 0.921981 0
1 0.919158 0
1 0.919158 0
0 1 0
0 1 0
0 1 0
0 1 0
0.294575 1 0
0.781201 1 0
1 1 0
1 1 0
1 1 0
0 1 0
0 1 0
0 1 0
0 1 0
0.216541 1 0
0.755032 1 0
0.980499 1 0
1 1 0
1 1 0
0 1 0
0 1 0
0 1 0
0 1 0
0.216541 1 0
0.755032 1 0
0.980499 1 0
1 1 0
1 1 0
0 0 0.0364538
0.044892 0 0.0358282
0.232517 0 0.0323186
0.473289 0 0.0226444
0.7738 0 0.00123598
1 0 0
1 0 0
1 0 0
1 0 0
0 0.0312657 0.0298161
0.0292058 0.0292058 0.0292058
0.224964 0.0174716 0.0256962
0.469444 0 0.016022
0.771511 0 0
1 0 0
1 0 0
1 0 0
1 0 0
0 0.201968 0
0 0.20087 0
0.176989 0.194476 0
0.446937 0.175906 0
0.758343 0.128084 0
1 0.0355077 0
1 0 0
1 0 0
1 0 0
0 0.424292 0
0 0.423728 0
0 0.420508 0
0.377981 0.411536 0
0.720653 0.390936 0
1 0.360327 0
1 0.335042 0
1 0.32694 0
1 0.32694 0
0 0.700526 0
0 0.700206 0
0 0.698299 0
0.14519 0.693004 0
0.628672 0.681163 0
0.953567 0.664256 0
1 0.650965 0
1 0.64686 0
1 0.64686 0
0 0.955749 0
0 0.955505 0
0 0.954147 0
0 0.950393 0
0.46949 0.942031 0
0.860502 0.93022 0
1 0.92105 0
1 0.918227 0
1 0.918227 0
0 1 0
0 1 0
0 1 0
0 1 0
0.293675 1 0
0.780865 1 0
1 1 0
1 1 0
1 1 0
0 1 0
0 1 0
0 1 0
0 1 0
0.215351 1 0
0.754681 1 0
0.98024 1 0
1 1 0
1 1 0
0 1 0
0 1 0
0 1 0
0 1 0
0.215351 1 0
0.754681 1 0
0.98024 1 0
1 1 0
1 1 0
0 0 0.196994
0.0315557 0 0.196658
0.226108 0 0.194736
0.470024 0 0.189349
0.771862 0 0.176944
1 0 0.158419
1 0 0.143038
1 0 0.138079
1 0 0.138079
0 0 0.193347
0.0158694 0 0.193011
0.218357 0 0.191058
0.466148 0 0.18558
0.769558 0 0.172961
1 0 0.154086
1 0 0.138354
1 0 0.133272
1 0 0.133272
0 0.177264 0.171435
0 0.176028 0.171069
0.168902 0.168902 0.168902
0.443473 0.147951 0.16286
0.756359 0.091371 0.148821
1 0 0.127443
1 0 0.109194
1 0 0.103212
1 0 0.103212
0 0.412177 0.095079
0 0.411597 0.0945144
0 0.408286 0.0912642
0.373892 0.399039 0.0819104
0.718563 0.377783 0.0602579
1 0.346044 0.0304112
1 0.319692 0.00750744
1 0.311223 0.000503548
1 0.311223 0.000503548
0 0.693385 0
0 0.693034 0
0 0.691112 0
0.135744 0.685771 0
0.626245 0.673777 0
0.95201 0.656672 0
1 0.643229 0
1 0.639063 0
1 0.639063 0
0 0.950652 0
0 0.950423 0
0 0.94905 0
0 0.945281 0
0.466194 0.936858 0
0.858778 0.924971 0
1 0.915755 0
1 0.912917 0
1 0.912917 0
0 1 0
0 1 0
0 1 0
0 1 0
0.288472 1 0
0.778943 1 0
0.998566 1 0
1 1 0
1 1 0
0 1 0
0 1 0
0 1 0
0 1 0
0.208499 1 0
0.752682 1 0
0.978729 1 0
1 1 0
1 1 0
0 1 0
0 1 0
0 1 0
0 1 0
0.208499 1 0
0.752682 1 0
0.978729 1 0
1 1 0
1 1 0
0 0 0.410758
0 0 0.41059
0.207538 0 0.409598
0.460883 0 0.406867
0.766461 0 0.400748
1 0 0.392065
1 0 0.385275
1 0 0.383169
1 0 0.383169
0 0 0.408896
0 0 0.408728
0.199191 0 0.407736
0.456947 0 0.40499
0.764157 0 0.39884
1 0 0.390112
1 0 0.383276
1 0 0.38117
1 0 0.38117
0 0.0882124 0.398108
0 0.0862287 0.397925
0.1449 0.0743267 0.396918
0.433783 0.0419776 0.394095
0.750835 0 0.387778
1 0 0.37879
1 0 0.371771
1 0 0.369589
1 0 0.369589
0 0.376761 0.366735
0 0.376135 0.366552
0 0.372519 0.365438
0.362387 0.362387 0.362387
0.712718 0.338933 0.35552
1 0.303395 0.345739
1 0.273289 0.338064
1 0.263478 0.335683
1 0.263478 0.335683
0 0.673213 0.286046
0 0.672862 0.285801
0 0.670878 0.284413
0.106935 0.665354 0.280537
0.619486 0.652979 0.271778
0.947738 0.635279 0.259144
1 0.621332 0.249058
1 0.617014 0.245914
1 0.617014 0.245914
0 0.936461 0.113268
0 0.936217 0.112764
0 0.934829 0.10985
0 0.930983 0.101549
0.456992 0.922423 0.081529
0.853971 0.910338 0.0514229
1 0.900954 0.0285344
1 0.898054 0.0215305
1 0.898054 0.0215305
0 1 0
0 1 0
0 1 0
0 1 0
0.273671 1 0
0.773602 1 0
0.994507 1 0
1 1 0
1 1 0
0 1 0
0 1 0
0 1 0
0 1 0
0.188525 1 0
0.747143 1 0
0.974578 1 0
1 1 0
1 1 0
0 1 0
0 1 0
0 1 0
0 1 0
0.188525 1 0
0.747143 1 0
0.974578 1 0
1 1 0
1 1 0
0 0 0.677974
0 0 0.677882
0.160601 0 0.677287
0.440009 0 0.675654
0.754391 0 0.672038
1 0 0.666957
1 0 0.663035
1 0 0.66183
1 0 0.66183
0 0 0.67686
0 0 0.676768
0.150301 0 0.676173
0.435874 0 0.67454
0.752026 0 0.670909
1 0 0.665827
1 0 0.661891
1 0 0.660685
1 0 0.660685
0 0 0.670497
0 0 0.67039
0.0772259 0 0.669795
0.411536 0 0.668147
0.738476 0 0.664485
1 0 0.659342
1 0 0.65536
1 0 0.654139
1 0 0.654139
0 0.283955 0.652552
0 0.283131 0.652445
0 0.278401 0.651835
0.335592 0.264988 0.650126
0.699641 0.232898 0.646357
1 0.180484 0.641062
1 0.130175 0.636973
1 0.111788 0.635721
1 0.111788 0.635721
0 0.626154 0.61088
0 0.625772 0.610773
0 0.623636 0.610101
0.0274968 0.61767 0.608286
0.604242 0.604242 0.604242
0.938186 0.584985 0.59855
1 0.569757 0.594156
1 0.565011 0.592798
1 0.565011 0.592798
0 0.904189 0.547219
0 0.903929 0.547082
0 0.902495 0.546349
0 0.898497 0.544305
0.43592 0.889586 0.539757
0.843259 0.876997 0.533349
1 0.867216 0.528389
1 0.864195 0.526864
1 0.864195 0.526864
0 1 0.492622
0 1 0.492485
0 1 0.491661
0 1 0.489387
0.238056 1 0.484306
0.761639 1 0.477134
0.985473 1 0.471565
1 1 0.469841
1 1 0.469841
0 1 0.474662
0 1 0.47451
0 1 0.473655
0 1 0.47129
0.136873 1 0.466011
0.734707 1 0.458549
0.965331 1 0.45275
1 1 0.450965
1 1 0.450965
0 1 0.474662
0 1 0.47451
0 1 0.473655
0 1 0.47129
0.136873 1 0.466011
0.734707 1 0.458549
0.965331 1 0.45275
1 1 0.450965
1 1 0.450965
0 0 0.925261
0 0 0.925185
0.0687114 0 0.924758
0.40914 0 0.923598
0.737179 0 0.921035
1 0 0.917433
1 0 0.914656
1 0 0.913802
1 0 0.913802
0 0 0.924468
0 0 0.924392
0.0530098 0 0.923964
0.4047 0 0.922805
0.734768 0 0.920226
1 0 0.916625
1 0 0.913848
1 0 0.912993
1 0 0.912993
0 0 0.919921
0 0 0.91986
0 0 0.919432
0.378393 0 0.918257
0.720867 0 0.915679
1 0 0.912047
1 0 0.909255
1 0 0.9084
1 0 0.9084
0 0.0587472 0.907286
0 0.0566873 0.90721
0 0.0449683 0.906783
0.294469 0.012604 0.905592
0.680949 0 0.902968
0.987655 0 0.899275
1 0 0.896452
1 0 0.895582
1 0 0.895582
0 0.553506 0.878599
0 0.553079 0.878523
0 0.550637 0.87808
0 0.543832 0.876844
0.5823 0.52845 0.874128
0.924697 0.506203 0.870314
1 0.488426 0.867369
1 0.482872 0.866468
1 0.482872 0.866468
0 0.856947 0.836805
0 0.856672 0.836713
0 0.855146 0.836255
0 0.850904 0.834958
0.404746 0.841443 0.832074
0.828046 0.828046 0.828046
1 0.817624 0.824948
1 0.814404 0.823987
1 0.814404 0.823987
0 1 0.803128
0 1 0.803037
0 1 0.802548
0 1 0.80119
0.178897 1 0.798184
0.74461 1 0.793973
0.972702 0.99501 0.790722
1 0.992416 0.789715
1 0.992416 0.789715
0 1 0.792523
0 1 0.792432
0 1 0.791928
0 1 0.790555
0.0337377 1 0.787503
0.716991 1 0.78323
0.952255 1 0.779919
1 1 0.778912
1 1 0.778912
0 1 0.792523
0 1 0.792432
0 1 0.791928
0 1 0.790555
0.0337377 1 0.787503
0.716991 1 0.78323
0.952255 1 0.779919
1 1 0.778912
1 1 0.778912
0 0 1
0 0 1
0 0 1
0.38381 0 1
0.72369 0 1
1 0 1
1 0 1
1 0 1
1 0 1
0 0 1
0 0 1
0 0 1
0.379065 0 1
0.721218 0 1
1 0 1
1 0 1
1 0 1
1 0 1
0 0 1
0 0 1
0 0 1
0.350912 0 1
0.707042 0 1
1 0 1
1 0 1
1 0 1
1 0 1
0 0 1
0 0 1
0 0 1
0.258946 0 1
0.666224 0 1
0.97789 0 1
1 0 1
1 0 1
1 0 1
0 0.490242 1
0 0.489754 1
0 0.486976 1
0 0.479255 1
0.564858 0.461677 1
0.914183 0.435981 1
1 0.415198 1
1 0.408637 1
1 0.408637 1
0 0.818662 1
0 0.818387 1
0 0.81677 0.999817
0 0.812314 0.998749
0.379126 0.802365 0.996399
0.816175 0.788251 0.993088
1 0.777234 0.990555
1 0.773831 0.989776
1 0.773831 0.989776
0 0.995865 0.972793
0 0.995636 0.972732
0 0.994339 0.972335
0 0.990753 0.971237
0.120043 0.982757 0.968795
0.731258 0.971511 0.965393
0.962768 0.962768 0.962768
1 0.960082 0.961975
1 0.960082 0.961975
0 1 0.964218
0 1 0.964157
0 1 0.963745
0 1 0.962646
0 1 0.960189
0.70309 1 0.956741
0.942092 1 0.954101
1 1 0.953292
1 1 0.953292
0 1 0.964218
0 1 0.964157
0 1 0.963745
0 1 0.962646
0 1 0.960189
0.70309 1 0.956741
0.942092 1 0.954101
1 1 0.953292
1 1 0.953292
0 0 1
0 0 1
0 0 1
0.375738 0 1
0.719509 0 1
1 0 1
1 0 1
1 0 1
1 0 1
0 0 1
0 0 1
0 0 1
0.370901 0 1
0.717021 0 1
1 0 1
1 0 1
1 0 1
1 0 1
0 0 1
0 0 1
0 0 1
0.342092 0 1
0.702754 0 1
1 0 1
1 0 1
1 0 1
1 0 1
0 0 1
0 0 1
0 0 1
0.247181 0 1
0.661662 0 1
0.974884 0 1
1 0 1
1 0 1
1 0 1
0 0.469154 1
0 0.46865 1
0 0.465751 1
0 0.457649 1
0.559411 0.439216 1
0.910948 0.412131 1
1 0.390097 1
1 0.383124 1
1 0.383124 1
0 0.806577 1
0 0.806287 1
0 0.804654 1
0 0.800122 1
0.370947 0.78999 1
0.812512 0.775631 1
1 0.764416 1
1 0.760952 1
1 0.760952 1
0 0.98613 1
0 0.985901 1
0 0.984588 1
0 0.980972 1
0.0976577 0.9729 1
0.727123 0.961501 1
0.959716 0.952667 1
1 0.94995 1
1 0.94995 1
0 1 1
0 1 1
0 1 1
0 1 1
0 1 1
0.698772 1 1
0.938964 1 1
1 1 1
1 1 1
0 1 1
0 1 1
0 1 1
0 1 1
0 1 1
0.698772 1 1
0.938964 1 1
1 1 1
1 1 1
0 0 1
0 0 1
0 0 1
0.375738 0 1
0.719509 0 1
1 0 1
1 0 1
1 0 1
1 0 1
0 0 1
0 0 1
0 0 1
0.370901 0 1
0.717021 0 1
1 0 1
1 0 1
1 0 1
1 0 1
0 0 1
0 0 1
0 0 1
0.342092 0 1
0.702754 0 1
1 0 1
1 0 1
1 0 1
1 0 1
0 0 1
0 0 1
0 0 1
0.247181 0 1
0.661662 0 1
0.974884 0 1
1 0 1
1 0 1
1 0 1
0 0.469154 1
0 0.46865 1
0 0.465751 1
0 0.457649 1
0.559411 0.439216 1
0.910948 0.412131 1
1 0.390097 1
1 0.383124 1
1 0.383124 1
0 0.806577 1
0 0.806287 1
0 0.804654 1
0 0.800122 1
0.370947 0.78999 1
0.812512 0.775631 1
1 0.764416 1
1 0.760952 1
1 0.760952 1
0 0.98613 1
0 0.985901 1
0 0.984588 1
0 0.980972 1
0.0976577 0.9729 1
0.727123 0.961501 1
0.959716 0.952667 1
1 0.94995 1
1 0.94995 1
0 1 1
0 1 1
0 1 1
0 1 1
0 1 1
0.698772 1 1
0.938964 1 1
1 1 1
1 1 1
0 1 1
0 1 1
0 1 1
0 1 1
0 1 1
0.698772 1 1
0.938964 1 1
1 1 1
1 1 1
