5AHITM/MEDT/Pirringer/Unterricht/2025-02-26/fotos/LUTs/Arri Log-C to Rec.709 LUT 33x33.cube
TITLE "Generated by Resolve"
LUT_3D_SIZE 5
0 0 0
0.233631 0 0
0.774151 0 0
1 0 0
1 0 0
0 0.206073 0
0.178378 0.198703 0
0.758694 0.133822 0
1 0 0
1 0 0
0 0.701778 0
0 0.69955 0
0.629099 0.682445 0
1 0.652323 0
1 0.648219 0
0 1 0
0 1 0
0.294575 1 0
1 1 0
1 1 0
0 1 0
0 1 0
0.216541 1 0
0.980499 1 0
1 1 0
0 0 0.196994
0.226108 0 0.194736
0.771862 0 0.176944
1 0 0.143038
1 0 0.138079
0 0.177264 0.171435
0.168902 0.168902 0.168902
0.756359 0.091371 0.148821
1 0 0.109194
1 0 0.103212
0 0.693385 0
0 0.691112 0
0.626245 0.673777 0
1 0.643229 0
1 0.639063 0
0 1 0
0 1 0
0.288472 1 0
0.998566 1 0
1 1 0
0 1 0
0 1 0
0.208499 1 0
0.978729 1 0
1 1 0
0 0 0.677974
0.160601 0 0.677287
0.754391 0 0.672038
1 0 0.663035
1 0 0.66183
0 0 0.670497
0.0772259 0 0.669795
0.738476 0 0.664485
1 0 0.65536
1 0 0.654139
0 0.626154 0.61088
0 0.623636 0.610101
0.604242 0.604242 0.604242
1 0.569757 0.594156
1 0.565011 0.592798
0 1 0.492622
0 1 0.491661
0.238056 1 0.484306
0.985473 1 0.471565
1 1 0.469841
0 1 0.474662
0 1 0.473655
0.136873 1 0.466011
0.965331 1 0.45275
1 1 0.450965
0 0 1
0 0 1
0.72369 0 1
1 0 1
1 0 1
0 0 1
0 0 1
0.707042 0 1
1 0 1
1 0 1
0 0.490242 1
0 0.486976 1
0.564858 0.461677 1
1 0.415198 1
1 0.408637 1
0 0.995865 0.972793
0 0.994339 0.972335
0.120043 0.982757 0.968795
0.962768 0.962768 0.962768
1 0.960082 0.961975
0 1 0.964218
0 1 0.963745
0 1 0.960189
0.942092 1 0.954101
1 1 0.953292
0 0 1
0 0 1
0.719509 0 1
1 0 1
1 0 1
0 0 1
0 0 1
0.702754 0 1
1 0 1
1 0 1
0 0.469154 1
0 0.465751 1
0.559411 0.439216 1
1 0.390097 1
1 0.383124 1
0 0.98613 1
0 0.984588 1
0.0976577 0.9729 1
0.959716 0.952667 1
1 0.94995 1
0 1 1
0 1 1
0 1 1
0.938964 1 1
1 1 1
