5AHITM/MEDT/Pirringer/Unterricht/2025-02-26/fotos/LUTs/Arri Log-C to Rec.709 LUT 33x33.cube
TITLE "Generated by Resolve"
LUT_3D_SIZE 33
0 0 0
0 0 0
0 0 0
0.00137331 0 0
0.0472419 0 0
0.0926986 0 0
0.137514 0 0
0.184085 0 0
0.233631 0 0
0.286992 0 0
0.344656 0 0
0.406958 0 0
0.473854 0 0
0.545022 0 0
0.619669 0 0
0.69659 0 0
0.774151 0 0
0.850416 0 0
0.923339 0 0
0.991043 0 0
1 0 0
1 0 0
1 0 0
1 0 0
1 0 0
1 0 0
1 0 0
1 0 0
1 0 0
1 0 0
1 0 0
1 0 0
1 0 0
0 0 0
0 0 0
0 0 0
0.00137331 0 0
0.0472419 0 0
0.0926986 0 0
0.137514 0 0
0.184085 0 0
0.233631 0 0
0.286992 0 0
0.344656 0 0
0.406958 0 0
0.473854 0 0
0.545022 0 0
0.619669 0 0
0.69659 0 0
0.774151 0 0
0.850416 0 0
0.923339 0 0
0.991043 0 0
1 0 0
1 0 0
1 0 0
1 0 0
1 0 0
1 0 0
1 0 0
1 0 0
1 0 0
1 0 0
1 0 0
1 0 0
1 0 0
0 0 0
0 0 0
0 0 0
0.00137331 0 0
0.0472419 0 0
0.0926986 0 0
0.137514 0 0
0.184085 0 0
0.233631 0 0
0.286992 0 0
0.344656 0 0
0.406958 0 0
0.473854 0 0
0.545022 0 0
0.619669 0 0
0.69659 0 0
0.774151 0 0
0.850416 0 0
0.923339 0 0
0.991043 0 0
1 0 0
1 0 0
1 0 0
1 0 0
1 0 0
1 0 0
1 0 0
1 0 0
1 0 0
1 0 0
1 0 0
1 0 0
1 0 0
0 0.00112917 0
0 0.00112917 0
0 0.00112917 0
0.000915541 0.00106813 0
0.0467842 0 0
0.0922713 0 0
0.137179 0 0
0.183825 0 0
0.233417 0 0
0.286809 0 0
0.344503 0 0
0.406821 0 0
0.473747 0 0
0.544915 0 0
0.619577 0 0
0.696513 0 0
0.774075 0 0
0.850355 0 0
0.923278 0 0
0.990982 0 0
1 0 0
1 0 0
1 0 0
1 0 0
1 0 0
1 0 0
1 0 0
1 0 0
1 0 0
1 0 0
1 0 0
1 0 0
1 0 0
0 0.0389715 0
0 0.0389715 0
0 0.0389715 0
0 0.0389105 0
0.0315404 0.0369116 0
0.0771954 0.0349279 0
0.125887 0.032517 0
0.174853 0.0293431 0
0.226108 0.0251926 0
0.28072 0.0197757 0
0.339391 0.0128176 0
0.402472 0.00395209 0
0.470024 0 0
0.541695 0 0
0.616754 0 0
0.694026 0 0
0.771862 0 0
0.848341 0 0
0.921447 0 0
0.989288 0 0
1 0 0
1 0 0
1 0 0
1 0 0
1 0 0
1 0 0
1 0 0
1 0 0
1 0 0
1 0 0
1 0 0
1 0 0
1 0 0
0 0.0766308 0
0 0.0766308 0
0 0.0766308 0
0 0.076585 0
0.0163882 0.0745708 0
0.0620279 0.0725872 0
0.113924 0.0701762 0
0.165545 0.0670024 0
0.218616 0.0628519 0
0.274556 0.0574502 0
0.334234 0.0504768 0
0.398108 0.0416114 0
0.46627 0.0304875 0
0.53846 0.0167697 0
0.613931 0.000244144 0
0.691539 0 0
0.769635 0 0
0.846342 0 0
0.919631 0 0
0.98761 0 0
1 0 0
1 0 0
1 0 0
1 0 0
1 0 0
1 0 0
1 0 0
1 0 0
1 0 0
1 0 0
1 0 0
1 0 0
1 0 0
0 0.117906 0
0 0.117906 0
0 0.117906 0
0 0.117861 0
0 0.116258 0
0.0436713 0.114641 0
0.0982223 0.112673 0
0.153735 0.110033 0
0.209247 0.106538 0
0.266926 0.101854 0
0.327886 0.0956283 0
0.392752 0.0873274 0
0.461707 0.0760662 0
0.534524 0.0623636 0
0.610498 0.0458381 0
0.688502 0.0264591 0
0.766949 0.00447089 0
0.843915 0 0
0.917403 0 0
0.985565 0 0
1 0 0
1 0 0
1 0 0
1 0 0
1 0 0
1 0 0
1 0 0
1 0 0
1 0 0
1 0 0
1 0 0
1 0 0
1 0 0
0 0.160616 0
0 0.160616 0
0 0.160616 0
0 0.160586 0
0 0.159289 0
0.0195163 0.158007 0
0.0747692 0.156435 0
0.137057 0.154345 0
0.196368 0.151583 0
0.256565 0.147936 0
0.319356 0.14313 0
0.385595 0.136843 0
0.455619 0.128649 0
0.52929 0.118013 0
0.605951 0.104311 0
0.684504 0.0866255 0
0.763378 0.0644846 0
0.840711 0.0404059 0
0.914488 0.0150454 0
0.982849 0 0
1 0 0
1 0 0
1 0 0
1 0 0
1 0 0
1 0 0
1 0 0
1 0 0
1 0 0
1 0 0
1 0 0
1 0 0
1 0 0
0 0.206073 0
0 0.206073 0
0 0.206073 0
0 0.206043 0
0 0.204974 0
0 0.203922 0
0.0431373 0.20264 0
0.112764 0.200946 0
0.178378 0.198703 0
0.242405 0.195758 0
0.307836 0.191897 0
0.376028 0.186908 0
0.447532 0.180468 0
0.522362 0.17229 0
0.599939 0.162005 0
0.679225 0.149294 0
0.758694 0.133822 0
0.836484 0.115282 0
0.910628 0.0933852 0
0.979309 0.0680095 0
1 0.0432136 0
1 0.0201572 0
1 0 0
1 0 0
1 0 0
1 0 0
1 0 0
1 0 0
1 0 0
1 0 0
1 0 0
1 0 0
1 0 0
0 0.254994 0
0 0.254994 0
0 0.254994 0
0 0.254963 0
0 0.254093 0
0 0.253208 0
0.00201419 0.25214 0
0.0747387 0.250736 0
0.152605 0.248875 0
0.222858 0.246448 0
0.292241 0.243275 0
0.36321 0.2392 0
0.43679 0.233982 0
0.513191 0.22742 0
0.59202 0.219287 0
0.672297 0.209415 0
0.752544 0.197726 0
0.830961 0.184237 0
0.905608 0.169131 0
0.97467 0.152743 0
1 0.135531 0
1 0.117983 0
1 0.100679 0
1 0.0840467 0
1 0.0688029 0
1 0.0565042 0
1 0.0466163 0
1 0.0453956 0
1 0.0453956 0
1 0.0453956 0
1 0.0453956 0
1 0.0453956 0
1 0.0453956 0
0 0.307897 0
0 0.307897 0
0 0.307897 0
0 0.307866 0
0 0.307134 0
0 0.306386 0
0 0.305486 0
0.0217441 0.304311 0
0.113649 0.302754 0
0.1953 0.30071 0
0.270954 0.29807 0
0.346029 0.294667 0
0.422538 0.290349 0
0.501152 0.284947 0
0.581659 0.278309 0
0.663249 0.270344 0
0.744549 0.261036 0
0.823789 0.250492 0
0.899077 0.238956 0
0.968658 0.226795 0
1 0.214466 0
1 0.202457 0
1 0.191165 0
1 0.180957 0
1 0.172 0
1 0.164385 0
1 0.158068 0
1 0.157275 0
1 0.157275 0
1 0.157275 0
1 0.157275 0
1 0.157275 0
1 0.157275 0
0 0.365026 0
0 0.365026 0
0 0.365026 0
0 0.364996 0
0 0.36437 0
0 0.363745 0
0 0.362982 0
0 0.361975 0
0.0494545 0.360647 0
0.154788 0.358923 0
0.241459 0.35668 0
0.322896 0.353811 0
0.403677 0.350179 0
0.485344 0.345647 0
0.56817 0.340124 0
0.651545 0.333532 0
0.734218 0.325902 0
0.814542 0.317327 0
0.890684 0.30808 0
0.960937 0.298466 0
1 0.288884 0
1 0.279698 0
1 0.271244 0
1 0.263737 0
1 0.257267 0
1 0.251865 0
1 0.24744 0
1 0.246891 0
1 0.246891 0
1 0.246891 0
1 0.246891 0
1 0.246891 0
1 0.246891 0
0 0.426383 0
0 0.426383 0
0 0.426383 0
0 0.426368 0
0 0.425818 0
0 0.425284 0
0 0.424628 0
0 0.423758 0
0 0.422629 0
0.0886091 0.421149 0
0.199283 0.419242 0
0.291463 0.416785 0
0.378698 0.413687 0
0.464744 0.409842 0
0.550759 0.405173 0
0.636515 0.399603 0
0.721019 0.39321 0
0.802777 0.386084 0
0.880034 0.378439 0
0.951141 0.370565 0
1 0.362783 0
1 0.355398 0
1 0.348653 0
1 0.342733 0
1 0.337667 0
1 0.333455 0
1 0.330053 0
1 0.329625 0
1 0.329625 0
1 0.329625 0
1 0.329625 0
1 0.329625 0
1 0.329625 0
0 0.491646 0
0 0.491646 0
0 0.491646 0
0 0.49163 0
0 0.491157 0
0 0.490684 0
0 0.49012 0
0 0.489372 0
0 0.488396 0
0 0.487114 0
0.134279 0.485466 0
0.247868 0.483345 0
0.34551 0.48069 0
0.438025 0.477378 0
0.528466 0.473365 0
0.617456 0.46862 0
0.704402 0.463157 0
0.788006 0.457115 0
0.866697 0.45066 0
0.938918 0.444053 0
1 0.437552 0
1 0.431434 0
1 0.425864 0
1 0.420996 0
1 0.416861 0
1 0.413428 0
1 0.410666 0
1 0.410315 0
1 0.410315 0
1 0.410315 0
1 0.410315 0
1 0.410315 0
1 0.410315 0
0 0.560098 0
0 0.560098 0
0 0.560098 0
0 0.560082 0
0 0.559686 0
0 0.559274 0
0 0.55877 0
0 0.558114 0
0 0.55726 0
0 0.556146 0
0.0178836 0.554711 0
0.184237 0.552865 0
0.301015 0.550546 0
0.40351 0.547662 0
0.500282 0.544182 0
0.593668 0.540078 0
0.683803 0.535363 0
0.769818 0.530159 0
0.85034 0.52462 0
0.923964 0.518959 0
0.989563 0.51342 0
1 0.508217 0
1 0.503517 0
1 0.499397 0
1 0.495918 0
1 0.49305 0
1 0.49073 0
1 0.49044 0
1 0.49044 0
1 0.49044 0
1 0.49044 0
1 0.49044 0
1 0.49044 0
0 0.630655 0
0 0.630655 0
0 0.630655 0
0 0.63064 0
0 0.630274 0
0 0.629908 0
0 0.62948 0
0 0.628901 0
0 0.628138 0
0 0.627161 0
0 0.625895 0
0.0736706 0.624262 0
0.239597 0.622217 0
0.358938 0.619699 0
0.465003 0.616632 0
0.564416 0.613031 0
0.658793 0.608911 0
0.74789 0.604349 0
0.830716 0.599527 0
0.906081 0.594614 0
0.973007 0.589807 0
1 0.585306 0
1 0.581247 0
1 0.577707 0
1 0.574716 0
1 0.572244 0
1 0.57026 0
1 0.570016 0
1 0.570016 0
1 0.570016 0
1 0.570016 0
1 0.570016 0
1 0.570016 0
0 0.701778 0
0 0.701778 0
0 0.701778 0
0 0.701778 0
0 0.701442 0
0 0.701122 0
0 0.70074 0
0 0.700221 0
0 0.69955 0
0 0.698665 0
0 0.697536 0
0 0.696086 0
0.146807 0.69427 0
0.300832 0.692027 0
0.421378 0.689296 0
0.529183 0.686091 0
0.629099 0.682445 0
0.722103 0.678416 0
0.807797 0.674144 0
0.885298 0.66981 0
0.953826 0.665568 0
1 0.661616 0
1 0.658045 0
1 0.654948 0
1 0.652323 0
1 0.650172 0
1 0.648432 0
1 0.648219 0
1 0.648219 0
1 0.648219 0
1 0.648219 0
1 0.648219 0
1 0.648219 0
0 0.771725 0
0 0.771725 0
0 0.771725 0
0 0.77171 0
0 0.77142 0
0 0.77113 0
0 0.770779 0
0 0.770321 0
0 0.769711 0
0 0.768917 0
0 0.767895 0
0 0.766598 0
0 0.76495 0
0.222171 0.762921 0
0.367773 0.760479 0
0.487587 0.757595 0
0.594781 0.754314 0
0.692683 0.750698 0
0.781857 0.746868 0
0.861906 0.742977 0
0.932326 0.739193 0
0.992905 0.735668 0
1 0.732479 0
1 0.729717 0
1 0.727382 0
1 0.72546 0
1 0.723918 0
1 0.72372 0
1 0.72372 0
1 0.72372 0
1 0.72372 0
1 0.72372 0
1 0.72372 0
0 0.838605 0
0 0.838605 0
0 0.838605 0
0 0.838605 0
0 0.838331 0
0 0.838071 0
0 0.837751 0
0 0.837324 0
0 0.836759 0
0 0.836042 0
0 0.835111 0
0 0.833921 0
0 0.832425 0
0.0986343 0.830579 0
0.301717 0.828351 0
0.43949 0.825727 0
0.556252 0.822736 0
0.660197 0.81944 0
0.753506 0.815961 0
0.8365 0.812436 0
0.909087 0.809003 0
0.971267 0.805798 0
1 0.802915 0
1 0.800412 0
1 0.798291 0
1 0.796567 0
1 0.795163 0
1 0.794995 0
1 0.794995 0
1 0.794995 0
1 0.794995 0
1 0.794995 0
1 0.794995 0
0 0.900694 0
0 0.900694 0
0 0.900694 0
0 0.900694 0
0 0.900435 0
0 0.900191 0
0 0.899901 0
0 0.899504 0
0 0.899001 0
0 0.898329 0
0 0.897459 0
0 0.896361 0
0 0.894987 0
0 0.893278 0
0.217563 0.891218 0
0.384909 0.888792 0
0.514321 0.88603 0
0.625574 0.883009 0
0.723644 0.879805 0
0.809949 0.876554 0
0.884916 0.873396 0
0.948852 0.870451 0
1 0.867796 0
1 0.865492 0
1 0.863554 0
1 0.861967 0
1 0.860685 0
1 0.860533 0
1 0.860533 0
1 0.860533 0
1 0.860533 0
1 0.860533 0
1 0.860533 0
0 0.956634 0
0 0.956634 0
0 0.956634 0
0 0.956634 0
0 0.95639 0
0 0.956161 0
0 0.955886 0
0 0.95552 0
0 0.955047 0
0 0.954421 0
0 0.953613 0
0 0.952575 0
0 0.951293 0
0 0.949691 0
0.0940871 0.947768 0
0.32369 0.94551 0
0.470054 0.942931 0
0.58999 0.940108 0
0.693401 0.937118 0
0.783307 0.934081 0
0.860807 0.931136 0
0.926574 0.928389 0
0.981353 0.925917 0
1 0.923781 0
1 0.921981 0
1 0.920501 0
1 0.91931 0
1 0.919158 0
1 0.919158 0
1 0.919158 0
1 0.919158 0
1 0.919158 0
1 0.919158 0
0 1 0
0 1 0
0 1 0
0 1 0
0 1 0
0 1 0
0 1 0
0 1 0
0 1 0
0 1 0
0 1 0
0 1 0
0 1 0
0 0.999008 0
0 0.997192 0
0.254902 0.995056 0
0.42475 0.99263 0
0.554757 0.989944 0
0.663966 0.987121 0
0.757626 0.984268 0
0.837705 0.981491 0
0.905318 0.978897 0
0.96144 0.976577 0
1 0.974563 0
1 0.972854 0
1 0.971466 0
1 0.970336 0
1 0.970199 0
1 0.970199 0
1 0.970199 0
1 0.970199 0
1 0.970199 0
1 0.970199 0
0 1 0
0 1 0
0 1 0
0 1 0
0 1 0
0 1 0
0 1 0
0 1 0
0 1 0
0 1 0
0 1 0
0 1 0
0 1 0
0 1 0
0 1 0
0.175113 1 0
0.37966 1 0
0.521126 1 0
0.636378 1 0
0.733806 1 0
0.816419 1 0
0.885801 1 0
0.943206 1 0
0.989929 1 0
1 1 0
1 1 0
1 1 0
1 1 0
1 1 0
1 1 0
1 1 0
1 1 0
1 1 0
0 1 0
0 1 0
0 1 0
0 1 0
0 1 0
0 1 0
0 1 0
0 1 0
0 1 0
0 1 0
0 1 0
0 1 0
0 1 0
0 1 0
0 1 0
0.0696117 1 0
0.335958 1 0
0.490089 1 0
0.611444 1 0
0.712489 1 0
0.797498 1 0
0.868528 1 0
0.927108 1 0
0.974685 1 0
1 1 0
1 1 0
1 1 0
1 1 0
1 1 0
1 1 0
1 1 0
1 1 0
1 1 0
0 1 0
0 1 0
0 1 0
0 1 0
0 1 0
0 1 0
0 1 0
0 1 0
0 1 0
0 1 0
0 1 0
0 1 0
0 1 0
0 1 0
0 1 0
0 1 0
0.294575 1 0
0.462379 1 0
0.589624 1 0
0.694041 1 0
0.781201 1 0
0.853712 1 0
0.913329 1 0
0.961669 1 0
1 1 0
1 1 0
1 1 0
1 1 0
1 1 0
1 1 0
1 1 0
1 1 0
1 1 0
0 1 0
0 1 0
0 1 0
0 1 0
0 1 0
0 1 0
0 1 0
0 1 0
0 1 0
0 1 0
0 1 0
0 1 0
0 1 0
0 1 0
0 1 0
0 1 0
0.256184 1 0
0.438361 1 0
0.571084 1 0
0.678508 1 0
0.767559 1 0
0.841352 1 0
0.901869 1 0
0.950851 1 0
0.989944 1 0
1 1 0
1 1 0
1 1 0
1 1 0
1 1 0
1 1 0
1 1 0
1 1 0
0 1 0
0 1 0
0 1 0
0 1 0
0 1 0
0 1 0
0 1 0
0 1 0
0 1 0
0 1 0
0 1 0
0 1 0
0 1 0
0 1 0
0 1 0
0 1 0
0.221195 1 0
0.418067 1 0
0.555734 1 0
0.665766 1 0
0.75642 1 0
0.831281 1 0
0.892546 1 0
0.942061 1 0
0.981537 1 0
1 1 0
1 1 0
1 1 0
1 1 0
1 1 0
1 1 0
1 1 0
1 1 0
0 1 0
0 1 0
0 1 0
0 1 0
0 1 0
0 1 0
0 1 0
0 1 0
0 1 0
