5AHITM/MEDT/Pirringer/Unterricht/2025-02-26/fotos/LUTs/BMPCC 4K Gen4 BMDFilm to Rec.709 LUT 33x33.cube
TITLE "Generated by Resolve"
LUT_3D_SIZE 5
0 0 0
0.29514 0 0
0.692317 0 0
1 0 0
1 0 0
0 0.268803 0
0.229419 0.257984 0
0.666575 0.213825 0
1 0.116503 0
1 0.0153964 0
0 0.639429 0
0 0.634882 0
0.560357 0.6177 0
0.973938 0.588174 0
1 0.567285 0
0 0.97528 0
0 0.972412 0
0.312093 0.961685 0
0.860258 0.943679 0
1 0.931273 0
0 1 0
0 1 0
0 1 0
0.772885 1 0
1 1 0
0 0 0.263355
0.289921 0 0.256764
0.690105 0 0.2309
1 0 0.181704
1 0 0.141283
0 0.235096 0.230304
0.222873 0.222873 0.222873
0.664286 0.171588 0.193286
1 0.0444953 0.134203
1 0 0.0802472
0 0.625696 0.0378119
0 0.621042 0.0225223
0.557595 0.603449 0
0.972412 0.573159 0
1 0.551675 0
0 0.966659 0
0 0.96376 0
0.307149 0.952926 0
0.858518 0.934722 0
1 0.922179 0
0 1 0
0 1 0
0 1 0
0.770916 1 0
1 1 0
0 0 0.628504
0.26981 0 0.625727
0.681849 0 0.615274
1 0 0.597589
1 0 0.585306
0 0.037583 0.61503
0.19707 0.0122072 0.612177
0.65568 0 0.60148
1 0 0.583368
1 0 0.570764
0 0.571771 0.562158
0 0.566644 0.559014
0.547234 0.547234 0.547234
0.966751 0.513497 0.527169
1 0.489311 0.51313
0 0.933913 0.461219
0 0.930892 0.457374
0.288136 0.919631 0.442832
0.852018 0.900694 0.417716
1 0.887617 0.399832
0 1 0.377783
0 1 0.373098
0 1 0.355184
0.763607 1 0.323568
1 1 0.300404
0 0 0.959396
0.233295 0 0.957641
0.667964 0 0.95108
1 0 0.940139
1 0 0.932647
0 0 0.950942
0.147097 0 0.949157
0.641199 0 0.942535
1 0 0.931487
1 0 0.923919
0 0.468772 0.918807
0 0.462486 0.91696
0.529641 0.438361 0.910079
0.957321 0.395361 0.898589
1 0.363439 0.890715
0 0.87686 0.862867
0 0.873625 0.860883
0.253956 0.86154 0.853498
0.841154 0.841154 0.841154
1 0.827039 0.832685
0 1 0.822614
0 1 0.820539
0 1 0.812757
0.751339 1 0.79971
0.994873 1 0.790753
0 0 1
0.205509 0 1
0.658412 0 1
1 0 1
1 0 1
0 0 1
0.10457 0 1
0.631205 0 1
1 0 1
1 0 1
0 0.383505 1
0 0.375814 1
0.517388 0.34583 1
0.950866 0.290044 1
1 0.24593 1
0 0.835813 1
0 0.83241 1
0.228305 0.819654 1
0.833707 0.798093 1
1 0.783139 1
0 1 1
0 1 1
0 1 1
0.742931 1 0.995712
0.988693 0.988693 0.988693
