5AHITM/MEDT/Pirringer/Unterricht/2025-02-26/fotos/LUTs/BMPCC 4K Gen4 BMDFilm to Rec.709 LUT 33x33.cube
TITLE "Generated by Resolve"
LUT_3D_SIZE 33
0 0 0
0 0 0
0 0 0
0.0365911 0 0
0.096025 0 0
0.150591 0 0
0.200275 0 0
0.248005 0 0
0.29514 0 0
0.342443 0 0
0.390295 0 0
0.438941 0 0
0.488441 0 0
0.538735 0 0
0.58967 0 0
0.64097 0 0
0.692317 0 0
0.743282 0 0
0.793439 0 0
0.842298 0 0
0.889387 0 0
0.934279 0 0
0.976562 0 0
1 0 0
1 0 0
1 0 0
1 0 0
1 0 0
1 0 0
1 0 0
1 0 0
1 0 0
1 0 0
0 0 0
0 0 0
0 0 0
0.0365911 0 0
0.096025 0 0
0.150591 0 0
0.200275 0 0
0.248005 0 0
0.29514 0 0
0.342443 0 0
0.390295 0 0
0.438941 0 0
0.488441 0 0
0.538735 0 0
0.58967 0 0
0.64097 0 0
0.692317 0 0
0.743282 0 0
0.793439 0 0
0.842298 0 0
0.889387 0 0
0.934279 0 0
0.976562 0 0
1 0 0
1 0 0
1 0 0
1 0 0
1 0 0
1 0 0
1 0 0
1 0 0
1 0 0
1 0 0
0 0 0
0 0 0
0 0 0
0.0365911 0 0
0.096025 0 0
0.150591 0 0
0.200275 0 0
0.248005 0 0
0.29514 0 0
0.342443 0 0
0.390295 0 0
0.438941 0 0
0.488441 0 0
0.538735 0 0
0.58967 0 0
0.64097 0 0
0.692317 0 0
0.743282 0 0
0.793439 0 0
0.842298 0 0
0.889387 0 0
0.934279 0 0
0.976562 0 0
1 0 0
1 0 0
1 0 0
1 0 0
1 0 0
1 0 0
1 0 0
1 0 0
1 0 0
1 0 0
0 0.0313726 0
0 0.0313726 0
0 0.0313726 0
0.0243992 0.0293584 0
0.0845197 0.0260624 0
0.142214 0.0221866 0
0.193606 0.0176089 0
0.242466 0.012253 0
0.29041 0.0059968 0
0.338323 0 0
0.386679 0 0
0.435721 0 0
0.485557 0 0
0.536126 0 0
0.587289 0 0
0.638788 0 0
0.690303 0 0
0.741436 0 0
0.791714 0 0
0.840681 0 0
0.887861 0 0
0.93283 0 0
0.975189 0 0
1 0 0
1 0 0
1 0 0
1 0 0
1 0 0
1 0 0
1 0 0
1 0 0
1 0 0
1 0 0
0 0.0829938 0
0 0.0829938 0
0 0.0829938 0
0.00442512 0.0807355 0
0.0643473 0.0774395 0
0.127687 0.0735637 0
0.182284 0.068986 0
0.233143 0.0636301 0
0.282521 0.0573739 0
0.331487 0.0501106 0
0.380682 0.0417182 0
0.430396 0.032105 0
0.480781 0.021149 0
0.531823 0.00881972 0
0.583368 0 0
0.635203 0 0
0.687007 0 0
0.738384 0 0
0.788876 0 0
0.838026 0 0
0.885359 0 0
0.930449 0 0
0.97293 0 0
1 0 0
1 0 0
1 0 0
1 0 0
1 0 0
1 0 0
1 0 0
1 0 0
1 0 0
1 0 0
0 0.133913 0
0 0.133913 0
0 0.133913 0
0 0.132433 0
0.0408637 0.129976 0
0.10898 0.127062 0
0.1682 0.123552 0
0.221775 0.119371 0
0.272969 0.114336 0
0.323278 0.108309 0
0.37351 0.101076 0
0.424048 0.0923629 0
0.475105 0.0818341 0
0.526711 0.0692454 0
0.578729 0.0554818 0
0.630961 0.0402991 0
0.683101 0.0237583 0
0.734768 0.0059968 0
0.785519 0 0
0.834882 0 0
0.882399 0 0
0.927657 0 0
0.97026 0 0
1 0 0
1 0 0
1 0 0
1 0 0
1 0 0
1 0 0
1 0 0
1 0 0
1 0 0
1 0 0
0 0.18027 0
0 0.18027 0
0 0.18027 0
0 0.179095 0
0.0132143 0.177142 0
0.0838941 0.174823 0
0.150378 0.172061 0
0.207706 0.16878 0
0.261326 0.164874 0
0.313359 0.160266 0
0.364889 0.154803 0
0.416449 0.148363 0
0.468345 0.14078 0
0.520623 0.131853 0
0.57322 0.121386 0
0.62594 0.109071 0
0.678492 0.0945602 0
0.730495 0.0771344 0
0.781537 0.05832 0
0.831159 0.0386969 0
0.878904 0.0185702 0
0.924346 0 0
0.967117 0 0
1 0 0
1 0 0
1 0 0
1 0 0
1 0 0
1 0 0
1 0 0
1 0 0
1 0 0
1 0 0
0 0.224811 0
0 0.224811 0
0 0.224811 0
0 0.223819 0
0 0.222202 0
0.0512398 0.220279 0
0.12723 0.21799 0
0.190143 0.21529 0
0.247044 0.212085 0
0.301335 0.208331 0
0.354513 0.203906 0
0.40737 0.198749 0
0.460273 0.192737 0
0.51339 0.185779 0
0.566674 0.177768 0
0.619974 0.168582 0
0.67303 0.158114 0
0.725444 0.146242 0
0.776852 0.132876 0
0.82678 0.11783 0
0.874784 0.100969 0
0.920455 0.0819562 0
0.963409 0.0615702 0
1 0.0419165 0
1 0.0230564 0
1 0.00521859 0
1 0 0
1 0 0
1 0 0
1 0 0
1 0 0
1 0 0
1 0 0
0 0.268803 0
0 0.268803 0
0 0.268803 0
0 0.267948 0
0 0.26656 0
0.0133822 0.264927 0
0.0958877 0.262974 0
0.167803 0.260685 0
0.229419 0.257984 0
0.286717 0.25481 0
0.342031 0.251102 0
0.39649 0.246784 0
0.450675 0.241794 0
0.504814 0.236072 0
0.558938 0.229526 0
0.612955 0.222126 0
0.666575 0.213825 0
0.719509 0.204578 0
0.771344 0.194415 0
0.821637 0.183322 0
0.869947 0.171374 0
0.915877 0.158618 0
0.95906 0.145159 0
0.999207 0.13109 0
1 0.116503 0
1 0.101518 0
1 0.0862135 0
1 0.0707866 0
1 0.0569467 0
1 0.0445411 0
1 0.0335241 0
1 0.0238346 0
1 0.0153964 0
0 0.312932 0
0 0.312932 0
0 0.312932 0
0 0.3122 0
0 0.310994 0
0 0.30956 0
0.0523537 0.307881 0
0.138598 0.305882 0
0.20737 0.303548 0
0.268833 0.300816 0
0.32697 0.297627 0
0.38349 0.293935 0
0.439261 0.289677 0
0.494652 0.28481 0
0.549813 0.279286 0
0.604669 0.273075 0
0.659022 0.266178 0
0.712551 0.258564 0
0.764889 0.250294 0
0.81561 0.241413 0
0.864286 0.231983 0
0.910536 0.222126 0
0.953979 0.211978 0
0.994354 0.201663 0
1 0.191348 0
1 0.181155 0
1 0.171237 0
1 0.161715 0
1 0.152712 0
1 0.144274 0
1 0.136477 0
1 0.129351 0
1 0.122896 0
0 0.357595 0
0 0.357595 0
0 0.357595 0
0 0.356954 0
0 0.355886 0
0 0.354635 0
0.00157168 0.353155 0
0.0981765 0.3514 0
0.179202 0.349355 0
0.246754 0.34696 0
0.308705 0.344167 0
0.367926 0.340948 0
0.425696 0.33724 0
0.482658 0.333028 0
0.539086 0.328252 0
0.594965 0.322927 0
0.650172 0.317006 0
0.704417 0.310552 0
0.757351 0.303563 0
0.808591 0.296132 0
0.85771 0.288304 0
0.904311 0.280232 0
0.948074 0.271992 0
0.988724 0.263737 0
1 0.255589 0
1 0.247669 0
1 0.240085 0
1 0.232944 0
1 0.226291 0
1 0.220188 0
1 0.214633 0
1 0.209659 0
1 0.205234 0
0 0.402991 0
0 0.402991 0
0 0.402991 0
0 0.402426 0
0 0.401465 0
0 0.400351 0
0 0.399039 0
0.04065 0.397482 0
0.141863 0.395666 0
0.219104 0.393545 0
0.286473 0.391073 0
0.349248 0.38822 0
0.409598 0.38497 0
0.468528 0.381247 0
0.526497 0.377066 0
0.583627 0.372396 0
0.639857 0.367254 0
0.694957 0.361639 0
0.748623 0.355612 0
0.800458 0.349218 0
0.85008 0.342535 0
0.897124 0.335668 0
0.941268 0.328725 0
0.982223 0.321813 0
1 0.315038 0
1 0.308522 0
1 0.302327 0
1 0.296529 0
1 0.291188 0
1 0.286305 0
1 0.281926 0
1 0.278004 0
1 0.274556 0
0 0.44918 0
0 0.44918 0
0 0.44918 0
0 0.448661 0
0 0.447822 0
0 0.446815 0
0 0.44564 0
0 0.444236 0
0.0881208 0.442618 0
0.183581 0.440711 0
0.259098 0.438514 0
0.326772 0.435966 0
0.390494 0.433051 0
0.451896 0.429755 0
0.511788 0.426032 0
0.570443 0.421897 0
0.627909 0.41735 0
0.684031 0.412406 0
0.738537 0.407111 0
0.791089 0.401511 0
0.841321 0.395682 0
0.888884 0.389715 0
0.93344 0.383719 0
0.974762 0.377768 0
1 0.371969 0
1 0.366415 0
1 0.361151 0
1 0.356268 0
1 0.351766 0
1 0.347692 0
1 0.344045 0
1 0.340795 0
1 0.337942 0
0 0.496117 0
0 0.496117 0
0 0.496117 0
0 0.495644 0
0 0.494881 0
0 0.49398 0
0 0.492912 0
0 0.491646 0
0.0133669 0.490181 0
0.135485 0.488472 0
0.224796 0.486473 0
0.29958 0.484184 0
0.367803 0.481575 0
0.432395 0.478614 0
0.494667 0.475273 0
0.5552 0.471565 0
0.61416 0.467506 0
0.671504 0.463096 0
0.727016 0.458381 0
0.780407 0.453407 0
0.831327 0.448249 0
0.879484 0.442985 0
0.924544 0.437705 0
0.966278 0.432486 0
1 0.42742 0
1 0.422568 0
1 0.418006 0
1 0.413779 0
1 0.409903 0
1 0.406394 0
1 0.40325 0
1 0.400473 0
1 0.398016 0
0 0.543633 0
0 0.543633 0
0 0.543633 0
0 0.543206 0
0 0.542519 0
0 0.541695 0
0 0.540719 0
0 0.539574 0
0 0.538231 0
0.0620432 0.536675 0
0.180331 0.534874 0
0.266255 0.532799 0
0.34078 0.530434 0
0.409552 0.527749 0
0.47483 0.524727 0
0.537652 0.521385 0
0.598413 0.517723 0
0.657206 0.513741 0
0.713909 0.509499 0
0.768277 0.505043 0
0.82002 0.50042 0
0.868849 0.49572 0
0.914488 0.491005 0
0.95671 0.486366 0
0.995392 0.481865 0
1 0.477577 0
1 0.473548 0
1 0.46981 0
1 0.466392 0
1 0.46331 0
1 0.460563 0
1 0.458122 0
1 0.455985 0
0 0.591516 0
0 0.591516 0
0 0.591516 0
0 0.591119 0
0 0.590478 0
0 0.589731 0
0 0.588846 0
0 0.587793 0
0 0.586572 0
0 0.585153 0
0.118151 0.583505 0
0.224552 0.581598 0
0.3084 0.579446 0
0.382788 0.576989 0
0.451926 0.574243 0
0.517586 0.571191 0
0.58053 0.567864 0
0.641047 0.564248 0
0.699138 0.560403 0
0.75465 0.556359 0
0.807355 0.552193 0
0.856977 0.547936 0
0.903258 0.543694 0
0.946044 0.539513 0
0.985183 0.53547 0
1 0.531624 0
1 0.528008 0
1 0.524681 0
1 0.52163 0
1 0.518883 0
1 0.516426 0
1 0.51426 0
1 0.512352 0
0 0.639429 0
0 0.639429 0
0 0.639429 0
0 0.639063 0
0 0.638483 0
0 0.637781 0
0 0.636957 0
0 0.635996 0
0 0.634882 0
0 0.63357 0
0.0224155 0.632044 0
0.16997 0.630304 0
0.269093 0.628321 0
0.3514 0.626062 0
0.425574 0.623545 0
0.494774 0.620752 0
0.560357 0.6177 0
0.622934 0.614404 0
0.682673 0.61088 0
0.739513 0.607187 0
0.793301 0.603387 0
0.843809 0.599512 0
0.890852 0.595651 0
0.934264 0.591852 0
0.973938 0.588174 0
1 0.584695 0
1 0.58143 0
1 0.578408 0
1 0.575647 0
1 0.573159 0
1 0.570947 0
1 0.568994 0
1 0.567285 0
0 0.686992 0
0 0.686992 0
0 0.686992 0
0 0.686656 0
0 0.686122 0
0 0.685466 0
0 0.684718 0
0 0.683818 0
0 0.68278 0
0 0.681575 0
0 0.680171 0
0.089601 0.678553 0
0.220157 0.676722 0
0.314382 0.674632 0
0.395315 0.672312 0
0.469001 0.669734 0
0.53782 0.666911 0
0.602838 0.663874 0
0.664485 0.660624 0
0.72285 0.657237 0
0.77789 0.653727 0
0.829419 0.650187 0
0.877317 0.646632 0
0.921416 0.643153 0
0.961669 0.639796 0
0.998077 0.636606 0
1 0.633616 0
1 0.630854 0
1 0.628336 0
1 0.626078 0
1 0.624063 0
1 0.622278 0
1 0.620722 0
0 0.733806 0
0 0.733806 0
0 0.733806 0
0 0.733486 0
0 0.732982 0
0 0.732387 0
0 0.73167 0
0 0.730846 0
0 0.72987 0
0 0.72874 0
0 0.727443 0
0 0.725948 0
0.15555 0.724239 0
0.270161 0.722301 0
0.360601 0.720134 0
0.440055 0.717739 0
0.51284 0.715129 0
0.580758 0.712306 0
0.644633 0.7093 0
0.704753 0.706157 0
0.761196 0.702907 0
0.813886 0.699626 0
0.862715 0.696345 0
0.907607 0.693126 0
0.948501 0.690028 0
0.985443 0.687083 0
1 0.684321 0
1 0.681788 0
1 0.679469 0
1 0.677394 0
1 0.675532 0
1 0.673899 0
1 0.67248 0
0 0.7794 0
0 0.7794 0
0 0.7794 0
0 0.77911 0
0 0.778622 0
0 0.778073 0
0 0.777401 0
0 0.776623 0
0 0.775723 0
0 0.77467 0
0 0.773434 0
0 0.77203 0
0.0556802 0.770443 0
0.215824 0.768627 0
0.320623 0.766613 0
0.407706 0.76437 0
0.48539 0.761929 0
0.556771 0.759289 0
0.623224 0.756481 0
0.685344 0.753552 0
0.743358 0.75053 0
0.79733 0.747463 0
0.847196 0.744411 0
0.892943 0.741421 0
0.934554 0.738537 0
0.972076 0.735805 0
1 0.733242 0
1 0.730877 0
1 0.72874 0
1 0.726802 0
1 0.725093 0
1 0.723568 0
1 0.72224 0
0 0.823346 0
0 0.823346 0
0 0.823346 0
0 0.823072 0
0 0.822614 0
0 0.82208 0
0 0.821469 0
0 0.820737 0
0 0.819883 0
0 0.818875 0
0 0.817731 0
0 0.816403 0
0 0.814908 0
0.144411 0.813199 0
0.274067 0.811307 0
0.371664 0.809201 0
0.455497 0.806897 0
0.530999 0.804425 0
0.600427 0.801785 0
0.664805 0.799039 0
0.72459 0.796201 0
0.77995 0.793332 0
0.830961 0.790463 0
0.877623 0.787671 0
0.919997 0.78497 0
0.95816 0.782406 0
0.992233 0.780011 0
1 0.777798 0
1 0.775799 0
1 0.773999 0
1 0.772381 0
1 0.770977 0
1 0.769741 0
0 0.865217 0
0 0.865217 0
0 0.865217 0
0 0.864958 0
0 0.86453 0
0 0.864027 0
0 0.863447 0
0 0.862745 0
0 0.861936 0
0 0.861006 0
0 0.859907 0
0 0.858656 0
0 0.857237 0
0.0350347 0.855634 0
0.218494 0.853834 0
0.331518 0.851835 0
0.423178 0.849668 0
0.503609 0.847333 0
0.576455 0.844846 0
0.643366 0.842237 0
0.705089 0.839567 0
0.761975 0.836851 0
0.814206 0.83415 0
0.861875 0.83151 0
0.905058 0.828962 0
0.943877 0.826551 0
0.978515 0.824292 0
1 0.822217 0
1 0.820325 0
1 0.818631 0
1 0.817121 0
1 0.815793 0
1 0.814633 0
0 0.904677 0
0 0.904677 0
0 0.904677 0
0 0.904433 0
0 0.904021 0
0 0.903548 0
0 0.902983 0
0 0.902327 0
0 0.901564 0
0 0.900664 0
0 0.899626 0
0 0.898436 0
0 0.897078 0
0 0.895552 0
0.147967 0.893843 0
0.286549 0.891951 0
0.388525 0.889891 0
0.474845 0.887663 0
0.551614 0.885298 0
0.621332 0.882826 0
0.685161 0.880278 0
0.743694 0.877714 0
0.797208 0.875151 0
0.845914 0.872648 0
0.889952 0.870222 0
0.929473 0.867933 0
0.964675 0.865797 0
0.995804 0.863828 0
1 0.862043 0
1 0.860441 0
1 0.859007 0
1 0.85774 0
1 0.856641 0
0 0.941436 0
0 0.941436 0
0 0.941436 0
0 0.941192 0
0 0.94081 0
0 0.940352 0
0 0.939818 0
0 0.939178 0
0 0.938445 0
0 0.937591 0
0 0.936599 0
0 0.935454 0
0 0.934173 0
0 0.932708 0
0.0441444 0.93106 0
0.235416 0.929259 0
0.351507 0.927291 0
0.444984 0.925155 0
0.526207 0.922896 0
0.598993 0.920546 0
0.665095 0.91812 0
0.725368 0.915663 0
0.78024 0.913207 0
0.83003 0.910826 0
0.874937 0.908522 0
0.915175 0.90634 0
0.950973 0.904295 0
0.982574 0.902419 0
1 0.900725 0
1 0.899184 0
1 0.897826 0
1 0.89662 0
1 0.895567 0
0 0.97528 0
0 0.97528 0
0 0.97528 0
0 0.975052 0
0 0.974685 0
0 0.974243 0
0 0.973724 0
0 0.973129 0
0 0.972412 0
0 0.971588 0
0 0.970642 0
0 0.969543 0
0 0.968292 0
0 0.966888 0
0 0.965316 0
0.175158 0.963577 0
0.312093 0.961685 0
0.414282 0.95964 0
0.500557 0.957473 0
0.576715 0.955215 0
0.645212 0.95288 0
0.707286 0.95053 0
0.763577 0.94818 0
0.814466 0.945891 0
0.860258 0.943679 0
0.901213 0.941588 0
0.937591 0.939635 0
0.96968 0.937835 0
0.997818 0.936202 0
1 0.934737 0
1 0.933425 0
1 0.93228 0
1 0.931273 0
0 1 0
0 1 0
0 1 0
0 1 0
0 1 0
0 1 0
0 1 0
0 1 0
0 1 0
0 1 0
0 1 0
0 1 0
0 0.999374 0
0 0.998016 0
0 0.996506 0
0.0971695 0.994827 0
0.270039 0.992996 0
0.383047 0.991028 0
0.475013 0.988937 0
0.554788 0.98674 0
0.625803 0.984497 0
0.689738 0.982223 0
0.747433 0.979965 0
0.799451 0.977752 0
0.846128 0.975616 0
0.8878 0.973602 0
0.924758 0.971725 0
0.957321 0.969985 0
0.98584 0.968414 0
1 0.96701 0
1 0.965743 0
1 0.964645 0
1 0.963668 0
0 1 0
0 1 0
0 1 0
0 1 0
0 1 0
0 1 0
0 1 0
0 1 0
0 1 0
0 1 0
0 1 0
0 1 0
0 1 0
0 1 0
0 1 0
0 1 0
0.22475 1 0
0.351553 1 0
0.449912 1 0
0.533516 1 0
0.607141 1 0
0.672953 1 0
0.732067 1 0
0.785183 1 0
0.832731 1 0
0.87509 1 0
0.912627 1 0
0.945647 0.998917 0
0.974548 0.997391 0
0.99968 0.996017 0
1 0.994812 0
1 0.993729 0
1 0.992798 0
0 1 0
0 1 0
0 1 0
0 1 0
0 1 0
0 1 0
0 1 0
0 1 0
0 1 0
