5AHITM/MEDT/Pirringer/Unterricht/2025-02-26/fotos/LUTs/BMPCC 4K Gen4 BMDFilm to Rec.709 LUT 33x33.cube
TITLE "Generated by Resolve"
LUT_3D_SIZE 9
0 0 0
0.096025 0 0
0.29514 0 0
0.488441 0 0
0.692317 0 0
0.889387 0 0
1 0 0
1 0 0
1 0 0
0 0.0829938 0
0.0643473 0.0774395 0
0.282521 0.0573739 0
0.480781 0.021149 0
0.687007 0 0
0.885359 0 0
1 0 0
1 0 0
1 0 0
0 0.268803 0
0 0.26656 0
0.229419 0.257984 0
0.450675 0.241794 0
0.666575 0.213825 0
0.869947 0.171374 0
1 0.116503 0
1 0.0569467 0
1 0.0153964 0
0 0.44918 0
0 0.447822 0
0.0881208 0.442618 0
0.390494 0.433051 0
0.627909 0.41735 0
0.841321 0.395682 0
1 0.371969 0
1 0.351766 0
1 0.337942 0
0 0.639429 0
0 0.638483 0
0 0.634882 0
0.269093 0.628321 0
0.560357 0.6177 0
0.793301 0.603387 0
0.973938 0.588174 0
1 0.575647 0
1 0.567285 0
0 0.823346 0
0 0.822614 0
0 0.819883 0
0 0.814908 0
0.455497 0.806897 0
0.72459 0.796201 0
0.919997 0.78497 0
1 0.775799 0
1 0.769741 0
0 0.97528 0
0 0.974685 0
0 0.972412 0
0 0.968292 0
0.312093 0.961685 0
0.645212 0.95288 0
0.860258 0.943679 0
0.997818 0.936202 0
1 0.931273 0
0 1 0
0 1 0
0 1 0
0 1 0
0.117357 1 0
0.5729 1 0
0.808667 1 0
0.954406 1 0
1 1 0
0 1 0
0 1 0
0 1 0
0 1 0
0 1 0
0.519921 1 0
0.772885 1 0
0.924773 1 0
1 1 0
0 0 0.0800641
0.0934462 0 0.0768597
0.294057 0 0.0647593
0.487785 0 0.0429389
0.691844 0 0.00810254
0.889036 0 0
1 0 0
1 0 0
1 0 0
0 0.0668345 0.0647288
0.0615244 0.0615244 0.0615244
0.281392 0.0414588 0.0494392
0.48011 0.0052491 0.0276036
0.686549 0 0
0.885008 0 0
1 0 0
1 0 0
1 0 0
0 0.262058 0.0068513
0 0.25977 0.00364691
0.228061 0.25098 0
0.449958 0.234379 0
0.666102 0.20557 0
0.869581 0.16144 0
1 0.103197 0
1 0.0410468 0
1 0 0
0 0.445075 0
0 0.443687 0
0.0854047 0.438437 0
0.389654 0.428794 0
0.627405 0.412924 0
0.840955 0.391012 0
1 0.36701 0
1 0.346532 0
1 0.332494 0
0 0.636576 0
0 0.635615 0
0 0.631998 0
0.267918 0.625422 0
0.559777 0.61474 0
0.792905 0.600351 0
0.973617 0.585061 0
1 0.572457 0
1 0.564065 0
0 0.821164 0
0 0.820447 0
0 0.8177 0
0 0.812711 0
0.45478 0.804685 0
0.724147 0.793957 0
0.919661 0.782681 0
1 0.77348 0
1 0.767407 0
0 0.97348 0
0 0.972885 0
0 0.970611 0
0 0.966476 0
0.31107 0.959854 0
0.644724 0.951034 0
0.859892 0.941802 0
0.997497 0.93431 0
1 0.929381 0
0 1 0
0 1 0
0 1 0
0 1 0
0.115084 1 0
0.572335 1 0
0.808286 1 0
0.954086 1 0
1 1 0
0 1 0
0 1 0
0 1 0
0 1 0
0 1 0
0.519295 1 0
0.772473 1 0
0.924437 1 0
1 1 0
0 0 0.263355
0.083299 0 0.261997
0.289921 0 0.256764
0.485252 0 0.247089
0.690105 0 0.2309
0.887709 0 0.207935
1 0 0.181704
1 0 0.158206
1 0 0.141283
0 0.00675975 0.256748
0.0509041 0.00144961 0.255344
0.277089 0 0.250004
0.477546 0 0.240085
0.684779 0 0.223468
0.883665 0 0.199786
1 0 0.172595
1 0 0.148028
1 0 0.130175
0 0.235096 0.230304
0 0.232593 0.228763
0.222873 0.222873 0.222873
0.447211 0.204379 0.211887
0.664286 0.171588 0.193286
0.868223 0.118883 0.166262
1 0.0444953 0.134203
1 0 0.103822
1 0 0.0802472
0 0.429206 0.174517
0 0.427771 0.17258
0.0745861 0.422324 0.165118
0.386496 0.412299 0.150958
0.625467 0.395789 0.126055
0.839536 0.372885 0.0868086
1 0.347677 0.0390784
1 0.326055 0.000793469
1 0.311162 0
0 0.625696 0.0378119
0 0.62472 0.0346075
0 0.621042 0.0225223
0.263416 0.614328 0.000701915
0.557595 0.603449 0
0.791394 0.588754 0
0.972412 0.573159 0
1 0.560265 0
1 0.551675 0
0 0.812924 0
0 0.812192 0
0 0.809415 0
0 0.804364 0
0.452064 0.796246 0
0.722484 0.785397 0
0.918379 0.773983 0
1 0.764675 0
1 0.758511 0
0 0.966659 0
0 0.966049 0
0 0.96376 0
0 0.959594 0
0.307149 0.952926 0
0.642832 0.94403 0
0.858518 0.934722 0
0.996338 0.927169 0
1 0.922179 0
0 1 0
0 1 0
0 1 0
0 1 0
0.106249 1 0
0.570199 1 0
0.806806 1 0
0.95285 1 0
1 1 0
0 1 0
0 1 0
0 1 0
0 1 0
0 1 0
0.51693 1 0
0.770916 1 0
0.923171 1 0
1 1 0
0 0 0.441077
0.0638895 0 0.440238
0.282338 0 0.437064
0.480674 0 0.43125
0.686931 0 0.42182
0.885298 0 0.409033
1 0 0.395377
1 0 0.384054
1 0 0.376471
0 0 0.437049
0.0317235 0 0.436194
0.269169 0 0.43299
0.472892 0 0.427131
0.68159 0 0.417594
0.881254 0 0.404685
1 0 0.39089
1 0 0.379431
1 0 0.37174
0 0.178164 0.421469
0 0.17499 0.4206
0.213245 0.162615 0.417273
0.442237 0.138231 0.411185
0.660975 0.0912337 0.401282
0.865751 0.0149844 0.387839
1 0 0.373434
1 0 0.36144
1 0 0.353384
0 0.398962 0.391821
0 0.397421 0.390875
0.0554055 0.391562 0.387289
0.380743 0.380743 0.380743
0.621942 0.362829 0.370047
0.836973 0.337804 0.355459
1 0.309926 0.339742
1 0.285664 0.326574
1 0.268742 0.317693
0 0.605524 0.339315
0 0.604517 0.338231
0 0.600702 0.334112
0.255131 0.593744 0.326543
0.553628 0.582467 0.314107
0.788663 0.567208 0.296956
0.97023 0.550973 0.278218
1 0.53753 0.262257
1 0.528557 0.251331
0 0.797787 0.255161
0 0.79704 0.253742
0 0.794217 0.248371
0 0.789059 0.238392
0.44715 0.780774 0.221668
0.719463 0.76968 0.197818
0.91606 0.758007 0.170367
1 0.748486 0.145525
1 0.742184 0.127428
0 0.954192 0.128237
0 0.953567 0.125811
0 0.951247 0.116335
0 0.947036 0.0977646
0.299947 0.940246 0.0635843
0.639414 0.931228 0.0175937
0.856016 0.921782 0
0.994217 0.914107 0
1 0.909041 0
0 1 0
0 1 0
0 1 0
0 1 0
0.0889754 1 0
0.566323 1 0
0.804135 1 0
0.950622 1 0
1 1 0
0 1 0
0 1 0
0 1 0
0 1 0
0 1 0
0.512627 1 0
0.768109 1 0
0.920867 1 0
1 1 0
0 0 0.628504
0.0332647 0 0.627924
0.26981 0 0.625727
0.473259 0 0.621714
0.681849 0 0.615274
0.881437 0 0.606638
1 0 0.597589
1 0 0.590188
1 0 0.585306
0 0 0.625711
0.00111391 0 0.625132
0.256077 0 0.622904
0.465354 0 0.618891
0.676448 0 0.612406
0.877363 0 0.603738
1 0 0.594644
1 0 0.587213
1 0 0.582284
0 0.037583 0.61503
0 0.0322728 0.614435
0.19707 0.0122072 0.612177
0.434165 0 0.608087
0.65568 0 0.60148
0.861799 0 0.592645
1 0 0.583368
1 0 0.575784
1 0 0.570764
0 0.345388 0.595254
0 0.343618 0.594629
0.0247959 0.336858 0.592294
0.371359 0.324315 0.588052
0.616281 0.303288 0.581216
0.832868 0.273274 0.572045
1 0.238743 0.562402
1 0.207462 0.554528
1 0.184665 0.54931
0 0.571771 0.562158
0 0.570703 0.561502
0 0.566644 0.559014
0.241367 0.559243 0.554498
0.547234 0.547234 0.547234
0.784283 0.530922 0.537469
0.966751 0.513497 0.527169
1 0.499016 0.51873
1 0.489311 0.51313
0 0.772976 0.515084
0 0.772198 0.514366
0 0.769268 0.511635
0 0.763943 0.506691
0.43917 0.755352 0.498695
0.714626 0.743847 0.487938
0.912337 0.731731 0.476555
1 0.721828 0.467185
1 0.715282 0.460945
0 0.933913 0.461219
0 0.933272 0.46041
0 0.930892 0.457374
0 0.926574 0.451835
0.288136 0.919631 0.442832
0.633921 0.910369 0.430671
0.852018 0.900694 0.417716
0.990814 0.892805 0.406989
1 0.887617 0.399832
0 1 0.412772
0 1 0.411887
0 1 0.408484
0 1 0.402258
0.0583047 1 0.392142
0.560067 1 0.378378
0.799832 1 0.363607
0.947051 1 0.351293
1 1 0.343023
0 1 0.377783
0 1 0.376806
0 1 0.373098
0 1 0.366293
0 1 0.355184
0.505699 1 0.340002
0.763607 1 0.323568
0.917174 1 0.309758
1 1 0.300404
0 0 0.809705
0 0 0.809262
0.252445 0 0.807584
0.463294 0 0.804532
0.675059 0 0.799664
0.876326 0 0.793164
1 0 0.786389
1 0 0.78088
1 0 0.777264
0 0 0.807568
0 0 0.807126
0.237842 0 0.805447
0.455207 0 0.802396
0.669612 0 0.797498
0.872221 0 0.790982
1 0 0.784192
1 0 0.778668
1 0 0.775036
0 0 0.799481
0 0 0.799039
0.173907 0 0.79733
0.423285 0 0.794247
0.6486 0 0.789303
0.85655 0 0.782712
1 0 0.77583
1 0 0.770245
1 0 0.766567
0 0.259403 0.784649
0 0.257099 0.784192
0 0.248234 0.782452
0.358618 0.231464 0.779293
0.608728 0.202289 0.774243
0.82742 0.157473 0.767514
1 0.0977493 0.760494
1 0.0348821 0.754788
1 0 0.751034
0 0.523751 0.760296
0 0.522576 0.759823
0 0.518135 0.758022
0.222095 0.510018 0.754772
0.538659 0.496757 0.749538
0.778454 0.478691 0.742565
0.962127 0.459251 0.735286
1 0.442985 0.729366
1 0.432013 0.72546
0 0.738827 0.726818
0 0.738018 0.726314
0 0.734936 0.724437
0 0.729335 0.721004
0.428397 0.720302 0.715511
0.708171 0.708171 0.708171
0.907408 0.695399 0.700511
1 0.684932 0.69427
1 0.677989 0.69015
0 0.906355 0.690333
0 0.905715 0.689815
0 0.903243 0.687816
0 0.898772 0.684199
0.271809 0.8916 0.67837
0.626581 0.882017 0.670604
0.846693 0.871977 0.66247
0.986328 0.863813 0.655848
1 0.858427 0.651484
0 1 0.659419
0 1 0.658854
0 1 0.656764
0 1 0.652964
0.0178836 1 0.646845
0.551705 0.998428 0.638666
0.794141 0.989685 0.630091
0.942321 0.982605 0.623102
1 0.977935 0.618494
0 1 0.638315
0 1 0.637751
0 1 0.635569
0 1 0.631632
0 1 0.625299
0.496391 1 0.616815
0.757595 1 0.607919
0.912261 1 0.600656
0.999481 1 0.595865
0 0 0.959396
0 0 0.95903
0.233295 0 0.957641
0.45275 0 0.955123
0.667964 0 0.95108
0.870985 0 0.945724
1 0 0.940139
1 0 0.935622
1 0 0.932647
0 0 0.957641
0 0 0.957275
0.217594 0 0.955871
0.444465 0 0.953353
0.662455 0 0.949294
0.866865 0 0.943923
1 0 0.938338
1 0 0.933806
1 0 0.930831
0 0 0.950942
0 0 0.950561
0.147097 0 0.949157
0.411719 0 0.946609
0.641199 0 0.942535
0.851072 0 0.937118
1 0 0.931487
1 0 0.926909
1 0 0.923919
0 0.129076 0.938704
0 0.125048 0.938323
0 0.108949 0.936904
0.344961 0.0750591 0.934325
0.600809 0.0172427 0.930175
0.821729 0 0.924681
0.99678 0 0.918959
1 0 0.914336
1 0 0.911284
0 0.468772 0.918807
0 0.46746 0.918425
0 0.462486 0.91696
0.200549 0.453346 0.914321
0.529641 0.438361 0.910079
0.772381 0.417777 0.904448
0.957321 0.395361 0.898589
1 0.376379 0.893828
1 0.363439 0.890715
0 0.701625 0.891798
0 0.700755 0.891386
0 0.697505 0.889876
0 0.691569 0.887144
0.416983 0.682002 0.882765
0.701442 0.669139 0.876936
0.902281 0.655543 0.870878
1 0.644388 0.86595
1 0.636973 0.86273
0 0.87686 0.862867
0 0.876188 0.862455
0 0.873625 0.860883
0 0.868986 0.858045
0.253956 0.86154 0.853498
0.618906 0.851575 0.847456
0.841154 0.841154 0.841154
0.981643 0.832654 0.836042
1 0.827039 0.832685
0 0.993927 0.838788
0 0.993347 0.838361
0 0.991119 0.836744
0 0.987091 0.833814
0 0.980621 0.829129
0.542916 0.972 0.822889
0.78819 0.962997 0.816373
0.937407 0.955688 0.811093
1 0.950881 0.80763
0 1 0.822614
0 1 0.822187
0 1 0.820539
0 1 0.817548
0 1 0.812757
0.48658 1 0.806378
0.751339 1 0.79971
0.907164 1 0.794308
0.994873 1 0.790753
0 0 1
0 0 1
0.216861 0 1
0.444083 0 1
0.662211 0 1
0.866667 0 1
1 0 1
1 0 1
1 0 1
0 0 1
0 0 1
0.200092 0 1
0.435645 0 1
0.656641 0 1
0.862516 0 1
1 0 1
1 0 1
1 0 1
0 0 1
0 0 1
0.122591 0 1
0.402167 0 1
0.635172 0 1
0.846647 0 1
1 0 1
1 0 1
1 0 1
0 0 1
0 0 1
0 0 1
0.333593 0 1
0.594354 0 1
0.817136 0 1
0.993057 0 1
1 0 1
1 0 1
0 0.419287 1
0 0.417823 1
0 0.412238 1
0.18172 0.401968 1
0.522271 0.385031 1
0.767452 0.361471 1
0.953429 0.335454 1
1 0.313039 1
1 0.297536 1
0 0.670069 1
0 0.669169 1
0 0.665736 1
0 0.65951 0.999374
0.407553 0.649424 0.995529
0.695979 0.635859 0.990433
0.898116 0.6215 0.985138
1 0.609689 0.98085
1 0.601831 0.978027
0 0.852308 0.978149
0 0.851606 0.977798
0 0.848966 0.976425
0 0.84419 0.973968
0.238727 0.836484 0.970016
0.61265 0.8262 0.964767
0.836667 0.815412 0.959304
0.977859 0.806622 0.954894
1 0.800809 0.95198
0 0.972625 0.957259
0 0.97203 0.956893
0 0.969741 0.955489
0 0.965621 0.952972
0 0.958984 0.948913
0.535729 0.950164 0.943542
0.783368 0.940917 0.937942
0.933425 0.933425 0.933425
1 0.928481 0.930449
0 1 0.943313
0 1 0.942946
0 1 0.941527
0 1 0.938949
0 1 0.934844
0.478523 1 0.929366
0.746273 1 0.923674
0.903029 1 0.919081
0.991135 1 0.916045
0 0 1
0 0 1
0.205509 0 1
0.438331 0 1
0.658412 0 1
0.863828 0 1
1 0 1
1 0 1
1 0 1
0 0 1
0 0 1
0.187915 0 1
0.42977 0 1
0.652811 0 1
0.859663 0 1
1 0 1
1 0 1
1 0 1
0 0 1
0 0 1
0.10457 0 1
0.395804 0 1
0.631205 0 1
0.843732 0 1
1 0 1
1 0 1
1 0 1
0 0 1
0 0 1
0 0 1
0.325948 0 1
0.590082 0 1
0.814099 0 1
0.990616 0 1
1 0 1
1 0 1
0 0.383505 1
0 0.381918 1
0 0.375814 1
0.168521 0.364538 1
0.517388 0.34583 1
0.764202 0.319554 1
0.950866 0.290044 1
1 0.264164 1
1 0.24593 1
0 0.648539 1
0 0.647608 1
0 0.644068 1
0 0.637598 1
0.401282 0.627146 1
0.692378 0.613062 1
0.895399 0.598123 1
1 0.585809 1
1 0.577615 1
0 0.835813 1
0 0.835096 1
0 0.83241 1
0 0.827512 1
0.228305 0.819654 1
0.60853 0.809125 1
0.833707 0.798093 1
0.975372 0.78909 1
1 0.783139 1
0 0.958404 1
0 0.957794 1
0 0.955474 1
0 0.951278 1
0 0.944533 1
0.530983 0.935561 1
0.780209 0.926162 1
0.9308 0.918532 1
1 0.913497 1
0 1 1
0 1 1
0 1 1
0 1 1
0 1 1
0.473182 1 1
0.742931 1 0.995712
0.900328 0.993301 0.99147
0.988693 0.988693 0.988693
