5AHITM/MEDT/Pirringer/Unterricht/2025-02-26/fotos/LUTs/Canon C-Log2 to Rec.709 LUT 33x33.cube
TITLE "Generated by Resolve"
LUT_3D_SIZE 33
0 0 0
0 0 0
0.0271305 0 0
0.0666056 0 0
0.113741 0 0
0.160113 0 0
0.207355 0 0
0.256672 0 0
0.308827 0 0
0.364309 0 0
0.423453 0 0
0.486336 0 0
0.552865 0 0
0.622629 0 0
0.694972 0 0
0.768963 0 0
0.843351 0 0
0.916732 0 0
0.987594 0 0
1 0 0
1 0 0
1 0 0
1 0 0
1 0 0
1 0 0
1 0 0
1 0 0
1 0 0
1 0 0
1 0 0
1 0 0
1 0 0
1 0 0
0 0 0
0 0 0
0.0271305 0 0
0.0666056 0 0
0.113741 0 0
0.160113 0 0
0.207355 0 0
0.256672 0 0
0.308827 0 0
0.364309 0 0
0.423453 0 0
0.486336 0 0
0.552865 0 0
0.622629 0 0
0.694972 0 0
0.768963 0 0
0.843351 0 0
0.916732 0 0
0.987594 0 0
1 0 0
1 0 0
1 0 0
1 0 0
1 0 0
1 0 0
1 0 0
1 0 0
1 0 0
1 0 0
1 0 0
1 0 0
1 0 0
1 0 0
0 0.0207218 0
0 0.0207218 0
0.0164034 0.0178683 0
0.0558633 0.0136873 0
0.104723 0.00836194 0
0.153094 0.00155642 0
0.201663 0 0
0.251942 0 0
0.304829 0 0
0.360906 0 0
0.420508 0 0
0.483787 0 0
0.550622 0 0
0.620645 0 0
0.693217 0 0
0.767391 0 0
0.841932 0 0
0.915434 0 0
0.986404 0 0
1 0 0
1 0 0
1 0 0
1 0 0
1 0 0
1 0 0
1 0 0
1 0 0
1 0 0
1 0 0
1 0 0
1 0 0
1 0 0
1 0 0
0 0.0508736 0
0 0.0508736 0
0.00077821 0.0480201 0
0.040238 0.0438392 0
0.0906691 0.0385138 0
0.142443 0.0317082 0
0.193149 0.0230564 0
0.244938 0.0121157 0
0.298955 0 0
0.355901 0 0
0.416205 0 0
0.480049 0 0
0.547341 0 0
0.617761 0 0
0.690654 0 0
0.765087 0 0
0.839841 0 0
0.913542 0 0
0.984665 0 0
1 0 0
1 0 0
1 0 0
1 0 0
1 0 0
1 0 0
1 0 0
1 0 0
1 0 0
1 0 0
1 0 0
1 0 0
1 0 0
1 0 0
0 0.0894636 0
0 0.0894636 0
0 0.086717 0
0.0202792 0.0826429 0
0.0707408 0.0770733 0
0.127916 0.0702678 0
0.181796 0.0616159 0
0.235706 0.0506752 0
0.291264 0.0369116 0
0.349386 0.0196841 0
0.41062 0 0
0.475212 0 0
0.54313 0 0
0.614054 0 0
0.687358 0 0
0.762127 0 0
0.837186 0 0
0.911101 0 0
0.982422 0 0
1 0 0
1 0 0
1 0 0
1 0 0
1 0 0
1 0 0
1 0 0
1 0 0
1 0 0
1 0 0
1 0 0
1 0 0
1 0 0
1 0 0
0 0.130541 0
0 0.130541 0
0 0.128389 0
0 0.125231 0
0.0452735 0.12108 0
0.107561 0.115663 0
0.166445 0.108537 0
0.223468 0.0990463 0
0.281178 0.086244 0
0.340917 0.068864 0
0.403403 0.0475166 0
0.468986 0.0213474 0
0.537697 0 0
0.609277 0 0
0.683131 0 0
0.758358 0 0
0.833768 0 0
0.908003 0 0
0.979568 0 0
1 0 0
1 0 0
1 0 0
1 0 0
1 0 0
1 0 0
1 0 0
1 0 0
1 0 0
1 0 0
1 0 0
1 0 0
1 0 0
1 0 0
0 0.172396 0
0 0.172396 0
0 0.170657 0
0 0.168078 0
0.0128939 0.164752 0
0.0772564 0.160433 0
0.14522 0.154818 0
0.207019 0.147478 0
0.267872 0.137835 0
0.329854 0.125063 0
0.394034 0.107881 0
0.460945 0.0840772 0
0.530724 0.0521706 0
0.603159 0.0144045 0
0.677714 0 0
0.753521 0 0
0.829404 0 0
0.904021 0 0
0.975921 0 0
1 0 0
1 0 0
1 0 0
1 0 0
1 0 0
1 0 0
1 0 0
1 0 0
1 0 0
1 0 0
1 0 0
1 0 0
1 0 0
1 0 0
0 0.216083 0
0 0.216083 0
0 0.214633 0
0 0.212497 0
0 0.209751 0
0.036286 0.206195 0
0.11458 0.201602 0
0.184527 0.195666 0
0.250141 0.187991 0
0.315328 0.178012 0
0.381857 0.164996 0
0.450553 0.14789 0
0.521752 0.125002 0
0.595315 0.0932937 0
0.670787 0.0493477 0
0.747341 0 0
0.82385 0 0
0.89897 0 0
0.971283 0 0
1 0 0
1 0 0
1 0 0
1 0 0
1 0 0
1 0 0
1 0 0
1 0 0
1 0 0
1 0 0
1 0 0
1 0 0
1 0 0
1 0 0
0 0.262287 0
0 0.262287 0
0 0.261067 0
0 0.259266 0
0 0.256947 0
0 0.253971 0
0.0665141 0.250141 0
0.152667 0.245212 0
0.226108 0.23888 0
0.296117 0.230762 0
0.365972 0.220356 0
0.43714 0.206973 0
0.510216 0.189776 0
0.58529 0.167468 0
0.661967 0.138079 0
0.739498 0.0977188 0
0.8168 0.0419471 0
0.892576 0 0
0.965393 0 0
1 0 0
1 0 0
1 0 0
1 0 0
1 0 0
1 0 0
1 0 0
1 0 0
1 0 0
1 0 0
1 0 0
1 0 0
1 0 0
1 0 0
0 0.311452 0
0 0.311452 0
0 0.310399 0
0 0.308858 0
0 0.306889 0
0 0.304356 0
0.00202945 0.301106 0
0.104082 0.296941 0
0.192615 0.29163 0
0.270344 0.284855 0
0.345113 0.276249 0
0.419745 0.26537 0
0.49543 0.251621 0
0.572503 0.234348 0
0.650767 0.212619 0
0.729564 0.185229 0
0.807889 0.15024 0
0.884489 0.103731 0
0.957992 0.0406348 0
1 0 0
1 0 0
1 0 0
1 0 0
1 0 0
1 0 0
1 0 0
1 0 0
1 0 0
1 0 0
1 0 0
1 0 0
1 0 0
1 0 0
0 0.363836 0
0 0.363836 0
0 0.362936 0
0 0.361608 0
0 0.359915 0
0 0.357733 0
0 0.35494 0
0.0256504 0.351385 0
0.143084 0.346853 0
0.234989 0.3411 0
0.317494 0.333852 0
0.397162 0.324758 0
0.476448 0.313405 0
0.556222 0.299367 0
0.636591 0.282124 0
0.717037 0.261158 0
0.796704 0.235828 0
0.874372 0.205371 0
0.94873 0.168612 0
1 0.123293 0
1 0.0639963 0
1 0.00172427 0
1 0 0
1 0 0
1 0 0
1 0 0
1 0 0
1 0 0
1 0 0
1 0 0
1 0 0
1 0 0
1 0 0
0 0.419547 0
0 0.419547 0
0 0.418769 0
0 0.417609 0
0 0.416129 0
0 0.414237 0
0 0.411826 0
0 0.408743 0
0.0579843 0.404837 0
0.184115 0.399908 0
0.280186 0.393698 0
0.36762 0.385962 0
0.452064 0.376379 0
0.535561 0.364645 0
0.618723 0.350439 0
0.701366 0.333471 0
0.782742 0.313527 0
0.861769 0.29044 0
0.93724 0.264164 0
1 0.234684 0
1 0.20206 0
1 0.16614 0
1 0.126436 0
1 0.0812695 0
1 0.0351873 0
1 0 0
1 0 0
1 0 0
1 0 0
1 0 0
1 0 0
1 0 0
1 0 0
0 0.478477 0
0 0.478477 0
0 0.477791 0
0 0.476783 0
0 0.475486 0
0 0.473838 0
0 0.471717 0
0 0.469032 0
0 0.465629 0
0.101183 0.461341 0
0.227955 0.45597 0
0.328466 0.449287 0
0.420645 0.441062 0
0.509377 0.431067 0
0.596338 0.419059 0
0.681849 0.404898 0
0.765454 0.388479 0
0.84625 0.369863 0
0.92311 0.349233 0
0.994873 0.326879 0
1 0.303304 0
1 0.279042 0
1 0.254673 0
1 0.230793 0
1 0.207889 0
1 0.186389 0
1 0.166583 0
1 0.148684 0
1 0.138033 0
1 0.138033 0
1 0.138033 0
1 0.138033 0
1 0.138033 0
0 0.540291 0
0 0.540291 0
0 0.539681 0
0 0.538781 0
0 0.537636 0
0 0.536187 0
0 0.534325 0
0 0.53196 0
0 0.528969 0
0 0.5252 0
0.147784 0.5205 0
0.275151 0.514672 0
0.379873 0.507515 0
0.476265 0.498863 0
0.568475 0.488533 0
0.657801 0.476448 0
0.744305 0.462562 0
0.827329 0.447013 0
0.905943 0.430014 0
0.979095 0.411948 0
1 0.393286 0
1 0.374594 0
1 0.35639 0
1 0.339178 0
1 0.323323 0
1 0.309102 0
1 0.29662 0
1 0.285893 0
1 0.279774 0
1 0.279774 0
1 0.279774 0
1 0.279774 0
1 0.279774 0
0 0.604379 0
0 0.604379 0
0 0.603845 0
0 0.603052 0
0 0.602029 0
0 0.600732 0
0 0.599084 0
0 0.596994 0
0 0.594339 0
0 0.590997 0
0 0.586847 0
0.19765 0.581704 0
0.326024 0.575418 0
0.434302 0.567819 0
0.533944 0.558816 0
0.628428 0.548302 0
0.7187 0.536324 0
0.804593 0.523003 0
0.88542 0.508568 0
0.960281 0.493416 0
1 0.477943 0
1 0.462654 0
1 0.44799 0
1 0.434333 0
1 0.421973 0
1 0.411048 0
1 0.401617 0
1 0.393622 0
1 0.38912 0
1 0.38912 0
1 0.38912 0
1 0.38912 0
1 0.38912 0
0 0.669932 0
0 0.669932 0
0 0.669444 0
0 0.668727 0
0 0.667811 0
0 0.666651 0
0 0.665171 0
0 0.663294 0
0 0.660929 0
0 0.657954 0
0 0.654246 0
0.055787 0.649653 0
0.251759 0.644068 0
0.380682 0.637339 0
0.491356 0.629358 0
0.59292 0.620111 0
0.688136 0.609598 0
0.777676 0.597971 0
0.86125 0.585458 0
0.938247 0.572396 0
1 0.559167 0
1 0.546212 0
1 0.533883 0
1 0.522515 0
1 0.512291 0
1 0.503349 0
1 0.495674 0
1 0.489219 0
1 0.485603 0
1 0.485603 0
1 0.485603 0
1 0.485603 0
1 0.485603 0
0 0.735821 0
0 0.735821 0
0 0.735393 0
0 0.734737 0
0 0.733928 0
0 0.732876 0
0 0.731533 0
0 0.729839 0
0 0.727703 0
0 0.725017 0
0 0.721675 0
0 0.717556 0
0.134752 0.71252 0
0.310491 0.706477 0
0.438895 0.699351 0
0.550454 0.691081 0
0.652216 0.681743 0
0.74638 0.671427 0
0.833371 0.66038 0
0.912932 0.648905 0
0.98468 0.637354 0
1 0.626078 0
1 0.615427 0
1 0.605646 0
1 0.596902 0
1 0.589273 0
1 0.582773 0
1 0.577325 0
1 0.574273 0
1 0.574273 0
1 0.574273 0
1 0.574273 0
1 0.574273 0
0 0.800839 0
0 0.800839 0
0 0.800427 0
0 0.799847 0
0 0.7991 0
0 0.798138 0
0 0.796918 0
0 0.795377 0
0 0.793423 0
0 0.790982 0
0 0.787945 0
0 0.784192 0
0 0.779629 0
0.212024 0.774151 0
0.373724 0.767697 0
0.500114 0.76022 0
0.610681 0.751797 0
0.710719 0.742535 0
0.801892 0.732631 0
0.884565 0.722377 0
0.958648 0.712093 0
1 0.702098 0
1 0.692683 0
1 0.684062 0
1 0.676387 0
1 0.669734 0
1 0.664057 0
1 0.659312 0
1 0.656657 0
1 0.656657 0
1 0.656657 0
1 0.656657 0
1 0.656657 0
0 0.863615 0
0 0.863615 0
0 0.863249 0
0 0.862715 0
0 0.862013 0
0 0.861143 0
0 0.860014 0
0 0.858595 0
0 0.856794 0
0 0.854551 0
0 0.851759 0
0 0.84831 0
0 0.844129 0
0.0305791 0.839109 0
0.290394 0.833204 0
0.440803 0.826368 0
0.563439 0.818677 0
0.670939 0.810239 0
0.767208 0.801251 0
0.853544 0.791943 0
0.930358 0.78265 0
0.997803 0.773632 0
1 0.765164 0
1 0.757427 0
1 0.750561 0
1 0.74461 0
1 0.739544 0
1 0.735317 0
1 0.732967 0
1 0.732967 0
1 0.732967 0
1 0.732967 0
1 0.732967 0
0 0.922911 0
0 0.922911 0
0 0.92256 0
0 0.922057 0
0 0.921416 0
0 0.920607 0
0 0.919554 0
0 0.918242 0
0 0.916579 0
0 0.914488 0
0 0.911894 0
0 0.908705 0
0 0.904814 0
0 0.900175 0
0.172885 0.894697 0
0.370642 0.888395 0
0.510536 0.8813 0
0.627573 0.873518 0
0.729976 0.865232 0
0.820569 0.856703 0
0.90045 0.848173 0
0.970214 0.839918 0
1 0.832181 0
1 0.825132 0
1 0.818875 0
1 0.813458 0
1 0.808865 0
1 0.805035 0
1 0.802899 0
1 0.802899 0
1 0.802899 0
1 0.802899 0
1 0.802899 0
0 0.97763 0
0 0.97763 0
0 0.97731 0
0 0.976837 0
0 0.976226 0
0 0.975464 0
0 0.974487 0
0 0.973251 0
0 0.971679 0
0 0.969726 0
0 0.9673 0
0 0.964309 0
0 0.960678 0
0 0.956329 0
0 0.951217 0
0.285664 0.945312 0
0.452094 0.938689 0
0.581369 0.931441 0
0.691051 0.923735 0
0.786496 0.915785 0
0.869795 0.907866 0
0.942061 0.900221 0
1 0.89305 0
1 0.886534 0
1 0.880751 0
1 0.875761 0
1 0.871519 0
1 0.867979 0
1 0.866026 0
1 0.866026 0
1 0.866026 0
1 0.866026 0
1 0.866026 0
0 1 0
0 1 0
0 1 0
0 1 0
0 1 0
0 1 0
0 1 0
0 1 0
0 1 0
0 1 0
0 1 0
0 1 0
0 1 0
0 1 0
0 1 0
0.173754 0.99646 0
0.387976 0.990204 0
0.533242 0.983368 0
0.651484 0.97612 0
0.7523 0.968643 0
0.839307 0.961212 0
0.914214 0.954025 0
0.978134 0.947311 0
1 0.941207 0
1 0.93579 0
1 0.931121 0
1 0.927169 0
1 0.923873 0
1 0.922026 0
1 0.922026 0
1 0.922026 0
1 0.922026 0
1 0.922026 0
0 1 0
0 1 0
0 1 0
0 1 0
0 1 0
0 1 0
0 1 0
0 1 0
0 1 0
0 1 0
0 1 0
0 1 0
0 1 0
0 1 0
0 1 0
0 1 0
0.317479 1 0
0.484169 1 0
0.612314 1 0
0.719005 1 0
0.809888 1 0
0.88751 1 0
0.953399 0.994751 0
1 0.988968 0
1 0.983856 0
1 0.979446 0
1 0.975692 0
1 0.97258 0
1 0.970855 0
1 0.970855 0
1 0.970855 0
1 0.970855 0
1 0.970855 0
0 1 0
0 1 0
0 1 0
0 1 0
0 1 0
0 1 0
0 1 0
0 1 0
0 1 0
0 1 0
0 1 0
0 1 0
0 1 0
0 1 0
0 1 0
0 1 0
0.238117 1 0
0.435111 1 0
0.574578 1 0
0.68748 1 0
0.782315 1 0
0.862638 1 0
0.93048 1 0
0.987289 1 0
1 1 0
1 1 0
1 1 0
1 1 0
1 1 0
1 1 0
1 1 0
1 1 0
1 1 0
0 1 0
0 1 0
0 1 0
0 1 0
0 1 0
0 1 0
0 1 0
0 1 0
0 1 0
0 1 0
0 1 0
0 1 0
0 1 0
0 1 0
0 1 0
0 1 0
0.141649 1 0
0.386892 1 0
0.539117 1 0
0.658427 1 0
0.757168 1 0
0.840101 1 0
0.909789 1 0
0.967941 1 0
1 1 0
1 1 0
1 1 0
1 1 0
1 1 0
1 1 0
1 1 0
1 1 0
1 1 0
0 1 0
0 1 0
0 1 0
0 1 0
0 1 0
0 1 0
0 1 0
0 1 0
0 1 0
0 1 0
0 1 0
0 1 0
0 1 0
0 1 0
0 1 0
0 1 0
0.00639353 1 0
0.3402 1 0
0.5066 1 0
0.632319 1 0
0.734798 1 0
0.820203 1 0
0.891569 1 0
0.950957 1 0
0.999969 1 0
1 1 0
1 1 0
1 1 0
1 1 0
1 1 0
1 1 0
1 1 0
1 1 0
0 1 0
0 1 0
0 1 0
0 1 0
0 1 0
0 1 0
0 1 0
0 1 0
0 1 0
0 1 0
0 1 0
0 1 0
0 1 0
0 1 0
0 1 0
0 1 0
0 1 0
0.295506 1 0
0.477424 1 0
0.6094 1 0
0.715373 1 0
0.802991 1 0
0.875898 1 0
0.936385 1 0
0.986191 1 0
1 1 0
1 1 0
1 1 0
1 1 0
1 1 0
1 1 0
1 1 0
1 1 0
0 1 0
0 1 0
0 1 0
0 1 0
0 1 0
0 1 0
0 1 0
0 1 0
0 1 0
