5AHITM/MEDT/Pirringer/Unterricht/2025-02-26/fotos/LUTs/Canon C-Log2 to Rec.709 LUT 33x33.cube
TITLE "Generated by Resolve"
LUT_3D_SIZE 5
0 0 0
0.308827 0 0
0.843351 0 0
1 0 0
1 0 0
0 0.262287 0
0.226108 0.23888 0
0.8168 0.0419471 0
1 0 0
1 0 0
0 0.735821 0
0 0.727703 0
0.652216 0.681743 0
1 0.596902 0
1 0.574273 0
0 1 0
0 1 0
0.141649 1 0
1 1 0
1 1 0
0 1 0
0 1 0
0 1 0
0.968124 1 0
1 1 0
0 0 0.245579
0.296147 0 0.242817
0.838865 0 0.227298
1 0 0.199252
1 0 0.191943
0 0.228748 0.19443
0.209155 0.202106 0.191058
0.812161 0 0.171847
1 0 0.135515
1 0 0.125597
0 0.724361 0
0 0.716091 0
0.646296 0.669276 0
1 0.582513 0
1 0.559289 0
0 1 0
0 1 0
0.11632 1 0
1 1 0
1 1 0
0 1 0
0 1 0
0 1 0
0.964263 1 0
1 1 0
0 0 0.697215
0.216175 0 0.696223
0.814054 0 0.690837
1 0 0.681743
1 0 0.679515
0 0 0.680262
0.0838941 0 0.679255
0.786419 0 0.673701
1 0 0.664378
1 0 0.662089
0 0.65832 0.579019
0 0.649149 0.577813
0.613046 0.596735 0.571237
1 0.496834 0.560098
1 0.469245 0.557351
0 1 0.348348
0 1 0.346334
0 1 0.335256
0.99234 1 0.315984
1 0.996902 0.311147
0 1 0.264515
0 1 0.261936
0 1 0.247456
0.943069 1 0.221592
1 1 0.214893
0 0 1
0 0 1
0.770825 0 1
1 0 1
1 0 1
0 0 1
0 0 1
0.741436 0 1
1 0 1
1 0 1
0 0.529259 1
0 0.517693 1
0.553094 0.449592 1
1 0.304707 1
1 0.25835 1
0 1 0.907393
0 1 0.906661
0 0.988235 0.902617
0.957916 0.9337 0.895827
1 0.919905 0.894179
0 1 0.879316
0 1 0.878553
0 1 0.874357
0.906569 1 0.867338
1 1 0.865629
0 0 1
0 0 1
0.759899 0 1
1 0 1
1 0 1
0 0 1
0 0 1
0.730053 0 1
1 0 1
1 0 1
0 0.492592 1
0 0.48011 1
0.537469 0.405722 1
1 0.237171 1
1 0.176654 1
0 1 0.994675
0 1 0.994003
0 0.969955 0.990341
0.94934 0.914214 0.984237
1 0.900084 0.982742
0 1 0.969375
0 1 0.968688
0 1 0.964935
0.897444 1 0.958633
1 0.997299 0.957107
