5AHITM/MEDT/Pirringer/Unterricht/2025-02-26/fotos/LUTs/Canon C-Log2 to Rec.709 LUT 33x33.cube
TITLE "Generated by Resolve"
LUT_3D_SIZE 9
0 0 0
0.113741 0 0
0.308827 0 0
0.552865 0 0
0.843351 0 0
1 0 0
1 0 0
1 0 0
1 0 0
0 0.0894636 0
0.0707408 0.0770733 0
0.291264 0.0369116 0
0.54313 0 0
0.837186 0 0
1 0 0
1 0 0
1 0 0
1 0 0
0 0.262287 0
0 0.256947 0
0.226108 0.23888 0
0.510216 0.189776 0
0.8168 0.0419471 0
1 0 0
1 0 0
1 0 0
1 0 0
0 0.478477 0
0 0.475486 0
0 0.465629 0
0.420645 0.441062 0
0.765454 0.388479 0
1 0.303304 0
1 0.207889 0
1 0.138033 0
1 0.138033 0
0 0.735821 0
0 0.733928 0
0 0.727703 0
0.134752 0.71252 0
0.652216 0.681743 0
0.98468 0.637354 0
1 0.596902 0
1 0.574273 0
1 0.574273 0
0 0.97763 0
0 0.976226 0
0 0.971679 0
0 0.960678 0
0.452094 0.938689 0
0.869795 0.907866 0
1 0.880751 0
1 0.866026 0
1 0.866026 0
0 1 0
0 1 0
0 1 0
0 1 0
0.141649 1 0
0.757168 1 0
1 1 0
1 1 0
1 1 0
0 1 0
0 1 0
0 1 0
0 1 0
0 1 0
0.689448 1 0
0.968124 1 0
1 1 0
1 1 0
0 1 0
0 1 0
0 1 0
0 1 0
0 1 0
0.689448 1 0
0.968124 1 0
1 1 0
1 1 0
0 0 0.0805066
0.107134 0 0.0790723
0.305882 0 0.0744335
0.551202 0 0.0633097
0.842298 0 0.0414893
1 0 0.0118563
1 0 0
1 0 0
1 0 0
0 0.0720226 0.0563363
0.0628061 0.0596475 0.054902
0.288151 0.0194858 0.0502632
0.541451 0 0.0391241
0.836118 0 0.017319
1 0 0
1 0 0
1 0 0
1 0 0
0 0.254734 0
0 0.249256 0
0.222217 0.230671 0
0.508431 0.179767 0
0.815717 0.0245365 0
1 0 0
1 0 0
1 0 0
1 0 0
0 0.474266 0
0 0.471244 0
0 0.461295 0
0.418463 0.436484 0
0.764294 0.383276 0
1 0.296712 0
1 0.198611 0
1 0.125124 0
1 0.125124 0
0 0.73315 0
0 0.731228 0
0 0.724987 0
0.128878 0.709743 0
0.650828 0.678828 0
0.983795 0.634211 0
1 0.593545 0
1 0.570779 0
1 0.570779 0
0 0.975662 0
0 0.974258 0
0 0.969711 0
0 0.958679 0
0.45005 0.936645 0
0.868788 0.90573 0
1 0.878553 0
1 0.863767 0
1 0.863767 0
0 1 0
0 1 0
0 1 0
0 1 0
0.135988 1 0
0.755978 1 0
1 1 0
1 1 0
1 1 0
0 1 0
0 1 0
0 1 0
0 1 0
0 1 0
0.688136 1 0
0.967208 1 0
1 1 0
1 1 0
0 1 0
0 1 0
0 1 0
0 1 0
0 1 0
0.688136 1 0
0.967208 1 0
1 1 0
1 1 0
0 0 0.245579
0.0836042 0 0.244938
0.296147 0 0.242817
0.5458 0 0.237675
0.838865 0 0.227298
1 0 0.212512
1 0 0.199252
1 0 0.191943
1 0 0.191943
0 0.0154879 0.234394
0.0370336 0.00311284 0.233722
0.277852 0 0.23151
0.535943 0 0.226154
0.83267 0 0.215305
1 0 0.199802
1 0 0.185809
1 0 0.178042
1 0 0.178042
0 0.228748 0.19443
0 0.222705 0.193637
0.209155 0.202106 0.191058
0.502541 0.143709 0.184741
0.812161 0 0.171847
1 0 0.153002
1 0 0.135515
1 0 0.125597
1 0 0.125597
0 0.460288 0.050782
0 0.457176 0.0493477
0 0.446906 0.0447089
0.411292 0.421256 0.0335851
0.760479 0.365896 0.0117647
1 0.274281 0
1 0.165743 0
1 0.0749065 0
1 0.0749065 0
0 0.724361 0
0 0.722423 0
0 0.716091 0
0.1084 0.700648 0
0.646296 0.669276 0
0.980911 0.623941 0
1 0.582513 0
1 0.559289 0
1 0.559289 0
0 0.969253 0
0 0.967849 0
0 0.963256 0
0 0.952132 0
0.443397 0.929931 0
0.865476 0.898772 0
1 0.871351 0
1 0.856428 0
1 0.856428 0
0 1 0
0 1 0
0 1 0
0 1 0
0.11632 1 0
0.752117 1 0
1 1 0
1 1 0
1 1 0
0 1 0
0 1 0
0 1 0
0 1 0
0 1 0
0.683864 1 0
0.964263 1 0
1 1 0
1 1 0
0 1 0
0 1 0
0 1 0
0 1 0
0 1 0
0.683864 1 0
0.964263 1 0
1 1 0
1 1 0
0 0 0.451774
0.0215152 0 0.451408
0.271473 0 0.450217
0.532586 0 0.447349
0.830579 0 0.441688
1 0 0.43386
1 0 0.427115
1 0 0.423484
1 0 0.423484
0 0 0.445548
0 0 0.445182
0.251591 0 0.443976
0.522469 0 0.441062
0.824292 0 0.435325
1 0 0.427375
1 0 0.420523
1 0 0.416846
1 0 0.416846
0 0.152712 0.42472
0 0.144305 0.424323
0.174655 0.114168 0.423056
0.488136 0.0211643 0.420005
0.803555 0 0.413977
1 0 0.405615
1 0 0.398398
1 0 0.394522
1 0 0.394522
0 0.424857 0.370016
0 0.421485 0.369574
0 0.41033 0.368124
0.393545 0.382269 0.36463
0.751232 0.320516 0.357671
1 0.212222 0.348028
1 0.0545968 0.33962
1 0 0.335088
1 0 0.335088
0 0.702785 0.230304
0 0.700786 0.229618
0 0.69424 0.227375
0.0487678 0.678264 0.221927
0.635264 0.645731 0.21091
0.973938 0.598505 0.195102
1 0.555093 0.180819
1 0.530617 0.1729
1 0.530617 0.1729
0 0.953674 0
0 0.952239 0
0 0.94757 0
0 0.936233 0
0.426978 0.913603 0
0.85745 0.881804 0
1 0.853788 0
1 0.838529 0
1 0.838529 0
0 1 0
0 1 0
0 1 0
0 1 0
0.0583963 1 0
0.742763 1 0
1 1 0
1 1 0
1 1 0
0 1 0
0 1 0
0 1 0
0 1 0
0 1 0
0.673503 1 0
0.957168 1 0
1 1 0
1 1 0
0 1 0
0 1 0
0 1 0
0 1 0
0 1 0
0.673503 1 0
0.957168 1 0
1 1 0
1 1 0
0 0 0.697215
0 0 0.696986
0.216175 0 0.696223
0.505684 0 0.694408
0.814054 0 0.690837
1 0 0.685939
1 0 0.681743
1 0 0.679515
1 0 0.679515
0 0 0.693263
0 0 0.693034
0.191577 0 0.692271
0.495003 0 0.69044
0.80763 0 0.686839
1 0 0.68191
1 0 0.677699
1 0 0.675456
1 0 0.675456
0 0 0.680262
0 0 0.680034
0.0838941 0 0.679255
0.458579 0 0.677378
0.786419 0 0.673701
1 0 0.668681
1 0 0.664378
1 0 0.662089
1 0 0.662089
0 0.345266 0.647929
0 0.341131 0.647669
0 0.327367 0.64686
0.356329 0.291859 0.644892
0.732769 0.207462 0.641016
1 0.00671397 0.635706
1 0 0.631159
1 0 0.628748
1 0 0.628748
0 0.65832 0.579019
0 0.656168 0.578744
0 0.649149 0.577813
0 0.631952 0.575601
0.613046 0.596735 0.571237
0.960113 0.545068 0.56524
1 0.496834 0.560098
1 0.469245 0.557351
1 0.469245 0.557351
0 0.922301 0.468681
0 0.920806 0.46833
0 0.915953 0.467185
0 0.904189 0.464424
0.392844 0.880644 0.458961
0.841505 0.847486 0.451453
1 0.818173 0.444953
1 0.802182 0.441489
1 0.802182 0.441489
0 1 0.348348
0 1 0.347875
0 1 0.346334
0 1 0.342626
0 1 0.335256
0.724071 1 0.324971
0.99234 1 0.315984
1 0.996902 0.311147
1 0.996902 0.311147
0 1 0.264515
0 1 0.26392
0 1 0.261936
0 1 0.25713
0 1 0.247456
0.652659 1 0.233768
0.943069 1 0.221592
1 1 0.214893
1 1 0.214893
0 1 0.264515
0 1 0.26392
0 1 0.261936
0 1 0.25713
0 1 0.247456
0.652659 1 0.233768
0.943069 1 0.221592
1 1 0.214893
1 1 0.214893
0 0 0.92784
0 0 0.927657
0.112627 0 0.927108
0.466575 0 0.92578
0.790997 0 0.923171
1 0 0.9196
1 0 0.916548
1 0 0.914946
1 0 0.914946
0 0 0.924941
0 0 0.924773
0.0693828 0 0.924208
0.454963 0 0.922881
0.784375 0 0.920256
1 0 0.916671
1 0 0.913619
1 0 0.912001
1 0 0.912001
0 0 0.91548
0 0 0.915312
0 0 0.914748
0.41503 0 0.913405
0.762448 0 0.91075
1 0 0.907118
1 0 0.904036
1 0 0.902388
1 0 0.902388
0 0.194812 0.892332
0 0.187884 0.892149
0 0.163882 0.891569
0.298787 0.090898 0.890181
0.706828 0 0.887449
1 0 0.883726
1 0 0.880537
1 0 0.878859
1 0 0.878859
0 0.592203 0.844923
0 0.589792 0.844739
0 0.581933 0.844114
0 0.56257 0.842649
0.58143 0.522484 0.83975
0.940963 0.462318 0.835782
1 0.404196 0.83241
1 0.369818 0.83061
1 0.369818 0.83061
0 0.877668 0.775402
0 0.876097 0.775204
0 0.87097 0.774517
0 0.858518 0.7729
0.341207 0.833555 0.769711
0.819287 0.79826 0.765362
1 0.766888 0.761639
1 0.749691 0.759655
1 0.749691 0.759655
0 1 0.710552
0 1 0.710323
0 1 0.709575
0 1 0.707805
0 1 0.704295
0.69778 0.993805 0.699504
0.973892 0.969345 0.695399
1 0.956115 0.693217
1 0.956115 0.693217
0 1 0.673503
0 1 0.673259
0 1 0.67248
0 1 0.670588
0 1 0.666865
0.623163 1 0.661784
0.923522 1 0.657435
1 1 0.655116
1 1 0.655116
0 1 0.673503
0 1 0.673259
0 1 0.67248
0 1 0.670588
0 1 0.666865
0.623163 1 0.661784
0.923522 1 0.657435
1 1 0.655116
1 1 0.655116
0 0 1
0 0 1
0 0 1
0.430549 0 1
0.770825 0 1
1 0 1
1 0 1
1 0 1
1 0 1
0 0 1
0 0 1
0 0 1
0.417945 0 1
0.764004 0 1
1 0 1
1 0 1
1 0 1
1 0 1
0 0 1
0 0 1
0 0 1
0.374136 0 1
0.741436 0 1
1 0 1
1 0 1
1 0 1
1 0 1
0 0 1
0 0 1
0 0 1
0.24036 0 1
0.68397 0 1
1 0 1
1 0 1
1 0 1
1 0 1
0 0.529259 1
0 0.526558 1
0 0.517693 1
0 0.49575 1
0.553094 0.449592 1
0.924346 0.377981 1
1 0.304707 1
1 0.25835 1
1 0.25835 1
0 0.83769 0.957992
0 0.836042 0.957824
0 0.83064 0.95729
0 0.817533 0.956008
0.290654 0.79115 0.953475
0.799893 0.753689 0.950042
1 0.720195 0.947112
1 0.701778 0.945556
1 0.701778 0.945556
0 1 0.907393
0 1 0.907225
0 1 0.906661
0 1 0.905287
0 0.988235 0.902617
0.674586 0.959167 0.898955
0.957916 0.9337 0.895827
1 0.919905 0.894179
1 0.919905 0.894179
0 1 0.879316
0 1 0.879133
0 1 0.878553
0 1 0.877134
0 1 0.874357
0.596887 1 0.870573
0.906569 1 0.867338
1 1 0.865629
1 1 0.865629
0 1 0.879316
0 1 0.879133
0 1 0.878553
0 1 0.877134
0 1 0.874357
0.596887 1 0.870573
0.906569 1 0.867338
1 1 0.865629
1 1 0.865629
0 0 1
0 0 1
0 0 1
0.410208 0 1
0.759899 0 1
1 0 1
1 0 1
1 0 1
1 0 1
0 0 1
0 0 1
0 0 1
0.396963 0 1
0.752987 0 1
1 0 1
1 0 1
1 0 1
1 0 1
0 0 1
0 0 1
0 0 1
0.350622 0 1
0.730053 0 1
1 0 1
1 0 1
1 0 1
1 0 1
0 0 1
0 0 1
0 0 1
0.203754 0 1
0.671534 0 1
0.997131 0 1
1 0 1
1 0 1
1 0 1
0 0.492592 1
0 0.489677 1
0 0.48011 1
0 0.456336 1
0.537469 0.405722 1
0.915419 0.324865 1
1 0.237171 1
1 0.176654 1
1 0.176654 1
0 0.815671 1
0 0.813962 1
0 0.808408 1
0 0.794903 1
0.260319 0.767666 1
0.78941 0.728893 1
1 0.694118 1
1 0.674937 1
1 0.674937 1
0 1 0.994675
0 1 0.994507
0 1 0.994003
0 0.991165 0.992767
0 0.969955 0.990341
0.661967 0.940261 0.987045
0.94934 0.914214 0.984237
1 0.900084 0.982742
1 0.900084 0.982742
0 1 0.969375
0 1 0.969207
0 1 0.968688
0 1 0.967422
0 1 0.964935
0.582483 1 0.961532
0.897444 1 0.958633
1 0.997299 0.957107
1 0.997299 0.957107
0 1 0.969375
0 1 0.969207
0 1 0.968688
0 1 0.967422
0 1 0.964935
0.582483 1 0.961532
0.897444 1 0.958633
1 0.997299 0.957107
1 0.997299 0.957107
0 0 1
0 0 1
0 0 1
0.410208 0 1
0.759899 0 1
1 0 1
1 0 1
1 0 1
1 0 1
0 0 1
0 0 1
0 0 1
0.396963 0 1
0.752987 0 1
1 0 1
1 0 1
1 0 1
1 0 1
0 0 1
0 0 1
0 0 1
0.350622 0 1
0.730053 0 1
1 0 1
1 0 1
1 0 1
1 0 1
0 0 1
0 0 1
0 0 1
0.203754 0 1
0.671534 0 1
0.997131 0 1
1 0 1
1 0 1
1 0 1
0 0.492592 1
0 0.489677 1
0 0.48011 1
0 0.456336 1
0.537469 0.405722 1
0.915419 0.324865 1
1 0.237171 1
1 0.176654 1
1 0.176654 1
0 0.815671 1
0 0.813962 1
0 0.808408 1
0 0.794903 1
0.260319 0.767666 1
0.78941 0.728893 1
1 0.694118 1
1 0.674937 1
1 0.674937 1
0 1 0.994675
0 1 0.994507
0 1 0.994003
0 0.991165 0.992767
0 0.969955 0.990341
0.661967 0.940261 0.987045
0.94934 0.914214 0.984237
1 0.900084 0.982742
1 0.900084 0.982742
0 1 0.969375
0 1 0.969207
0 1 0.968688
0 1 0.967422
0 1 0.964935
0.582483 1 0.961532
0.897444 1 0.958633
1 0.997299 0.957107
1 0.997299 0.957107
0 1 0.969375
0 1 0.969207
0 1 0.968688
0 1 0.967422
0 1 0.964935
0.582483 1 0.961532
0.897444 1 0.958633
1 0.997299 0.957107
1 0.997299 0.957107
