5AHITM/MEDT/Pirringer/Unterricht/2025-02-26/fotos/LUTs/Sony S-Log2 to Rec.709 LUT 33x33.cube
TITLE "Generated by Resolve"
LUT_3D_SIZE 33
0 0 0
0 0 0
0 0 0
0.016907 0 0
0.119051 0 0
0.200336 0 0
0.270344 0 0
0.335805 0 0
0.399283 0 0
0.461982 0 0
0.524514 0 0
0.587076 0 0
0.649607 0 0
0.711879 0 0
0.77351 0 0
0.833997 0 0
0.892821 0 0
0.949371 0 0
1 0 0
1 0 0
1 0 0
1 0 0
1 0 0
1 0 0
1 0 0
1 0 0
1 0 0
1 0 0
1 0 0
1 0 0
1 0 0
1 0 0
1 0 0
0 0 0
0 0 0
0 0 0
0.016907 0 0
0.119051 0 0
0.200336 0 0
0.270344 0 0
0.335805 0 0
0.399283 0 0
0.461982 0 0
0.524514 0 0
0.587076 0 0
0.649607 0 0
0.711879 0 0
0.77351 0 0
0.833997 0 0
0.892821 0 0
0.949371 0 0
1 0 0
1 0 0
1 0 0
1 0 0
1 0 0
1 0 0
1 0 0
1 0 0
1 0 0
1 0 0
1 0 0
1 0 0
1 0 0
1 0 0
1 0 0
0 0 0
0 0 0
0 0 0
0.016907 0 0
0.119051 0 0
0.200336 0 0
0.270344 0 0
0.335805 0 0
0.399283 0 0
0.461982 0 0
0.524514 0 0
0.587076 0 0
0.649607 0 0
0.711879 0 0
0.77351 0 0
0.833997 0 0
0.892821 0 0
0.949371 0 0
1 0 0
1 0 0
1 0 0
1 0 0
1 0 0
1 0 0
1 0 0
1 0 0
1 0 0
1 0 0
1 0 0
1 0 0
1 0 0
1 0 0
1 0 0
0 0.0121614 0
0 0.0121614 0
0 0.0121614 0
0.00976577 0.0105745 0
0.113283 0.000518807 0
0.196445 0 0
0.267353 0 0
0.333349 0 0
0.397208 0 0
0.460197 0 0
0.522942 0 0
0.585672 0 0
0.648356 0 0
0.710735 0 0
0.772457 0 0
0.833036 0 0
0.89192 0 0
0.948531 0 0
1 0 0
1 0 0
1 0 0
1 0 0
1 0 0
1 0 0
1 0 0
1 0 0
1 0 0
1 0 0
1 0 0
1 0 0
1 0 0
1 0 0
1 0 0
0 0.0890211 0
0 0.0890211 0
0 0.0890211 0
0 0.0874952 0
0.0713664 0.0773175 0
0.170336 0.0654154 0
0.247715 0.0514076 0
0.317479 0.0349889 0
0.383871 0.0159152 0
0.448722 0 0
0.512901 0 0
0.576761 0 0
0.640345 0 0
0.703487 0 0
0.76585 0 0
0.826947 0 0
0.886275 0 0
0.943252 0 0
0.997375 0 0
1 0 0
1 0 0
1 0 0
1 0 0
1 0 0
1 0 0
1 0 0
1 0 0
1 0 0
1 0 0
1 0 0
1 0 0
1 0 0
1 0 0
0 0.159106 0
0 0.159106 0
0 0.159106 0
0 0.158068 0
0.0179141 0.151446 0
0.134722 0.143313 0
0.222553 0.133288 0
0.297673 0.120821 0
0.367483 0.10515 0
0.434745 0.085008 0
0.50074 0.0596323 0
0.566018 0.0311742 0
0.630732 0 0
0.694804 0 0
0.757931 0 0
0.819669 0 0
0.87953 0 0
0.936965 0 0
0.99147 0 0
1 0 0
1 0 0
1 0 0
1 0 0
1 0 0
1 0 0
1 0 0
1 0 0
1 0 0
1 0 0
1 0 0
1 0 0
1 0 0
1 0 0
0 0.219471 0
0 0.219471 0
0 0.219471 0
0 0.218677 0
0 0.213596 0
0.08159 0.207446 0
0.18941 0.2 0
0.272679 0.190982 0
0.347234 0.180041 0
0.417685 0.16672 0
0.486015 0.150439 0
0.553079 0.130282 0
0.619211 0.104845 0
0.684428 0.0713817 0
0.748486 0.0332799 0
0.811002 0 0
0.871519 0 0
0.929503 0 0
0.984451 0 0
1 0 0
1 0 0
1 0 0
1 0 0
1 0 0
1 0 0
1 0 0
1 0 0
1 0 0
1 0 0
1 0 0
1 0 0
1 0 0
1 0 0
0 0.275914 0
0 0.275914 0
0 0.275914 0
0 0.275257 0
0 0.271107 0
0.00762951 0.266133 0
0.14342 0.260151 0
0.240513 0.252979 0
0.321981 0.244419 0
0.396796 0.234211 0
0.468177 0.222049 0
0.537514 0.207568 0
0.605432 0.190341 0
0.672053 0.169757 0
0.73727 0.144945 0
0.800732 0.114443 0
0.862028 0.0750896 0
0.920668 0.0308537 0
0.976165 0 0
1 0 0
1 0 0
1 0 0
1 0 0
1 0 0
1 0 0
1 0 0
1 0 0
1 0 0
1 0 0
1 0 0
1 0 0
1 0 0
1 0 0
0 0.330648 0
0 0.330648 0
0 0.330648 0
0 0.330098 0
0 0.326589 0
0 0.322393 0
0.0707561 0.317388 0
0.197635 0.311437 0
0.290074 0.304372 0
0.371054 0.296025 0
0.446525 0.286213 0
0.518807 0.274739 0
0.588968 0.261387 0
0.657359 0.24593 0
0.72398 0.228092 0
0.788602 0.207614 0
0.850843 0.184115 0
0.910277 0.157031 0
0.966445 0.125429 0
1 0.0873884 0
1 0.0437018 0
1 0.00196841 0
1 0 0
1 0 0
1 0 0
1 0 0
1 0 0
1 0 0
1 0 0
1 0 0
1 0 0
1 0 0
1 0 0
0 0.384726 0
0 0.384726 0
0 0.384726 0
0 0.384237 0
0 0.381216 0
0 0.3776 0
0 0.373297 0
0.136095 0.3682 0
0.248737 0.362188 0
0.33904 0.355138 0
0.420157 0.346899 0
0.496345 0.337346 0
0.56936 0.326375 0
0.639948 0.313848 0
0.708324 0.299702 0
0.77435 0.283848 0
0.837751 0.26627 0
0.898131 0.246967 0
0.955077 0.225956 0
1 0.20325 0
1 0.178882 0
1 0.152758 0
1 0.124681 0
1 0.0941329 0
1 0.0611734 0
1 0.0312505 0
1 0.004654 0
1 0 0
1 0 0
1 0 0
1 0 0
1 0 0
1 0 0
0 0.438636 0
0 0.438636 0
0 0.438636 0
0 0.438224 0
0 0.435569 0
0 0.432395 0
0 0.428641 0
0.0331273 0.424186 0
0.192569 0.418967 0
0.298528 0.412848 0
0.387869 0.405753 0
0.469306 0.397574 0
0.546044 0.388235 0
0.619425 0.377676 0
0.689952 0.365881 0
0.757702 0.352834 0
0.822492 0.338613 0
0.884016 0.323308 0
0.941909 0.307057 0
0.995819 0.290074 0
1 0.272572 0
1 0.254795 0
1 0.236973 0
1 0.219364 0
1 0.202182 0
1 0.185626 0
1 0.169848 0
1 0.154986 0
1 0.141131 0
1 0.128344 0
1 0.118624 0
1 0.118624 0
1 0.118624 0
0 0.492576 0
0 0.492576 0
0 0.492576 0
0 0.49221 0
0 0.489845 0
0 0.487037 0
0 0.483696 0
0 0.479759 0
0.106157 0.475151 0
0.245579 0.469764 0
0.347875 0.463539 0
0.436713 0.456397 0
0.51838 0.448264 0
0.595315 0.439139 0
0.668528 0.428992 0
0.738384 0.417884 0
0.804868 0.405875 0
0.86775 0.393103 0
0.926757 0.379721 0
0.981598 0.365942 0
1 0.351995 0
1 0.338109 0
1 0.324514 0
1 0.311421 0
1 0.299016 0
1 0.287419 0
1 0.276753 0
1 0.267063 0
1 0.258366 0
1 0.25066 0
1 0.244999 0
1 0.244999 0
1 0.244999 0
0 0.546502 0
0 0.546502 0
0 0.546502 0
0 0.546166 0
0 0.544045 0
0 0.541512 0
0 0.538521 0
0 0.535012 0
0 0.530877 0
0.171099 0.526085 0
0.29723 0.520546 0
0.397162 0.514199 0
0.485542 0.507012 0
0.567086 0.49897 0
0.643702 0.490074 0
0.716136 0.480385 0
0.784649 0.469978 0
0.849165 0.458976 0
0.909499 0.447547 0
0.965423 0.435889 0
1 0.424186 0
1 0.412665 0
1 0.401511 0
1 0.390906 0
1 0.380972 0
1 0.371817 0
1 0.363485 0
1 0.356008 0
1 0.349386 0
1 0.343572 0
1 0.339345 0
1 0.339345 0
1 0.339345 0
0 0.600198 0
0 0.600198 0
0 0.600198 0
0 0.599893 0
0 0.597971 0
0 0.595682 0
0 0.592981 0
0 0.589792 0
0 0.586069 0
0.0414588 0.581735 0
0.230137 0.576745 0
0.348501 0.571054 0
0.44651 0.564614 0
0.534173 0.557427 0
0.615076 0.549508 0
0.690715 0.540902 0
0.761685 0.531701 0
0.828138 0.522026 0
0.890028 0.512032 0
0.947219 0.501884 0
0.999603 0.491768 0
1 0.481865 0
1 0.472358 0
1 0.463355 0
1 0.454994 0
1 0.447333 0
1 0.440406 0
1 0.434226 0
1 0.428779 0
1 0.424033 0
1 0.4206 0
1 0.4206 0
1 0.4206 0
0 0.65333 0
0 0.65333 0
0 0.65333 0
0 0.653056 0
0 0.651301 0
0 0.64921 0
0 0.646738 0
0 0.643839 0
0 0.640436 0
0 0.6365 0
0.129763 0.631968 0
0.286976 0.626795 0
0.399786 0.620951 0
0.495842 0.614466 0
0.582284 0.607309 0
0.661891 0.599573 0
0.735851 0.591318 0
0.804623 0.582666 0
0.868345 0.57377 0
0.927001 0.564767 0
0.980575 0.555825 0
1 0.547112 0
1 0.538781 0
1 0.530938 0
1 0.523659 0
1 0.517037 0
1 0.51107 0
1 0.50576 0
1 0.501106 0
1 0.497047 0
1 0.494118 0
1 0.494118 0
1 0.494118 0
0 0.705501 0
0 0.705501 0
0 0.705501 0
0 0.705242 0
0 0.703624 0
0 0.701701 0
0 0.699428 0
0 0.696757 0
0 0.693629 0
0 0.690013 0
0 0.685847 0
0.203967 0.681117 0
0.343053 0.675776 0
0.451209 0.669841 0
0.544961 0.663325 0
0.629526 0.656291 0
0.707088 0.648798 0
0.778607 0.640955 0
0.844465 0.632914 0
0.90483 0.624811 0
0.959777 0.616785 0
1 0.608972 0
1 0.601526 0
1 0.594537 0
1 0.588098 0
1 0.582223 0
1 0.576959 0
1 0.572274 0
1 0.568185 0
1 0.564614 0
1 0.562051 0
1 0.562051 0
1 0.562051 0
0 0.756207 0
0 0.756207 0
0 0.756207 0
0 0.755962 0
0 0.754467 0
0 0.752682 0
0 0.750576 0
0 0.748104 0
0 0.745205 0
0 0.741863 0
0 0.738018 0
0.0643931 0.733639 0
0.271733 0.72871 0
0.398932 0.723247 0
0.502617 0.717235 0
0.593484 0.710765 0
0.675456 0.703899 0
0.75021 0.696727 0
0.818555 0.689372 0
0.880858 0.681971 0
0.937346 0.674662 0
0.988174 0.667582 0
1 0.660822 0
1 0.654505 0
1 0.648676 0
1 0.643397 0
1 0.638651 0
1 0.634455 0
1 0.630777 0
1 0.627588 0
1 0.625299 0
1 0.625299 0
1 0.625299 0
0 0.804974 0
0 0.804974 0
0 0.804974 0
0 0.804746 0
0 0.803342 0
0 0.801678 0
0 0.79971 0
0 0.797406 0
0 0.794705 0
0 0.791592 0
0 0.788006 0
0 0.783917 0
0.173861 0.779339 0
0.336782 0.774258 0
0.454688 0.768688 0
0.553689 0.762676 0
0.641016 0.756313 0
0.719615 0.749676 0
0.790814 0.742885 0
0.855329 0.736065 0
0.913558 0.729335 0
0.965759 0.72282 0
1 0.716625 0
1 0.710842 0
1 0.705501 0
1 0.700679 0
1 0.696345 0
1 0.692515 0
1 0.689174 0
1 0.686275 0
1 0.684184 0
1 0.684184 0
1 0.684184 0
0 0.851316 0
0 0.851316 0
0 0.851316 0
0 0.851118 0
0 0.84979 0
0 0.848219 0
0 0.846372 0
0 0.844205 0
0 0.841672 0
0 0.838743 0
0 0.83537 0
0 0.831556 0
0.00213626 0.827253 0
0.260075 0.822492 0
0.40029 0.817273 0
0.510079 0.811658 0
0.604013 0.805707 0
0.687099 0.799527 0
0.761578 0.793194 0
0.82858 0.786847 0
0.888716 0.780591 0
0.942443 0.774533 0
0.990127 0.768795 0
1 0.763424 0
1 0.758495 0
1 0.754025 0
1 0.750027 0
1 0.746502 0
1 0.743404 0
1 0.740734 0
1 0.738811 0
1 0.738811 0
1 0.738811 0
0 0.894835 0
0 0.894835 0
0 0.894835 0
0 0.894636 0
0 0.893385 0
0 0.891905 0
0 0.89015 0
0 0.888106 0
0 0.88571 0
0 0.882933 0
0 0.879759 0
0 0.876143 0
0 0.872084 0
0.155489 0.867582 0
0.337804 0.862669 0
0.462531 0.857389 0
0.56466 0.851789 0
0.65304 0.84596 0
0.731243 0.840009 0
0.800992 0.834043 0
0.863233 0.828168 0
0.918593 0.822507 0
0.96759 0.817121 0
1 0.8121 0
1 0.807492 0
1 0.803326 0
1 0.799588 0
1 0.796307 0
1 0.793423 0
1 0.790936 0
1 0.789136 0
1 0.789136 0
1 0.789136 0
0 0.93518 0
0 0.93518 0
0 0.93518 0
0 0.934997 0
0 0.933806 0
0 0.932387 0
0 0.930724 0
0 0.928771 0
0 0.926482 0
0 0.923858 0
0 0.920821 0
0 0.917388 0
0 0.913542 0
0 0.90927 0
0.263874 0.904601 0
0.410803 0.89958 0
0.523262 0.89427 0
0.617868 0.888747 0
0.700252 0.883116 0
0.773022 0.87747 0
0.837522 0.871916 0
0.894636 0.86656 0
0.944991 0.861494 0
0.989151 0.856748 0
1 0.852399 0
1 0.848463 0
1 0.844953 0
1 0.841856 0
1 0.839155 0
1 0.836805 0
1 0.835126 0
1 0.835126 0
1 0.835126 0
0 0.972137 0
0 0.972137 0
0 0.972137 0
0 0.971954 0
0 0.97081 0
0 0.969451 0
0 0.967865 0
0 0.965988 0
0 0.963806 0
0 0.961288 0
0 0.958389 0
0 0.955108 0
0 0.951415 0
0 0.947341 0
0.169268 0.94287 0
0.354314 0.938079 0
0.480156 0.933013 0
0.58204 0.927749 0
0.669108 0.922377 0
0.745129 0.916991 0
0.812039 0.911711 0
0.870985 0.906615 0
0.922759 0.901778 0
0.968032 0.897276 0
1 0.893141 0
1 0.889418 0
1 0.886076 0
1 0.883131 0
1 0.880568 0
1 0.87834 0
1 0.876753 0
1 0.876753 0
1 0.876753 0
0 1 0
0 1 0
0 1 0
0 1 0
0 1 0
0 1 0
0 1 0
0 0.999664 0
0 0.997559 0
0 0.995132 0
0 0.99234 0
0 0.989181 0
0 0.985641 0
0 0.981704 0
0.0193484 0.977432 0
0.291798 0.972824 0
0.435599 0.967956 0
0.546029 0.96289 0
0.63827 0.957748 0
0.717784 0.95259 0
0.787213 0.947524 0
0.848035 0.942641 0
0.901274 0.938003 0
0.947677 0.9337 0
0.98793 0.929747 0
1 0.926177 0
1 0.922988 0
1 0.920165 0
1 0.917708 0
1 0.915587 0
1 0.914061 0
1 0.914061 0
1 0.914061 0
0 1 0
0 1 0
0 1 0
0 1 0
0 1 0
0 1 0
0 1 0
0 1 0
0 1 0
0 1 0
0 1 0
0 1 0
0 1 0
0 1 0
0 1 0
0.220249 1 0
0.389807 0.99913 0
0.510323 0.994247 0
0.608225 0.989273 0
0.691417 0.984298 0
0.763424 0.979416 0
0.826154 0.974701 0
0.880827 0.970245 0
0.928359 0.966094 0
0.969512 0.962295 0
1 0.958846 0
1 0.955779 0
1 0.953079 0
1 0.950713 0
1 0.948669 0
1 0.947204 0
1 0.947204 0
1 0.947204 0
0 1 0
0 1 0
0 1 0
0 1 0
0 1 0
0 1 0
0 1 0
0 1 0
0 1 0
0 1 0
0 1 0
0 1 0
0 1 0
0 1 0
0 1 0
0.130922 1 0
0.342885 1 0
0.475349 1 0
0.57937 1 0
0.666377 1 0
0.740993 1 0
0.805615 1 0
0.861708 0.998672 0
0.910338 0.994644 0
0.952346 0.990967 0
0.988464 0.987625 0
1 0.984665 0
1 0.98204 0
1 0.979767 0
1 0.977783 0
1 0.976364 0
1 0.976364 0
1 0.976364 0
0 1 0
0 1 0
0 1 0
0 1 0
0 1 0
0 1 0
0 1 0
0 1 0
0 1 0
0 1 0
0 1 0
0 1 0
0 1 0
0 1 0
0 1 0
0.00468452 1 0
0.294697 1 0
0.441474 1 0
0.552056 1 0
0.642939 1 0
0.72015 1 0
0.786633 1 0
0.844099 1 0
0.893782 1 0
0.936599 1 0
0.973373 1 0
1 1 0
1 1 0
1 1 0
1 1 0
1 1 0
1 1 0
1 1 0
0 1 0
0 1 0
0 1 0
0 1 0
0 1 0
0 1 0
0 1 0
0 1 0
0 1 0
0 1 0
0 1 0
0 1 0
0 1 0
0 1 0
0 1 0
0 1 0
0.244831 1 0
0.409033 1 0
0.526543 1 0
0.621332 1 0
0.701076 1 0
0.769329 1 0
0.828107 1 0
0.878782 1 0
0.922362 1 0
0.959731 1 0
0.991653 1 0
1 1 0
1 1 0
1 1 0
1 1 0
1 1 0
1 1 0
0 1 0
0 1 0
0 1 0
0 1 0
0 1 0
0 1 0
0 1 0
0 1 0
0 1 0
