5AHITM/MEDT/Pirringer/Unterricht/2025-02-26/fotos/LUTs/Sony S-Log2 to Rec.709 LUT 33x33.cube
TITLE "Generated by Resolve"
LUT_3D_SIZE 5
0 0 0
0.399283 0 0
0.892821 0 0
1 0 0
1 0 0
0 0.330648 0
0.290074 0.304372 0
0.850843 0.184115 0
1 0 0
1 0 0
0 0.756207 0
0 0.745205 0
0.675456 0.703899 0
1 0.648676 0
1 0.625299 0
0 1 0
0 1 0
0.342885 1 0
0.952346 0.990967 0
1 0.976364 0
0 1 0
0 1 0
0.00863661 1 0
0.881514 1 0
1 1 0
0 0 0.304433
0.389151 0 0.300359
0.888487 0 0.285176
1 0 0.265248
1 0 0.256947
0 0.304768 0.280644
0.276249 0.276249 0.276249
0.846296 0.138094 0.2598
1 0 0.23801
1 0 0.22887
0 0.745373 0.173053
0 0.734203 0.1664
0.669596 0.69218 0.140414
1 0.635889 0.102358
1 0.611978 0.0845045
0 1 0
0 1 0
0.331106 1 0
0.948318 0.98294 0
1 0.968215 0
0 1 0
0 1 0
0 1 0
0.877134 1 0
1 1 0
0 0 0.704021
0.350179 0 0.702281
0.872663 0 0.695918
1 0 0.687938
1 0 0.684733
0 0.186969 0.694057
0.220005 0.140871 0.692287
0.829572 0 0.685832
1 0 0.677714
1 0 0.674464
0 0.704692 0.656672
0 0.692821 0.65478
0.647929 0.647929 0.647929
1 0.587121 0.639292
1 0.561044 0.635843
0 1 0.606836
0 1 0.604791
0.284794 0.990478 0.59733
0.933608 0.953277 0.587915
1 0.938033 0.584131
0 1 0.585794
0 1 0.583673
0 1 0.575921
0.861067 1 0.56614
1 1 0.562203
0 0 0.991135
0.295125 0 0.989944
0.852552 0 0.98558
1 0 0.980133
1 0 0.977951
0 0 0.984314
0.126055 0 0.983093
0.808301 0 0.978698
1 0 0.973205
1 0 0.971023
0 0.650416 0.959136
0 0.637461 0.9579
0.619913 0.588067 0.953368
1 0.519982 0.947723
1 0.490211 0.945464
0 0.99205 0.926848
0 0.983917 0.925551
0.215488 0.953841 0.920851
0.914977 0.914977 0.914977
1 0.899016 0.912627
0 1 0.913664
0 1 0.912352
0 1 0.907576
0.840665 1 0.901595
1 1 0.899214
0 0 1
0.27042 0 1
0.844419 0 1
1 0 1
1 0 1
0 0 1
0.0709239 0 1
0.79968 0 1
1 0 1
1 0 1
0 0.627451 1
0 0.613977 1
0.608392 0.562432 1
1 0.490669 1
1 0.458961 1
0 0.977691 1
0 0.969421 1
0.18201 0.938842 1
0.907454 0.89926 1
1 0.882979 1
0 1 1
0 1 1
0 1 1
0.832395 1 1
1 1 1
