5AHITM/MEDT/Pirringer/Unterricht/2025-02-26/fotos/LUTs/Sony S-Log2 to Rec.709 LUT 33x33.cube
TITLE "Generated by Resolve"
LUT_3D_SIZE 9
0 0 0
0.119051 0 0
0.399283 0 0
0.649607 0 0
0.892821 0 0
1 0 0
1 0 0
1 0 0
1 0 0
0 0.0890211 0
0.0713664 0.0773175 0
0.383871 0.0159152 0
0.640345 0 0
0.886275 0 0
1 0 0
1 0 0
1 0 0
1 0 0
0 0.330648 0
0 0.326589 0
0.290074 0.304372 0
0.588968 0.261387 0
0.850843 0.184115 0
1 0.0437018 0
1 0 0
1 0 0
1 0 0
0 0.546502 0
0 0.544045 0
0 0.530877 0
0.485542 0.507012 0
0.784649 0.469978 0
1 0.424186 0
1 0.380972 0
1 0.349386 0
1 0.339345 0
0 0.756207 0
0 0.754467 0
0 0.745205 0
0.271733 0.72871 0
0.675456 0.703899 0
0.937346 0.674662 0
1 0.648676 0
1 0.630777 0
1 0.625299 0
0 0.93518 0
0 0.933806 0
0 0.926482 0
0 0.913542 0
0.523262 0.89427 0
0.837522 0.871916 0
1 0.852399 0
1 0.839155 0
1 0.835126 0
0 1 0
0 1 0
0 1 0
0 1 0
0.342885 1 0
0.740993 1 0
0.952346 0.990967 0
1 0.979767 0
1 0.976364 0
0 1 0
0 1 0
0 1 0
0 1 0
0.134417 1 0
0.668452 1 0
0.898421 1 0
1 1 0
1 1 0
0 1 0
0 1 0
0 1 0
0 1 0
0.00863661 1 0
0.644968 1 0
0.881514 1 0
1 1 0
1 1 0
0 0 0.077348
0.114626 0 0.0756237
0.397681 0 0.0665293
0.648646 0 0.0505989
0.892119 0 0.0273594
1 0 0.00109865
1 0 0
1 0 0
1 0 0
0 0.0774853 0.0675669
0.0658427 0.0658427 0.0658427
0.382208 0.00444038 0.0567483
0.639368 0 0.0408179
0.885573 0 0.0175937
1 0 0
1 0 0
1 0 0
1 0 0
0 0.32665 0.016022
0 0.322545 0.0142977
0.287907 0.300053 0.00520333
0.5879 0.256428 0
0.850126 0.177401 0
1 0.0322423 0
1 0 0
1 0 0
1 0 0
0 0.544076 0
0 0.541604 0
0 0.528389 0
0.48423 0.504402 0
0.783856 0.46714 0
1 0.421057 0
1 0.377493 0
1 0.345586 0
1 0.335454 0
0 0.754498 0
0 0.752743 0
0 0.743465 0
0.269444 0.726925 0
0.674525 0.702037 0
0.93669 0.672724 0
1 0.646662 0
1 0.628702 0
1 0.623194 0
0 0.933822 0
0 0.932433 0
0 0.925109 0
0 0.912139 0
0.522057 0.892836 0
0.836789 0.870451 0
1 0.850904 0
1 0.837613 0
1 0.833585 0
0 1 0
0 1 0
0 1 0
0 1 0
0.341024 1 0
0.740154 1 0
0.951705 0.989685 0
1 0.978469 0
1 0.975082 0
0 1 0
0 1 0
0 1 0
0 1 0
0.130343 1 0
0.667521 1 0
0.897734 1 0
1 1 0
1 1 0
0 1 0
0 1 0
0 1 0
0 1 0
0.00311284 1 0
0.643992 1 0
0.880812 1 0
1 1 0
1 1 0
0 0 0.304433
0.0891127 0 0.303792
0.389151 0 0.300359
0.643503 0 0.29427
0.888487 0 0.285176
1 0 0.274571
1 0 0.265248
1 0 0.258885
1 0 0.256947
0 0.0169833 0.300755
0.036759 0.00534066 0.300099
0.373342 0 0.296635
0.63415 0 0.290471
0.88191 0 0.28127
1 0 0.270527
1 0 0.261067
1 0 0.254612
1 0 0.252644
0 0.304768 0.280644
0 0.300389 0.279942
0.276249 0.276249 0.276249
0.582193 0.228687 0.269673
0.846296 0.138094 0.2598
1 0 0.248234
1 0 0.23801
1 0 0.231006
1 0 0.22887
0 0.531121 0.241901
0 0.528588 0.241108
0 0.515023 0.236881
0.477241 0.490364 0.229328
0.779675 0.451942 0.217899
1 0.40412 0.204349
1 0.358557 0.192218
1 0.32491 0.183795
1 0.314137 0.181201
0 0.745373 0.173053
0 0.743603 0.172
0 0.734203 0.1664
0.257023 0.717433 0.156222
0.669596 0.69218 0.140414
0.933257 0.662394 0.120867
1 0.635889 0.102358
1 0.617594 0.0888228
1 0.611978 0.0845045
0 0.926619 0.0534371
0 0.925231 0.0517128
0 0.91783 0.0426032
0 0.904753 0.026688
0.515587 0.885267 0.00344854
0.832883 0.862669 0
1 0.842908 0
1 0.829496 0
1 0.825422 0
0 1 0
0 1 0
0 1 0
0 1 0
0.331106 1 0
0.735683 0.999664 0
0.948318 0.98294 0
1 0.971633 0
1 0.968215 0
0 1 0
0 1 0
0 1 0
0 1 0
0.10724 1 0
0.662531 1 0
0.894133 1 0
1 1 0
1 1 0
0 1 0
0 1 0
0 1 0
0 1 0
0 1 0
0.638804 1 0
0.877134 1 0
1 1 0
1 1 0
0 0 0.507118
0.0381628 0 0.506722
0.37377 0 0.504646
0.634394 0 0.500999
0.882094 0 0.495613
1 0 0.489464
1 0 0.484169
1 0 0.480613
1 0 0.47953
0 0 0.504891
0 0 0.504494
0.357305 0 0.502403
0.624903 0 0.498741
0.875456 0 0.493339
1 0 0.487144
1 0 0.481819
1 0 0.478248
1 0 0.47718
0 0.262531 0.492958
0 0.257511 0.492561
0.254688 0.22945 0.490425
0.572061 0.171633 0.486656
0.839536 0.0430915 0.481117
1 0 0.474769
1 0 0.469306
1 0 0.465644
1 0 0.46453
0 0.507622 0.471366
0 0.504967 0.470939
0 0.49073 0.468711
0.464775 0.464775 0.464775
0.772274 0.424018 0.458961
1 0.372702 0.452308
1 0.322927 0.446555
1 0.285405 0.442695
1 0.273213 0.441535
0 0.729122 0.437934
0 0.727321 0.437476
0 0.717678 0.435065
0.233936 0.700496 0.430823
0.660868 0.674556 0.424552
0.927184 0.6439 0.41735
1 0.616541 0.411109
1 0.59762 0.406928
1 0.591821 0.405661
0 0.913863 0.39678
0 0.912444 0.396277
0 0.904936 0.393622
0 0.891646 0.388922
0.504082 0.871839 0.381979
0.826017 0.848844 0.373968
1 0.828733 0.367025
1 0.815061 0.362341
1 0.810895 0.360922
0 1 0.358144
0 1 0.357595
0 1 0.35465
0 1 0.349462
0.313039 1 0.341741
0.72781 0.987945 0.332815
0.942367 0.970993 0.325032
1 0.959533 0.319768
1 0.956069 0.318166
0 1 0.330083
0 1 0.329488
0 1 0.326299
0 1 0.320684
0.0583658 1 0.312291
0.653712 1 0.302556
0.88777 1 0.294041
1 1 0.288258
1 1 0.286488
0 1 0.321202
0 1 0.320592
0 1 0.317327
0 1 0.311543
0 1 0.302922
0.629633 1 0.292912
0.870634 1 0.284123
0.996872 1 0.278157
1 1 0.276341
0 0 0.704021
0 0 0.703746
0.350179 0 0.702281
0.620859 0 0.699702
0.872663 0 0.695918
1 0 0.691615
1 0 0.687938
1 0 0.685466
1 0 0.684733
0 0 0.702449
0 0 0.702174
0.332601 0 0.700694
0.611139 0 0.698116
0.86595 0 0.694316
1 0 0.690013
1 0 0.68632
1 0 0.683848
1 0 0.683101
0 0.186969 0.694057
0 0.18024 0.693782
0.220005 0.140871 0.692287
0.556939 0.0454108 0.689662
0.829572 0 0.685832
1 0 0.681453
1 0 0.677714
1 0 0.675212
1 0 0.674464
0 0.471199 0.679118
0 0.46833 0.678828
0 0.452934 0.677302
0.44593 0.424643 0.674617
0.761349 0.379675 0.67068
0.999359 0.321614 0.666209
1 0.263096 0.662379
1 0.216709 0.659815
1 0.201038 0.659037
0 0.704692 0.656672
0 0.702815 0.656367
0 0.692821 0.65478
0.196216 0.674952 0.652003
0.647929 0.647929 0.647929
0.918273 0.615854 0.643275
1 0.587121 0.639292
1 0.567178 0.636637
1 0.561044 0.635843
0 0.894896 0.630259
0 0.893446 0.629953
0 0.885756 0.62829
0 0.872145 0.625391
0.486778 0.851835 0.621118
0.815869 0.828229 0.616266
1 0.807553 0.6121
1 0.793484 0.609308
1 0.789197 0.608469
0 1 0.606836
0 1 0.606516
0 1 0.604791
0 1 0.60177
0.284794 0.990478 0.59733
0.716152 0.970581 0.592264
0.933608 0.953277 0.587915
1 0.941573 0.585016
1 0.938033 0.584131
0 1 0.590723
0 1 0.590387
0 1 0.588617
0 1 0.585504
0 1 0.580941
0.640604 1 0.575723
0.878416 1 0.571252
1 1 0.568246
1 1 0.567346
0 1 0.585794
0 1 0.585458
0 1 0.583673
0 1 0.58053
0 1 0.575921
0.615991 1 0.570657
0.861067 1 0.56614
0.988647 1 0.563119
1 1 0.562203
0 0 0.872084
0 0 0.871855
0.321523 0 0.870695
0.605188 0 0.86865
0.86186 0 0.86566
1 0 0.862272
1 0 0.859373
1 0 0.85745
1 0 0.85687
0 0 0.870832
0 0 0.870604
0.302403 0 0.869444
0.595193 0 0.867399
0.855055 0 0.864408
1 0 0.861006
1 0 0.858106
1 0 0.856168
1 0 0.855589
0 0.0513161 0.86421
0 0.0396735 0.863981
0.174197 0 0.862806
0.539315 0 0.860746
0.818158 0 0.857725
1 0 0.854292
1 0 0.851362
1 0 0.849424
1 0 0.848829
0 0.426261 0.852476
0 0.423087 0.852247
0 0.405982 0.851041
0.423636 0.374228 0.848951
0.748806 0.322545 0.845884
0.990082 0.25275 0.842405
1 0.175998 0.839445
1 0.10518 0.837461
1 0.0767529 0.836851
0 0.675944 0.835019
0 0.673976 0.834791
0 0.663523 0.83357
0.144839 0.64477 0.831434
0.632944 0.616342 0.82829
0.908064 0.582452 0.824735
1 0.551904 0.821683
1 0.530571 0.819654
1 0.523995 0.819043
0 0.872892 0.814817
0 0.871412 0.814572
0 0.863508 0.813321
0 0.8495 0.811124
0.466438 0.828595 0.807889
0.804242 0.804242 0.804242
1 0.782864 0.801114
1 0.768307 0.799023
1 0.763867 0.798398
0 1 0.797177
0 1 0.796933
0 1 0.795651
0 0.988495 0.793393
0.249439 0.970871 0.790097
0.702724 0.950515 0.786343
0.923598 0.932799 0.783139
1 0.920821 0.781003
1 0.917174 0.780362
0 1 0.785214
0 1 0.784955
0 1 0.783658
0 1 0.781369
0 1 0.778012
0.625452 1 0.774197
0.867689 1 0.770932
0.994339 1 0.768765
1 1 0.768109
0 1 0.781582
0 1 0.781323
0 1 0.780011
0 1 0.777707
0 1 0.774334
0.600183 1 0.770504
0.850111 1 0.767224
0.979248 1 0.765042
1 1 0.764385
0 0 0.991135
0 0 0.990951
0.295125 0 0.989944
0.591501 0 0.988174
0.852552 0 0.98558
1 0 0.982635
1 0 0.980133
1 0 0.978454
1 0 0.977951
0 0 0.990051
0 0 0.989868
0.274327 0 0.988846
0.581262 0 0.987076
0.84567 0 0.984482
1 0 0.981537
1 0 0.979034
1 0 0.977356
1 0 0.976852
0 0 0.984314
0 0 0.984115
0.126055 0 0.983093
0.523842 0 0.981308
0.808301 0 0.978698
1 0 0.975738
1 0 0.973205
1 0 0.971527
1 0 0.971023
0 0.383932 0.974166
0 0.380423 0.973968
0 0.361364 0.97293
0.403693 0.32546 0.97113
0.737942 0.265156 0.96849
0.982101 0.177325 0.965499
1 0.0585641 0.962936
1 0 0.961227
1 0 0.960723
0 0.650416 0.959136
0 0.648356 0.958938
0 0.637461 0.9579
0.0872511 0.617868 0.956054
0.619913 0.588067 0.953368
0.89929 0.552361 0.950317
1 0.519982 0.947723
1 0.497246 0.945983
1 0.490211 0.945464
0 0.853697 0.941848
0 0.852171 0.941649
0 0.844068 0.940566
0 0.829694 0.938704
0.448417 0.808225 0.935958
0.794186 0.783185 0.932845
0.993378 0.761181 0.93019
1 0.746151 0.92842
1 0.741573 0.927886
0 0.99205 0.926848
0 0.990768 0.926635
0 0.983917 0.925551
0 0.971801 0.923644
0.215488 0.953841 0.920851
0.691081 0.933059 0.917678
0.914977 0.914977 0.914977
1 0.902724 0.913176
1 0.899016 0.912627
0 1 0.916732
0 1 0.916518
0 1 0.915419
0 1 0.913481
0 1 0.910658
0.612238 1 0.907454
0.858457 1 0.904707
0.986404 0.992111 0.902876
1 0.988754 0.902327
0 1 0.913664
0 1 0.913451
0 1 0.912352
0 1 0.910399
0 1 0.907576
0.586374 1 0.904356
0.840665 1 0.901595
0.971176 1 0.899763
1 1 0.899214
0 0 1
0 0 1
0.27631 0 1
0.582208 0 1
0.846311 0 1
1 0 1
1 0 1
1 0 1
1 0 1
0 0 1
0 0 1
0.254139 0 1
0.571801 0 1
0.839368 0 1
1 0 1
1 0 1
1 0 1
1 0 1
0 0 1
0 0 1
0.0853895 0 1
0.513283 0 1
0.801678 0 1
1 0 1
1 0 1
1 0 1
1 0 1
0 0.353079 1
0 0.349279 1
0 0.328496 1
0.389899 0.288808 1
0.730617 0.219883 1
0.976761 0.108339 1
1 0 1
1 0 1
1 0 1
0 0.632822 1
0 0.630716 1
0 0.619486 1
0.0396277 0.599283 1
0.611078 0.56846 1
0.8934 0.53138 1
1 0.497597 1
1 0.473762 1
1 0.466377 1
0 0.840665 1
0 0.839109 1
0 0.830869 1
0 0.816251 1
0.436011 0.794385 1
0.787442 0.768841 1
0.988098 0.74638 1
1 0.731029 1
1 0.726345 1
0 0.981033 1
0 0.979721 1
0 0.972793 1
0 0.960525 1
0.190158 0.942321 0.997497
0.683223 0.921263 0.994598
0.909194 0.902907 0.992126
1 0.890486 0.990478
1 0.886717 0.98999
0 1 0.993729
0 1 0.993545
0 1 0.992538
0 1 0.990768
0 1 0.98819
0.603296 1 0.98526
0.852262 0.992264 0.982757
0.981094 0.981094 0.981094
1 0.977707 0.980591
0 1 0.990936
0 1 0.990738
0 1 0.989731
0 1 0.987961
0 1 0.985367
0.577005 1 0.982422
0.834318 1 0.979919
0.965774 1 0.978241
1 1 0.977737
0 0 1
0 0 1
0.27042 0 1
0.5794 0 1
0.844419 0 1
1 0 1
1 0 1
1 0 1
1 0 1
0 0 1
0 0 1
0.247791 0 1
0.568933 0 1
0.837461 0 1
1 0 1
1 0 1
1 0 1
1 0 1
0 0 1
0 0 1
0.0709239 0 1
0.510063 0 1
0.79968 0 1
1 0 1
1 0 1
1 0 1
1 0 1
0 0.343297 1
0 0.339391 1
0 0.317998 1
0.385657 0.276951 1
0.728405 0.204654 1
0.975158 0.0809033 1
1 0 1
1 0 1
1 0 1
0 0.627451 1
0 0.625315 1
0 0.613977 1
0.0253758 0.593576 1
0.608392 0.562432 1
0.891615 0.52491 1
1 0.490669 1
1 0.466484 1
1 0.458961 1
0 0.836698 1
0 0.835142 1
0 0.826871 1
0 0.812161 1
0.432212 0.790173 1
0.785397 0.764492 1
0.986511 0.741878 1
1 0.726421 1
1 0.721706 1
0 0.977691 1
0 0.976379 1
0 0.969421 1
0 0.957122 1
0.18201 0.938842 1
0.680842 0.917678 1
0.907454 0.89926 1
1 0.886763 1
1 0.882979 1
0 1 1
0 1 1
0 1 1
0 1 1
0 1 1
0.60058 1 1
0.850385 0.988968 1
0.979492 0.977752 1
1 0.97435 1
0 1 1
0 1 1
0 1 1
0 1 1
0 1 1
0.574151 1 1
0.832395 1 1
0.964141 1 1
1 1 1
