MEDT/Pirringer/Unterricht/2025-02-26/Korrektur und Grading FootageFotos-20250226T115430Z-001/Korrektur und Grading FootageFotos/Bounce Color True Basic Log Conversion LUTs/Blackmagic 4.6K Film Gen3 to Arri Log-C LUT 33x33.cube
TITLE "Generated by Resolve"
LUT_3D_SIZE 33
0.0928054 0.0928054 0.0928054
0.0928054 0.0928054 0.0928054
0.0928054 0.0928054 0.0928054
0.115236 0.0923476 0.092134
0.152316 0.0915999 0.0910201
0.189258 0.0906691 0.0896468
0.221988 0.0895552 0.0879835
0.251957 0.0881666 0.0859388
0.280003 0.0864729 0.0834363
0.306661 0.0843977 0.080354
0.332311 0.0818494 0.076585
0.357198 0.0787213 0.0719615
0.381537 0.074876 0.0662699
0.405463 0.0701457 0.0592508
0.429084 0.0643015 0.0506142
0.452522 0.0570993 0.0399481
0.475868 0.048188 0.0267491
0.499168 0.0371099 0.0103609
0.52253 0.0233158 0
0.546044 0.00605783 0
0.569772 0 0
0.59382 0 0
0.618357 0 0
0.643503 0 0
0.66949 0 0
0.69662 0 0
0.725307 0 0
0.756176 0 0
0.790265 0 0
0.829374 0 0
0.877104 0 0
0.942748 0 0
0.995804 0 0
0.0928054 0.0928054 0.0928054
0.0928054 0.0928054 0.0928054
0.0928054 0.0928054 0.0928054
0.115236 0.0923476 0.092134
0.152316 0.0915999 0.0910201
0.189258 0.0906691 0.0896468
0.221988 0.0895552 0.0879835
0.251957 0.0881666 0.0859388
0.280003 0.0864729 0.0834363
0.306661 0.0843977 0.080354
0.332311 0.0818494 0.076585
0.357198 0.0787213 0.0719615
0.381537 0.074876 0.0662699
0.405463 0.0701457 0.0592508
0.429084 0.0643015 0.0506142
0.452522 0.0570993 0.0399481
0.475868 0.048188 0.0267491
0.499168 0.0371099 0.0103609
0.52253 0.0233158 0
0.546044 0.00605783 0
0.569772 0 0
0.59382 0 0
0.618357 0 0
0.643503 0 0
0.66949 0 0
0.69662 0 0
0.725307 0 0
0.756176 0 0
0.790265 0 0
0.829374 0 0
0.877104 0 0
0.942748 0 0
0.995804 0 0
0.0928054 0.0928054 0.0928054
0.0928054 0.0928054 0.0928054
0.0928054 0.0928054 0.0928054
0.115236 0.0923476 0.092134
0.152316 0.0915999 0.0910201
0.189258 0.0906691 0.0896468
0.221988 0.0895552 0.0879835
0.251957 0.0881666 0.0859388
0.280003 0.0864729 0.0834363
0.306661 0.0843977 0.080354
0.332311 0.0818494 0.076585
0.357198 0.0787213 0.0719615
0.381537 0.074876 0.0662699
0.405463 0.0701457 0.0592508
0.429084 0.0643015 0.0506142
0.452522 0.0570993 0.0399481
0.475868 0.048188 0.0267491
0.499168 0.0371099 0.0103609
0.52253 0.0233158 0
0.546044 0.00605783 0
0.569772 0 0
0.59382 0 0
0.618357 0 0
0.643503 0 0
0.66949 0 0
0.69662 0 0
0.725307 0 0
0.756176 0 0
0.790265 0 0
0.829374 0 0
0.877104 0 0
0.942748 0 0
0.995804 0 0
0.0930343 0.116258 0.0924239
0.0930343 0.116258 0.0924239
0.0930343 0.116258 0.0924239
0.115465 0.115801 0.0917372
0.152529 0.115038 0.0906233
0.18941 0.114122 0.0892653
0.22211 0.112993 0.0875868
0.252049 0.111604 0.0855421
0.280064 0.109911 0.0830396
0.306706 0.107836 0.0799725
0.332341 0.105287 0.0762036
0.357229 0.102159 0.0715648
0.381567 0.0983139 0.0658732
0.405478 0.0935836 0.0588693
0.429099 0.0877546 0.0502327
0.452537 0.0805371 0.0395666
0.475868 0.0716259 0.0263523
0.499184 0.0605478 0.00996414
0.522545 0.0467536 0
0.546044 0.0294957 0
0.569772 0.0077821 0
0.593835 0 0
0.618357 0 0
0.643503 0 0
0.66949 0 0
0.69662 0 0
0.725307 0 0
0.756176 0 0
0.790265 0 0
0.829374 0 0
0.877104 0 0
0.942748 0 0
0.995804 0 0
0.0934157 0.154894 0.0917678
0.0934157 0.154894 0.0917678
0.0934157 0.154894 0.0917678
0.115846 0.154452 0.0910964
0.152895 0.153735 0.0899825
0.18967 0.152834 0.0886091
0.222293 0.151736 0.0869459
0.252186 0.150378 0.0849012
0.280186 0.148684 0.0823987
0.306798 0.146609 0.0793164
0.332418 0.14406 0.0755474
0.35729 0.140932 0.0709239
0.381598 0.137087 0.0652323
0.405509 0.132357 0.0582284
0.429129 0.126513 0.0495766
0.452567 0.11931 0.0389105
0.475898 0.110399 0.0257115
0.499199 0.099321 0.00932326
0.52256 0.0855268 0
0.546059 0.0682689 0
0.569772 0.0465553 0
0.593835 0.0190433 0
0.618357 0 0
0.643503 0 0
0.66949 0 0
0.69662 0 0
0.725307 0 0
0.756176 0 0
0.790265 0 0
0.829374 0 0
0.877104 0 0
0.942748 0 0
0.995804 0 0
0.0938735 0.192462 0.0909895
0.0938735 0.192462 0.0909895
0.0938735 0.192462 0.0909895
0.11632 0.192157 0.0903182
0.153353 0.191638 0.089189
0.18999 0.191012 0.0878309
0.222538 0.190249 0.0861677
0.252369 0.189303 0.084123
0.280308 0.188128 0.0816052
0.306905 0.186664 0.0785382
0.332494 0.184848 0.0747692
0.357351 0.182559 0.0701305
0.381659 0.17969 0.0644388
0.405554 0.176059 0.057435
0.42916 0.171389 0.0487984
0.452598 0.165347 0.0381323
0.475914 0.157336 0.0249332
0.499214 0.146548 0.00854505
0.522576 0.132753 0
0.546059 0.115496 0
0.569787 0.0937819 0
0.593851 0.0662852 0
0.618357 0.0311284 0
0.643503 0 0
0.66949 0 0
0.69662 0 0
0.725307 0 0
0.756176 0 0
0.790265 0 0
0.829374 0 0
0.877104 0 0
0.942748 0 0
0.995804 0 0
0.0944381 0.225605 0.0900282
0.0944381 0.225605 0.0900282
0.0944381 0.225605 0.0900282
0.116884 0.225376 0.0893568
0.153887 0.224994 0.0882277
0.190372 0.224537 0.0868696
0.222812 0.223972 0.0852064
0.252583 0.223285 0.0831617
0.280476 0.222431 0.0806439
0.307042 0.221363 0.0775769
0.332601 0.22005 0.0738079
0.357443 0.218418 0.0691691
0.38172 0.216373 0.0634775
0.4056 0.213794 0.0564736
0.429206 0.210544 0.047837
0.452628 0.206378 0.037171
0.475944 0.200977 0.0239719
0.499229 0.193881 0.00758373
0.522591 0.184344 0
0.546075 0.171054 0
0.569802 0.151614 0
0.593851 0.124117 0
0.618372 0.0889601 0
0.643519 0.0435187 0
0.669505 0 0
0.69662 0 0
0.725307 0 0
0.756176 0 0
0.79028 0 0
0.829374 0 0
0.877104 0 0
0.942748 0 0
0.995804 0 0
0.09514 0.255833 0.0888533
0.09514 0.255833 0.0888533
0.09514 0.255833 0.0888533
0.117571 0.255665 0.0881666
0.154559 0.25539 0.0870527
0.190845 0.255039 0.0856947
0.223163 0.254612 0.0840162
0.252857 0.254093 0.0819715
0.28069 0.253452 0.079469
0.307195 0.252659 0.0764019
0.332723 0.251682 0.0726329
0.357534 0.250462 0.0679942
0.381796 0.248951 0.0623026
0.405676 0.247059 0.0552987
0.429267 0.244678 0.0466621
0.452674 0.241657 0.035996
0.475975 0.237812 0.0227817
0.49926 0.232822 0.00639353
0.522606 0.226276 0
0.54609 0.217456 0
0.569818 0.205249 0
0.593866 0.187457 0
0.618372 0.159365 0
0.643519 0.114366 0
0.669505 0.0547646 0
0.696635 0 0
0.725307 0 0
0.756191 0 0
0.79028 0 0
0.829374 0 0
0.877104 0 0
0.942748 0 0
0.995804 0 0
0.0959945 0.284077 0.0874037
0.0959945 0.284077 0.0874037
0.0959945 0.284077 0.0874037
0.118425 0.28394 0.0867323
0.155367 0.283726 0.0856031
0.191424 0.283467 0.0842451
0.22359 0.283131 0.0825818
0.253178 0.282734 0.0805371
0.280934 0.282246 0.0780346
0.307393 0.281636 0.0749523
0.332891 0.280888 0.0711833
0.357656 0.279973 0.0665446
0.381903 0.278828 0.060853
0.405753 0.277394 0.0538491
0.429328 0.275593 0.0452125
0.45272 0.27335 0.0345464
0.47602 0.270497 0.0213474
0.49929 0.266835 0.00495918
0.522637 0.262104 0
0.54612 0.255879 0
0.569833 0.247486 0
0.593881 0.235813 0
0.618387 0.218769 0
0.643534 0.19176 0
0.66952 0.141604 0
0.696635 0.0619211 0
0.725307 0 0
0.756191 0 0
0.79028 0 0
0.829374 0 0
0.877104 0 0
0.942748 0 0
0.995804 0 0
0.0970321 0.310872 0.0856336
0.0970321 0.310872 0.0856336
0.0970321 0.310872 0.0856336
0.119463 0.31078 0.0849622
0.156344 0.310613 0.0838331
0.192126 0.310399 0.082475
0.224125 0.310155 0.0808118
0.253574 0.309834 0.0787671
0.281239 0.309453 0.0762493
0.307637 0.308995 0.0731823
0.333074 0.308415 0.0694133
0.357809 0.307698 0.0647746
0.382025 0.306813 0.0590829
0.405844 0.305715 0.052079
0.429404 0.304341 0.0434424
0.452781 0.302617 0.0327764
0.476066 0.30045 0.0195773
0.499336 0.297688 0.00318914
0.522667 0.294163 0
0.546136 0.28957 0
0.569848 0.283513 0
0.593896 0.275303 0
0.618402 0.263798 0
0.643534 0.24683 0
0.66952 0.219516 0
0.696635 0.166949 0
0.725322 0.0590982 0
0.756191 0 0
0.79028 0 0
0.829374 0 0
0.877104 0 0
0.942748 0 0
0.995804 0 0
0.0983139 0.336629 0.0834669
0.0983139 0.336629 0.0834669
0.0983139 0.336629 0.0834669
0.120745 0.336553 0.0827802
0.157549 0.336416 0.0816663
0.192996 0.336263 0.0803082
0.22475 0.336065 0.0786297
0.254063 0.335821 0.076585
0.281621 0.335515 0.0740826
0.307927 0.335149 0.0710155
0.333303 0.334691 0.0672465
0.357992 0.334142 0.0626078
0.382162 0.33344 0.0569162
0.405966 0.332586 0.0499123
0.429496 0.331518 0.0412757
0.452857 0.33019 0.0306096
0.476127 0.328511 0.0173953
0.499382 0.326406 0.0010071
0.522713 0.323705 0
0.546181 0.320241 0
0.569879 0.315709 0
0.593912 0.309697 0
0.618418 0.301472 0
0.643549 0.289799 0
0.669535 0.272297 0
0.696651 0.243275 0
0.725322 0.183734 0
0.756191 0.0343938 0
0.79028 0 0
0.829374 0 0
0.877104 0 0
0.942748 0 0
0.995819 0 0
0.0998856 0.361608 0.0807965
0.0998856 0.361608 0.0807965
0.0998856 0.361608 0.0807965
0.122316 0.361547 0.0801099
0.158999 0.36144 0.078996
0.194034 0.361318 0.0776379
0.225528 0.361151 0.0759594
0.254643 0.360967 0.0739147
0.282078 0.360723 0.0714122
0.308278 0.360433 0.0683452
0.333593 0.360082 0.0645762
0.358221 0.35964 0.0599374
0.382345 0.359091 0.0542458
0.406104 0.358419 0.0472419
0.429618 0.35758 0.0386053
0.452949 0.356527 0.0279393
0.476204 0.35523 0.0147402
0.499443 0.353582 0
0.522759 0.351492 0
0.546212 0.348837 0
0.569909 0.345388 0
0.593942 0.340841 0
0.618433 0.334752 0
0.643565 0.326329 0
0.669551 0.314168 0
0.696651 0.295399 0
0.725338 0.262791 0
0.756207 0.187396 0
0.79028 0 0
0.829374 0 0
0.877104 0 0
0.942748 0 0
0.995819 0 0
0.101808 0.386007 0.0775158
0.101808 0.386007 0.0775158
0.101808 0.386007 0.0775158
0.124239 0.385962 0.0768292
0.160754 0.38587 0.0757153
0.1953 0.385763 0.0743572
0.226474 0.385641 0.0726787
0.255375 0.385489 0.070634
0.282643 0.385306 0.0681315
0.308721 0.385077 0.0650645
0.333928 0.384787 0.0612955
0.358495 0.384436 0.0566567
0.382559 0.384009 0.0509651
0.406287 0.383474 0.0439612
0.429755 0.382803 0.0353246
0.453056 0.381979 0.0246586
0.476295 0.380957 0.0114595
0.499519 0.37966 0
0.52282 0.378027 0
0.546258 0.375952 0
0.56994 0.373281 0
0.593973 0.369802 0
0.618463 0.365179 0
0.643595 0.358892 0
0.669566 0.350057 0
0.696666 0.336965 0
0.725338 0.315938 0
0.756207 0.276478 0
0.790295 0.159365 0
0.829389 0 0
0.877104 0 0
0.942748 0 0
0.995819 0 0
0.104189 0.409979 0.0734722
0.104189 0.409979 0.0734722
0.104189 0.409979 0.0734722
0.126619 0.409934 0.0728008
0.162875 0.409873 0.0716869
0.196841 0.409796 0.0703136
0.227634 0.409689 0.0686503
0.25626 0.409567 0.0666056
0.28333 0.409415 0.0641031
0.30927 0.409232 0.0610208
0.334356 0.409003 0.0572519
0.358831 0.408728 0.0526284
0.382834 0.408377 0.0469368
0.4065 0.40795 0.0399176
0.429923 0.407431 0.031281
0.453208 0.406775 0.0206149
0.476402 0.405951 0.00741588
0.499611 0.404929 0
0.522896 0.403647 0
0.546319 0.402014 0
0.569986 0.399924 0
0.594003 0.397223 0
0.618494 0.393652 0
0.64361 0.388876 0
0.669581 0.382254 0
0.696681 0.372702 0
0.725353 0.358068 0
0.756222 0.333074 0
0.790295 0.279652 0
0.829389 0.0274205 0
0.877104 0 0
0.942748 0 0
0.995819 0 0
0.107118 0.433646 0.0684977
0.107118 0.433646 0.0684977
0.107118 0.433646 0.0684977
0.129549 0.433616 0.0678264
0.165423 0.43357 0.0666972
0.198718 0.433494 0.0653391
0.229038 0.433417 0.0636759
0.257328 0.433326 0.0616312
0.284169 0.433204 0.0591135
0.309926 0.433051 0.0560464
0.33489 0.432868 0.0522774
0.359243 0.432654 0.0476387
0.383169 0.432364 0.0419471
0.406775 0.432029 0.0349432
0.430137 0.431617 0.0263066
0.453376 0.431083 0.0156405
0.476539 0.430442 0.00244144
0.499718 0.429618 0
0.522972 0.428595 0
0.546395 0.427314 0
0.570047 0.425666 0
0.594049 0.423545 0
0.618524 0.420768 0
0.643641 0.41706 0
0.669596 0.412009 0
0.696696 0.404852 0
0.725368 0.394202 0
0.756222 0.376959 0
0.790311 0.344564 0
0.829389 0.254261 0
0.877119 0 0
0.942748 0 0
0.995819 0 0
0.110735 0.45713 0.0623484
0.110735 0.45713 0.0623484
0.110735 0.45713 0.0623484
0.133165 0.457099 0.061677
0.168505 0.457053 0.0605631
0.200977 0.457008 0.0591897
0.230762 0.456931 0.0575265
0.258656 0.456855 0.0554818
0.285191 0.456764 0.0529793
0.310735 0.456641 0.049897
0.335531 0.456489 0.046128
0.359762 0.456321 0.0415045
0.383581 0.456092 0.0358129
0.407095 0.455817 0.0287938
0.430411 0.455482 0.0201572
0.45359 0.45507 0.00949111
0.476722 0.454551 0
0.499855 0.453895 0
0.523095 0.453086 0
0.546487 0.452064 0
0.570123 0.450752 0
0.59411 0.449073 0
0.61857 0.446891 0
0.643671 0.444007 0
0.669627 0.440085 0
0.696727 0.434623 0
0.725383 0.426642 0
0.756237 0.414176 0
0.790311 0.392325 0
0.829404 0.343648 0
0.877119 0.00820935 0
0.942748 0 0
0.995819 0 0
0.115206 0.480476 0.0547494
0.115206 0.480476 0.0547494
0.115206 0.480476 0.0547494
0.137636 0.480461 0.0540627
0.172198 0.48043 0.0529488
0.203723 0.480385 0.0515908
0.232837 0.480339 0.0499123
0.260258 0.480262 0.0478676
0.286458 0.480186 0.0453651
0.311727 0.480095 0.042298
0.336309 0.479973 0.038529
0.360388 0.479835 0.0338903
0.384085 0.479652 0.0281987
0.407507 0.479438 0.0211948
0.430732 0.479164 0.0125582
0.453849 0.478828 0.00189212
0.476936 0.478416 0
0.500038 0.477897 0
0.523232 0.477241 0
0.546593 0.476432 0
0.570214 0.47538 0
0.594186 0.474052 0
0.618631 0.472328 0
0.643717 0.470054 0
0.669657 0.467002 0
0.696757 0.462776 0
0.725399 0.456687 0
0.756252 0.447395 0
0.790326 0.431815 0
0.829404 0.40058 0
0.877119 0.296971 0
0.942763 0 0
0.995819 0 0
0.12076 0.503807 0.045304
0.12076 0.503807 0.045304
0.12076 0.503807 0.045304
0.143191 0.503792 0.0446326
0.176608 0.503761 0.0435035
0.207019 0.503731 0.0421454
0.23537 0.503685 0.0404822
0.262226 0.503639 0.0384222
0.287999 0.503578 0.0359197
0.312947 0.503502 0.0328527
0.337285 0.50341 0.0290837
0.361166 0.503288 0.024445
0.38471 0.503151 0.0187533
0.408011 0.502968 0.0117494
0.431144 0.502754 0.00311284
0.454185 0.50248 0
0.477195 0.502159 0
0.500252 0.501732 0
0.5234 0.501213 0
0.546731 0.500557 0
0.570321 0.499733 0
0.594278 0.498665 0
0.618708 0.497307 0
0.643778 0.495506 0
0.669703 0.493095 0
0.696788 0.489799 0
0.725429 0.4851 0
0.756283 0.478035 0
0.790341 0.466545 0
0.829419 0.444892 0
0.877134 0.388296 0
0.942763 0 0
0.995819 0 0
0.127687 0.527199 0.0335393
0.127687 0.527199 0.0335393
0.127687 0.527199 0.0335393
0.150118 0.527184 0.0328679
0.181872 0.527153 0.0317388
0.211002 0.527123 0.0303807
0.238437 0.527092 0.0287175
0.264622 0.527062 0.0266728
0.289891 0.527001 0.024155
0.314443 0.52694 0.021088
0.338491 0.526864 0.017319
0.362127 0.526772 0.0126802
0.385489 0.526665 0.00698863
0.408621 0.526513 0
0.431647 0.526345 0
0.454582 0.526131 0
0.477516 0.525856 0
0.500511 0.525521 0
0.523613 0.525109 0
0.546899 0.52459 0
0.570459 0.523919 0
0.594385 0.523079 0
0.618799 0.521981 0
0.643854 0.520562 0
0.669764 0.518669 0
0.696834 0.516075 0
0.72546 0.512413 0
0.756298 0.506981 0
0.790356 0.498299 0
0.829435 0.482628 0
0.877134 0.446128 0
0.942763 0.124605 0
0.995819 0 0
0.136339 0.550713 0.0188144
0.136339 0.550713 0.0188144
0.136339 0.550713 0.0188144
0.158419 0.550698 0.018143
0.188098 0.550683 0.0170291
0.215793 0.550652 0.0156558
0.242161 0.550637 0.0139925
0.267552 0.550591 0.0119478
0.29221 0.550561 0.00944533
0.316304 0.5505 0.00636301
0.339971 0.550439 0.00259403
0.363317 0.550378 0
0.386435 0.550286 0
0.4094 0.550164 0
0.432258 0.550027 0
0.455085 0.549859 0
0.477928 0.54963 0
0.500832 0.549371 0
0.523873 0.549035 0
0.547112 0.548623 0
0.570626 0.548089 0
0.594522 0.547417 0
0.618906 0.546548 0
0.643931 0.545419 0
0.669825 0.543908 0
0.69688 0.541863 0
0.725505 0.538994 0
0.756329 0.534783 0
0.790387 0.528145 0
0.82945 0.516503 0
0.87715 0.491157 0
0.942763 0.385687 0
0.995819 0 0
0.14725 0.574441 0.00030518
0.14725 0.574441 0.00030518
0.14725 0.574441 0.00030518
0.168017 0.574441 0
0.195453 0.574426 0
0.221515 0.574411 0
0.246677 0.57438 0
0.271122 0.574365 0
0.295064 0.574319 0
0.318578 0.574289 0
0.341802 0.574243 0
0.364797 0.574182 0
0.38764 0.574105 0
0.410361 0.574014 0
0.433051 0.573907 0
0.455726 0.573754 0
0.478431 0.573587 0
0.501244 0.573373 0
0.524208 0.573114 0
0.547387 0.572778 0
0.57084 0.572351 0
0.59469 0.571817 0
0.619043 0.57113 0
0.644038 0.57023 0
0.669917 0.569024 0
0.696941 0.567422 0
0.725551 0.565164 0
0.756374 0.561868 0
0.790402 0.556756 0
0.829465 0.547951 0
0.877165 0.529625 0
0.942779 0.467918 0
0.995834 0 0
0.160479 0.59852 0
0.160479 0.59852 0
0.160479 0.59852 0
0.179065 0.598505 0
0.204105 0.598505 0
0.228367 0.598489 0
0.252125 0.598459 0
0.275486 0.598444 0
0.298558 0.598413 0
0.321401 0.598383 0
0.344091 0.598352 0
0.366644 0.598306 0
0.389136 0.598245 0
0.411582 0.598169 0
0.434028 0.598077 0
0.456519 0.597971 0
0.479088 0.597833 0
0.501778 0.597665 0
0.524636 0.597452 0
0.547723 0.597177 0
0.571115 0.596841 0
0.594903 0.596414 0
0.619211 0.595865 0
0.644175 0.595148 0
0.670024 0.594217 0
0.697032 0.592935 0
0.725612 0.591165 0
0.75642 0.588586 0
0.790448 0.584619 0
0.829496 0.57789 0
0.87718 0.564324 0
0.942779 0.523491 0
0.995834 0.411704 0
0.175357 0.623041 0
0.175357 0.623041 0
0.175357 0.623041 0
0.191699 0.623041 0
0.214237 0.623026 0
0.23653 0.623026 0
0.258701 0.623011 0
0.280827 0.622995 0
0.302876 0.622965 0
0.32491 0.62295 0
0.346929 0.622919 0
0.368963 0.622873 0
0.391012 0.622827 0
0.413108 0.622766 0
0.435264 0.622705 0
0.457527 0.622614 0
0.479896 0.622507 0
0.502434 0.62237 0
0.52517 0.622202 0
0.54815 0.621988 0
0.571466 0.621714 0
0.595193 0.621378 0
0.61944 0.620951 0
0.644358 0.620386 0
0.670161 0.619638 0
0.697139 0.618631 0
0.725704 0.617243 0
0.756481 0.615228 0
0.790494 0.612146 0
0.829526 0.606973 0
0.877195 0.59678 0
0.942794 0.568185 0
0.99585 0.508461 0
0.191959 0.648203 0
0.191959 0.648203 0
0.191959 0.648203 0
0.206104 0.648203 0
0.226062 0.648188 0
0.24622 0.648188 0
0.266667 0.648173 0
0.287343 0.648157 0
0.308217 0.648142 0
0.329274 0.648127 0
0.3505 0.648096 0
0.371878 0.648066 0
0.393393 0.648035 0
0.415045 0.64799 0
0.436851 0.647929 0
0.458808 0.647852 0
0.480949 0.647776 0
0.503288 0.647669 0
0.525856 0.647532 0
0.548714 0.647364 0
0.571908 0.64715 0
0.595544 0.646891 0
0.619715 0.64654 0
0.644587 0.646097 0
0.670344 0.645518 0
0.697276 0.644724 0
0.725811 0.643626 0
0.756558 0.642054 0
0.790555 0.639673 0
0.829557 0.635691 0
0.877226 0.62797 0
0.942809 0.60734 0
0.99585 0.569619 0
0.210437 0.674189 0
0.210437 0.674189 0
0.210437 0.674189 0
0.222477 0.674189 0
0.239826 0.674189 0
0.257755 0.674174 0
0.27628 0.674174 0
0.295338 0.674159 0
0.314839 0.674144 0
0.334752 0.674128 0
0.355016 0.674113 0
0.375586 0.674083 0
0.396429 0.674067 0
0.417548 0.674022 0
0.438895 0.673976 0
0.460472 0.67393 0
0.482307 0.673854 0
0.504387 0.673777 0
0.526757 0.673671 0
0.549432 0.673533 0
0.572503 0.673381 0
0.596017 0.673167 0
0.620096 0.672892 0
0.644877 0.672541 0
0.670573 0.672084 0
0.697459 0.671473 0
0.725948 0.670619 0
0.756664 0.669398 0
0.790631 0.667552 0
0.829618 0.6645 0
0.877256 0.658656 0
0.942824 0.643534 0
0.995865 0.618021 0
0.231037 0.70132 0
0.231037 0.70132 0
0.231037 0.70132 0
0.241062 0.70132 0
0.255833 0.70132 0
0.271458 0.70132 0
0.287922 0.701305 0
0.305165 0.701305 0
0.323095 0.701289 0
0.34165 0.701274 0
0.360754 0.701259 0
0.380346 0.701244 0
0.400381 0.701213 0
0.420798 0.701198 0
0.441566 0.701152 0
0.462669 0.701122 0
0.484092 0.70106 0
0.505852 0.700999 0
0.527932 0.700923 0
0.550393 0.700816 0
0.573281 0.700694 0
0.596643 0.700526 0
0.6206 0.700313 0
0.645274 0.700053 0
0.670893 0.699687 0
0.697704 0.699214 0
0.726131 0.698558 0
0.756802 0.697627 0
0.790722 0.696208 0
0.829679 0.693874 0
0.877302 0.689448 0
0.942855 0.678309 0
0.99588 0.660487 0
0.254078 0.730007 0
0.254078 0.730007 0
0.254078 0.730007 0
0.262242 0.730007 0
0.27451 0.730007 0
0.287785 0.730007 0
0.302083 0.729992 0
0.317342 0.729992 0
0.333486 0.729992 0
0.350454 0.729976 0
0.36817 0.729961 0
0.386572 0.729946 0
0.405554 0.729931 0
0.425086 0.729915 0
0.445121 0.729885 0
0.465599 0.729854 0
0.486503 0.729809 0
0.50782 0.729763 0
0.529549 0.729702 0
0.551705 0.729625 0
0.574334 0.729519 0
0.597498 0.729397 0
0.621271 0.729244 0
0.645823 0.72903 0
0.671321 0.728771 0
0.698039 0.728405 0
0.72639 0.727901 0
0.757 0.727184 0
0.79086 0.726116 0
0.829786 0.724361 0
0.877363 0.72105 0
0.942885 0.712856 0
0.995895 0.700236 0
0.280125 0.760891 0
0.280125 0.760891 0
0.280125 0.760891 0
0.286595 0.760891 0
0.296483 0.760891 0
0.307408 0.760891 0
0.319448 0.760876 0
0.332555 0.760876 0
0.3467 0.760876 0
