MEDT/Pirringer/Unterricht/2025-02-26/Korrektur und Grading FootageFotos-20250226T115430Z-001/Korrektur und Grading FootageFotos/Bounce Color True Basic Log Conversion LUTs/Blackmagic 4.6K Film Gen3 to Arri Log-C LUT 33x33.cube
TITLE "Generated by Resolve"
LUT_3D_SIZE 9
0.0928054 0.0928054 0.0928054
0.152316 0.0915999 0.0910201
0.280003 0.0864729 0.0834363
0.381537 0.074876 0.0662699
0.475868 0.048188 0.0267491
0.569772 0 0
0.66949 0 0
0.790265 0 0
0.995804 0 0
0.0934157 0.154894 0.0917678
0.152895 0.153735 0.0899825
0.280186 0.148684 0.0823987
0.381598 0.137087 0.0652323
0.475898 0.110399 0.0257115
0.569772 0.0465553 0
0.66949 0 0
0.790265 0 0
0.995804 0 0
0.0959945 0.284077 0.0874037
0.155367 0.283726 0.0856031
0.280934 0.282246 0.0780346
0.381903 0.278828 0.060853
0.47602 0.270497 0.0213474
0.569833 0.247486 0
0.66952 0.141604 0
0.79028 0 0
0.995804 0 0
0.101808 0.386007 0.0775158
0.160754 0.38587 0.0757153
0.282643 0.385306 0.0681315
0.382559 0.384009 0.0509651
0.476295 0.380957 0.0114595
0.56994 0.373281 0
0.669566 0.350057 0
0.790295 0.159365 0
0.995819 0 0
0.115206 0.480476 0.0547494
0.172198 0.48043 0.0529488
0.286458 0.480186 0.0453651
0.384085 0.479652 0.0281987
0.476936 0.478416 0
0.570214 0.47538 0
0.669657 0.467002 0
0.790326 0.431815 0
0.995819 0 0
0.14725 0.574441 0.00030518
0.195453 0.574426 0
0.295064 0.574319 0
0.38764 0.574105 0
0.478431 0.573587 0
0.57084 0.572351 0
0.669917 0.569024 0
0.790402 0.556756 0
0.995834 0 0
0.210437 0.674189 0
0.239826 0.674189 0
0.314839 0.674144 0
0.396429 0.674067 0
0.482307 0.673854 0
0.572503 0.673381 0
0.670573 0.672084 0
0.790631 0.667552 0
0.995865 0.618021 0
0.310109 0.794995 0
0.322698 0.79498 0
0.363867 0.79498 0
0.422156 0.794949 0
0.494621 0.794873 0
0.577996 0.79472 0
0.672816 0.794308 0
0.791363 0.792874 0
0.995972 0.779767 0
0.505638 1 0
0.507774 1 0
0.516365 1 0
0.533608 1 0
0.565148 1 0
0.616175 1 0
0.690272 1 0
0.797467 1 0
0.996902 0.998413 0
0.0945754 0.0937209 0.157259
0.154009 0.0925002 0.155581
0.280522 0.0873732 0.148165
0.381735 0.0757763 0.130999
0.475944 0.0490883 0.0914778
0.569802 0 0
0.669505 0 0
0.79028 0 0
0.995804 0 0
0.0951858 0.155749 0.156298
0.154589 0.154589 0.154589
0.280705 0.149584 0.147127
0.381811 0.137987 0.129961
0.475975 0.111299 0.0904402
0.569818 0.0474556 0
0.669505 0 0
0.79028 0 0
0.995804 0 0
0.0977493 0.284337 0.152117
0.157031 0.283986 0.150347
0.281453 0.282506 0.142763
0.382101 0.279088 0.125597
0.476097 0.270787 0.0860761
0.569863 0.247837 0
0.66952 0.142519 0
0.79028 0 0
0.995819 0 0
0.103578 0.386099 0.142245
0.162325 0.385977 0.140444
0.283146 0.385397 0.13286
0.382773 0.3841 0.115694
0.476371 0.381064 0.0761883
0.569986 0.373388 0
0.669566 0.350195 0
0.790295 0.160189 0
0.995819 0 0
0.11696 0.480522 0.119478
0.173617 0.480476 0.117678
0.286946 0.480232 0.110094
0.384283 0.479698 0.0929274
0.477012 0.478462 0.0534218
0.570245 0.475425 0
0.669673 0.467048 0
0.790326 0.431876 0
0.995819 0 0
0.149004 0.574456 0.0650339
0.196597 0.574441 0.0632334
0.295506 0.57435 0.0556497
0.387823 0.574121 0.0384833
0.478523 0.573602 0
0.570886 0.572366 0
0.669932 0.569055 0
0.790417 0.556771 0
0.995834 0 0
0.211444 0.674205 0
0.240574 0.674189 0
0.315221 0.674159 0
0.396612 0.674067 0
0.482383 0.673869 0
0.572534 0.673381 0
0.670588 0.672099 0
0.790631 0.667567 0
0.995865 0.618036 0
0.310506 0.794995 0
0.323049 0.79498 0
0.364096 0.79498 0
0.422293 0.794949 0
0.494697 0.794888 0
0.578027 0.79472 0
0.672831 0.794308 0
0.791363 0.792874 0
0.995972 0.779767 0
0.505699 1 0
0.507836 1 0
0.516426 1 0
0.533654 1 0
0.565179 1 0
0.616205 1 0
0.690288 1 0
0.797467 1 0
0.996902 0.998413 0
0.102007 0.0975357 0.28777
0.160937 0.0963149 0.287282
0.282704 0.0912032 0.285161
0.382589 0.0796063 0.280186
0.476295 0.052903 0.267781
0.569955 0 0.230564
0.669566 0 0.0221408
0.790295 0 0
0.995819 0 0
0.102617 0.159304 0.287495
0.161471 0.15819 0.286992
0.282872 0.153353 0.284855
0.382666 0.141817 0.279881
0.476326 0.115114 0.26743
0.569955 0.0512856 0.230076
0.669566 0 0.0211032
0.790295 0 0
0.995819 0 0
0.105196 0.28542 0.286275
0.16376 0.285069 0.285771
0.283619 0.283619 0.283619
0.382956 0.280232 0.278569
0.476448 0.272007 0.265965
0.570016 0.249363 0.228
0.669581 0.146334 0.0167391
0.790295 0 0
0.995819 0 0
0.111009 0.386526 0.283467
0.16875 0.386389 0.282948
0.285267 0.385824 0.280735
0.383612 0.384543 0.275547
0.476738 0.381506 0.262562
0.570123 0.373877 0.223117
0.669627 0.350774 0.0068513
0.790311 0.163592 0
0.995819 0 0
0.124407 0.480705 0.276707
0.179416 0.480644 0.276158
0.288991 0.480415 0.273808
0.385122 0.479881 0.268254
0.477363 0.47863 0.254292
0.570397 0.475608 0.210971
0.669734 0.467247 0
0.790356 0.432151 0
0.995819 0 0
0.156237 0.574533 0.258595
0.201297 0.574517 0.257939
0.297398 0.574411 0.255146
0.388632 0.574197 0.248508
0.478874 0.573678 0.231495
0.571023 0.572442 0.174731
0.669993 0.569131 0
0.790433 0.556863 0
0.995834 0 0
0.215549 0.674235 0.187762
0.243717 0.67422 0.186496
0.316793 0.674189 0.180972
0.39736 0.674098 0.167315
0.482719 0.673899 0.129351
0.572671 0.673411 0.0348516
0.670649 0.672129 0
0.790646 0.667597 0
0.995865 0.618082 0
0.312154 0.794995 0
0.324514 0.794995 0
0.365103 0.79498 0
0.422873 0.794949 0
0.495003 0.794888 0
0.578164 0.794736 0
0.672877 0.794324 0
0.791379 0.792889 0
0.995972 0.779767 0
0.505974 1 0
0.50811 1 0
0.51667 1 0
0.533867 1 0
0.565332 1 0
0.616297 1 0
0.690333 1 0
0.797482 1 0
0.996902 0.998428 0
0.118853 0.106188 0.390051
0.175113 0.104967 0.389868
0.287465 0.099855 0.389044
0.384497 0.0882582 0.387182
0.477104 0.0615549 0.382773
0.570291 0 0.37142
0.669688 0 0.334188
0.790341 0 0
0.995819 0 0
0.119463 0.166934 0.389944
0.175601 0.165896 0.389746
0.287633 0.161395 0.388937
0.384558 0.150454 0.387076
0.477134 0.123766 0.38265
0.570291 0.0599374 0.371298
0.669703 0 0.334005
0.790341 0 0
0.995819 0 0
0.122042 0.287831 0.389471
0.1776 0.287495 0.389288
0.28835 0.286076 0.388464
0.384848 0.282765 0.386587
0.477256 0.274739 0.382162
0.570352 0.25272 0.370733
0.669718 0.154864 0.333211
0.790341 0 0
0.995819 0 0
0.127855 0.387472 0.388418
0.181994 0.38735 0.38822
0.289937 0.386786 0.387396
0.385504 0.385504 0.385504
0.477531 0.382498 0.381018
0.570459 0.374929 0.369467
0.669764 0.352102 0.331411
0.790356 0.170932 0
0.995819 0 0
0.141253 0.481102 0.385916
0.19147 0.481041 0.385718
0.293492 0.480812 0.384878
0.386984 0.480278 0.38294
0.478157 0.479042 0.378347
0.570733 0.476036 0.366491
0.669871 0.467689 0.327138
0.790387 0.432776 0
0.995834 0 0
0.171023 0.574701 0.379721
0.211231 0.574685 0.379507
0.301579 0.574578 0.378607
0.390433 0.574365 0.376562
0.479652 0.573846 0.371679
0.571359 0.57261 0.359014
0.670115 0.569299 0.316182
0.790478 0.557061 0
0.995834 0 0
0.224292 0.674296 0.361471
0.250523 0.674281 0.361227
0.320287 0.67425 0.360159
0.399023 0.674159 0.357717
0.483467 0.673961 0.351873
0.573007 0.673472 0.336446
0.670787 0.67219 0.280537
0.790692 0.667659 0
0.995865 0.618189 0
0.315801 0.795026 0.252659
0.327779 0.79501 0.251972
0.367346 0.79501 0.249012
0.424186 0.79498 0.241978
0.495674 0.794919 0.223804
0.57847 0.794751 0.161334
0.673014 0.794339 0
0.791424 0.792905 0
0.995987 0.779797 0
0.506584 1 0
0.508705 1 0
0.51722 1 0
0.53434 1 0
0.565682 1 0
0.61651 1 0
0.69044 1 0
0.797528 1 0
0.996918 0.998428 0
0.157351 0.126101 0.484657
0.202029 0.12488 0.484581
0.297704 0.119753 0.484245
0.388754 0.108156 0.483482
0.47892 0.0814679 0.481697
0.571054 0.0176394 0.477333
0.669993 0 0.464897
0.790433 0 0.406073
0.995834 0 0
0.157916 0.182666 0.484611
0.202396 0.181765 0.484535
0.297856 0.177905 0.484199
0.38883 0.168597 0.483436
0.47895 0.143679 0.481651
0.571069 0.0798505 0.477272
0.670008 0 0.464851
0.790433 0 0.405982
0.995834 0 0
0.160266 0.293187 0.484413
0.203967 0.292882 0.484337
0.298497 0.291524 0.484001
0.389105 0.28838 0.483238
0.479072 0.280781 0.481453
0.571115 0.26009 0.477073
0.670024 0.17232 0.464622
0.790448 0 0.405585
0.995834 0 0
0.165408 0.389624 0.483986
0.207416 0.389502 0.483894
0.299947 0.388952 0.483558
0.389731 0.387686 0.482795
0.479347 0.384741 0.48101
0.571237 0.377356 0.4766
0.670069 0.355077 0.464088
0.790463 0.18613 0.404669
0.995834 0 0
0.176394 0.482002 0.482963
0.214969 0.481941 0.482887
0.303197 0.481712 0.482536
0.39115 0.481178 0.481773
0.479957 0.479957 0.479957
0.571496 0.476982 0.475517
0.670176 0.468711 0.462867
0.790494 0.43418 0.402533
0.99585 0 0
0.198856 0.575082 0.480491
0.231128 0.575051 0.480415
0.310597 0.57496 0.480064
0.394476 0.574746 0.479271
0.481422 0.574228 0.477424
0.572122 0.572992 0.472862
0.67042 0.569696 0.459876
0.79057 0.557504 0.397238
0.99585 0 0
0.242084 0.674449 0.473716
0.264698 0.674434 0.47364
0.327932 0.674403 0.473259
0.402747 0.674311 0.472419
0.485191 0.674113 0.470451
0.573754 0.673625 0.465583
0.671077 0.672343 0.451621
0.790784 0.667826 0.381949
0.99588 0.618448 0
0.323751 0.795071 0.44651
0.334905 0.795071 0.446403
0.372335 0.795056 0.445914
0.427146 0.795026 0.444831
0.4972 0.794965 0.442267
0.579187 0.794797 0.435889
0.673304 0.794385 0.417075
0.791531 0.792966 0.301701
0.996002 0.779858 0
0.507973 1 0
0.510063 1 0
0.518486 1 0
0.535409 1 0
0.566491 1 0
0.617014 1 0
0.6907 1 0
0.79762 1 0
0.996933 0.998428 0
0.220676 0.171359 0.578668
0.2477 0.170367 0.578637
0.318822 0.166049 0.5785
0.398322 0.155612 0.57818
0.483162 0.129076 0.577447
0.572869 0.0652476 0.575677
0.670726 0 0.570886
0.790677 0 0.552529
0.995865 0 0
0.220996 0.21297 0.578653
0.247944 0.212299 0.578622
0.318959 0.2094 0.578485
0.398383 0.202533 0.578164
0.483177 0.184848 0.577432
0.572885 0.127459 0.575662
0.670726 0 0.570855
0.790677 0 0.552499
0.995865 0 0
0.222309 0.305028 0.578576
0.248966 0.304738 0.578546
0.319478 0.303517 0.578408
0.398627 0.300725 0.578088
0.483299 0.29398 0.577356
0.572931 0.275883 0.575586
0.670756 0.205264 0.570779
0.790677 0 0.552392
0.995865 0 0
0.225223 0.394598 0.578393
0.251255 0.394476 0.578363
0.320668 0.393957 0.578225
0.399207 0.392752 0.577905
0.483558 0.389944 0.577173
0.573037 0.38291 0.575387
0.670787 0.361883 0.570581
0.790692 0.215595 0.552163
0.99588 0 0
0.231662 0.484138 0.577966
0.256321 0.484077 0.577935
0.323369 0.483848 0.577798
0.400504 0.48333 0.577478
0.484154 0.482139 0.576745
0.573297 0.47921 0.57496
0.670893 0.471122 0.570123
0.790722 0.437491 0.551629
0.99588 0 0
0.24564 0.575982 0.576959
0.267582 0.575967 0.576928
0.329534 0.57586 0.576791
0.403555 0.575647 0.576455
0.485557 0.575143 0.575723
0.573922 0.573922 0.573922
0.671153 0.570642 0.569039
0.790814 0.558572 0.550332
0.995895 0 0
0.275486 0.6748 0.574258
0.292515 0.6748 0.574212
0.344244 0.674754 0.574075
0.411185 0.674662 0.573739
0.489189 0.674464 0.572976
0.575525 0.673991 0.57113
0.671794 0.672709 0.566125
0.791028 0.668208 0.546853
0.995926 0.619043 0
0.340658 0.795193 0.564385
0.350271 0.795178 0.564355
0.383398 0.795178 0.564187
0.433921 0.795148 0.563836
0.500786 0.795071 0.562997
0.580865 0.794919 0.560967
0.674006 0.794507 0.555444
0.79176 0.793072 0.533944
0.996033 0.779995 0
0.511208 1 0.377829
0.513237 1 0.377615
0.521431 1 0.376699
0.537926 1 0.374609
0.568383 1 0.369635
0.618204 1 0.356725
0.691295 1 0.312749
0.797848 1 0
0.996963 0.998444 0
0.303899 0.243168 0.678447
0.317189 0.242649 0.678431
0.360143 0.240482 0.67837
0.420005 0.235386 0.678248
0.493538 0.222644 0.677958
0.577493 0.184161 0.677272
0.672602 0.0226291 0.675441
0.791287 0 0.668864
0.995956 0 0.585397
0.304036 0.266468 0.678431
0.317311 0.266072 0.678431
0.36022 0.264317 0.67837
0.42005 0.260258 0.678248
0.493568 0.250278 0.677958
0.577508 0.22182 0.677272
0.672618 0.0848402 0.675425
0.791287 0 0.668864
0.995956 0 0.585382
0.304646 0.331029 0.678401
0.317861 0.3308 0.678401
0.360586 0.329854 0.67834
0.420264 0.327657 0.678218
0.493675 0.322454 0.677928
0.577554 0.308858 0.677241
0.672633 0.26186 0.675395
0.791302 0 0.668818
0.995956 0 0.585306
0.30602 0.406668 0.67834
0.319066 0.406561 0.678325
0.361395 0.406088 0.678264
0.420722 0.40502 0.678141
0.493904 0.402518 0.677852
0.577661 0.396292 0.677165
0.672679 0.377951 0.675319
0.791318 0.26807 0.668742
0.995972 0 0.585138
0.309087 0.48954 0.678172
0.321798 0.489494 0.678157
0.363241 0.489281 0.678096
0.42179 0.488777 0.677974
0.494438 0.487648 0.677684
0.577905 0.484871 0.676997
0.672786 0.477211 0.675151
0.791348 0.445731 0.668559
0.995972 0 0.584741
0.316106 0.578317 0.677775
0.328054 0.578286 0.67776
0.367544 0.578195 0.677699
0.424308 0.577981 0.677577
0.495735 0.577493 0.677287
0.5785 0.576303 0.6766
0.67303 0.573098 0.674739
0.791424 0.561303 0.668132
0.995987 0.0701152 0.583795
0.332631 0.675746 0.676722
0.342947 0.675731 0.676707
0.378073 0.6757 0.676646
0.430625 0.675608 0.676524
0.499031 0.67541 0.676234
0.580041 0.674922 0.675532
0.673671 0.673671 0.673671
0.791638 0.6692 0.666987
0.996017 0.620615 0.581262
0.375463 0.795499 0.67303
0.382498 0.795483 0.673014
0.407965 0.795483 0.672953
0.449912 0.795453 0.672831
0.509651 0.795377 0.672526
0.585168 0.795224 0.671794
0.675837 0.794812 0.669871
0.79237 0.793393 0.662928
0.996124 0.780346 0.572045
0.519295 1 0.634806
0.521172 1 0.634791
0.528801 1 0.634714
0.544289 1 0.634516
0.573205 1 0.634089
0.621256 1 0.633051
0.692851 1 0.630259
0.798428 1 0.620081
0.997055 0.998489 0.415473
0.41651 0.348882 0.799252
0.421347 0.348684 0.799237
0.439704 0.347875 0.799222
0.472374 0.346029 0.799191
0.523095 0.341665 0.7991
0.592035 0.330419 0.798871
0.678843 0.293645 0.798276
0.793393 0 0.796231
0.996277 0 0.776867
0.416556 0.35819 0.799252
0.421393 0.358007 0.799237
0.43975 0.357275 0.799222
0.472404 0.355581 0.799176
0.523125 0.351583 0.799084
0.592035 0.34139 0.798871
0.678843 0.308797 0.798276
0.793393 0 0.796231
0.996277 0 0.776867
0.41677 0.390478 0.799237
0.421607 0.390341 0.799237
0.439918 0.389807 0.799207
0.472541 0.388556 0.799176
0.523201 0.385626 0.799084
0.592081 0.378302 0.798856
0.678859 0.356252 0.798276
0.793408 0.191653 0.796216
0.996277 0 0.776852
0.417258 0.440131 0.799207
0.422065 0.44004 0.799207
0.440299 0.439704 0.799191
0.472816 0.438926 0.799146
0.523384 0.43711 0.799054
0.592172 0.432624 0.79884
0.678904 0.419883 0.798245
0.793423 0.358877 0.796201
0.996277 0 0.776822
0.418357 0.50631 0.799161
0.423117 0.506264 0.799161
0.441199 0.506081 0.79913
0.473487 0.505653 0.7991
0.523796 0.504677 0.799008
0.592401 0.502312 0.798779
0.679011 0.495842 0.798184
0.793454 0.470039 0.796139
0.996292 0 0.776761
0.420951 0.585977 0.799023
0.425605 0.585946 0.799023
0.44329 0.585855 0.799008
0.475044 0.585657 0.798962
0.524773 0.585199 0.798871
0.592905 0.584085 0.798657
0.67924 0.581125 0.798062
0.79353 0.570214 0.796002
0.996292 0.305394 0.776608
0.427466 0.678889 0.798688
0.431861 0.678889 0.798688
0.448615 0.678843 0.798672
0.479026 0.678767 0.798627
0.527291 0.678569 0.798535
0.594263 0.678111 0.798306
0.679835 0.676875 0.797726
0.793744 0.672541 0.795666
0.996323 0.625834 0.776181
0.447288 0.796536 0.797528
0.450935 0.796536 0.797513
0.465156 0.796521 0.797498
0.491707 0.79649 0.797452
0.535561 0.796429 0.79736
0.598764 0.796277 0.797131
0.681895 0.795865 0.796536
0.794461 0.794461 0.794461
0.996445 0.781537 0.774746
0.543191 1 0.786923
0.544701 1 0.786923
0.550866 1 0.786908
0.563638 1 0.786862
0.588296 1 0.786755
0.631144 1 0.786511
0.698039 1 0.78584
0.800397 1 0.783536
0.99736 0.998657 0.761486
0.618509 0.54757 1
0.619257 0.547539 1
0.622385 0.547417 1
0.629129 0.547127 1
0.643214 0.546471 1
0.670893 0.544869 1
0.721157 0.540566 1
0.809903 0.524269 1
0.998932 0 1
0.618524 0.549096 1
0.619272 0.549065 1
0.622385 0.548943 1
0.629145 0.548653 1
0.643229 0.547997 1
0.670909 0.546426 1
0.721172 0.542184 1
0.809903 0.526146 1
0.998947 0 1
0.618555 0.555276 1
0.619303 0.555245 1
0.622415 0.555123 1
0.629175 0.554864 1
0.643259 0.554253 1
0.670924 0.552758 1
0.721172 0.54876 1
0.809918 0.533761 1
0.998947 0 1
0.618616 0.568078 1
0.619379 0.568048 1
0.622492 0.567956 1
0.629236 0.567712 1
0.643305 0.567163 1
0.67097 0.56585 1
0.721202 0.562325 1
0.809918 0.549203 1
0.998947 0 1
0.618799 0.592782 1
0.619547 0.592767 1
0.62266 0.592691 1
0.629389 0.592493 1
0.643442 0.592065 1
0.671077 0.591028 1
0.721279 0.588235 1
0.809949 0.578073 1
0.998947 0.373999 1
0.619196 0.635721 1
0.619944 0.635706 1
0.623041 0.635645 1
0.629755 0.635523 1
0.643763 0.635233 1
0.671321 0.634531 1
0.721431 0.632685 1
0.810025 0.626078 1
0.998962 0.541802 1
0.620249 0.702678 1
0.620996 0.702678 1
0.624063 0.702647 1
0.630716 0.702571 1
0.644602 0.702419 1
0.671977 0.702052 1
0.721843 0.701076 1
0.810193 0.697627 1
0.998993 0.662455 1
0.623804 0.805081 1
0.624521 0.805081 1
0.627497 0.805066 1
0.633936 0.805051 1
0.647456 0.80499 1
0.674189 0.804837 1
0.723232 0.804471 1
0.810819 0.803174 1
0.9991 0.791318 1
0.650202 1 1
0.650767 1 1
0.653101 1 1
0.658213 1 1
0.669123 1 1
0.691432 1 1
0.734478 1 1
0.81593 1 1
1 1 1
