MEDT/Pirringer/Unterricht/2025-02-26/Korrektur und Grading FootageFotos-20250226T115430Z-001/Korrektur und Grading FootageFotos/Bounce Color True Basic Log Conversion LUTs/BMPCC 6K Gen4 BMDFilm to Rec.709 LUT 33x33.cube
TITLE "Generated by Resolve"
LUT_3D_SIZE 5
0 0 0
0.286229 0 0
0.706157 0 0
1 0 0
1 0 0
0 0.260487 0
0.222004 0.249912 0
0.682261 0.201129 0
1 0.0837568 0
1 0 0
0 0.652354 0
0 0.648112 0
0.571893 0.630243 0
1 0.598947 0
1 0.580163 0
0 1 0
0 1 0
0.304723 0.991699 0
0.887114 0.972869 0
1 0.961852 0
0 1 0
0 1 0
0 1 0
0.810147 1 0
1 1 0
0 0 0.255177
0.281147 0 0.248722
0.704097 0 0.220295
1 0 0.163882
1 0 0.123384
0 0.227558 0.222873
0.21561 0.21561 0.21561
0.680125 0.158724 0.183017
1 0.0113069 0.114336
1 0 0.059617
0 0.639582 0.00534066
0 0.635264 0
0.569329 0.616983 0
1 0.584955 0
1 0.565682 0
0 0.997436 0
0 0.994766 0
0.299901 0.983642 0
0.885512 0.964645 0
1 0.953521 0
0 1 0
0 1 0
0 1 0
0.808377 1 0
1 1 0
0 0 0.641245
0.259068 0 0.638651
0.695506 0 0.627771
1 0 0.609033
1 0 0.597986
0 0.00396735 0.628717
0.187213 0 0.626062
0.671199 0 0.614954
1 0 0.595789
1 0 0.584482
0 0.583505 0.573724
0 0.578744 0.570794
0.558541 0.558541 0.558541
0.998657 0.522759 0.53727
1 0.501015 0.524651
0 0.963806 0.466346
0 0.961028 0.46273
0.279179 0.949477 0.44744
0.878828 0.929686 0.420493
1 0.918105 0.404211
0 1 0.391348
0 1 0.387045
0 1 0.368673
0.800992 1 0.335637
1 1 0.31519
0 0 0.989029
0.21767 0 0.987411
0.680812 0 0.980667
1 0 0.969223
1 0 0.962585
0 0 0.981247
0.129625 0 0.979614
0.655924 0 0.972824
1 0 0.961273
1 0 0.954574
0 0.47393 0.948257
0 0.468025 0.946563
0.539895 0.442649 0.939498
0.988815 0.396429 0.927489
1 0.367285 0.920516
0 0.904173 0.889784
0 0.901198 0.887968
0.240803 0.888777 0.880385
0.86746 0.86746 0.86746
1 0.854948 0.859953
0 1 0.85417
0 1 0.852277
0 1 0.844327
0.788403 1 0.830808
1 1 0.822919
0 0 1
0.190555 0 1
0.672206 0 1
1 0 1
1 0 1
0 0 1
0.0864271 0 1
0.646967 0 1
1 0 1
1 0 1
0 0.397299 1
0 0.390234 1
0.528878 0.359503 1
0.983108 0.301289 1
1 0.262562 1
0 0.867857 1
0 0.864744 1
0.216129 0.851728 1
0.860868 0.829374 1
1 0.81622 1
0 1 1
0 1 1
0 1 1
0.781064 1 1
1 1 1
