MEDT/Pirringer/Unterricht/2025-02-26/Korrektur und Grading FootageFotos-20250226T115430Z-001/Korrektur und Grading FootageFotos/Bounce Color True Basic Log Conversion LUTs/BMPCC 6K Gen4 BMDFilm to Rec.709 LUT 33x33.cube
TITLE "Generated by Resolve"
LUT_3D_SIZE 33
0 0 0
0 0 0
0 0 0
0.0334936 0 0
0.0882887 0 0
0.141497 0 0
0.190616 0 0
0.238422 0 0
0.286229 0 0
0.334768 0 0
0.384405 0 0
0.435355 0 0
0.487648 0 0
0.541176 0 0
0.595697 0 0
0.650843 0 0
0.706157 0 0
0.761059 0 0
0.814939 0 0
0.86714 0 0
0.917067 0 0
0.964141 0 0
1 0 0
1 0 0
1 0 0
1 0 0
1 0 0
1 0 0
1 0 0
1 0 0
1 0 0
1 0 0
1 0 0
0 0 0
0 0 0
0 0 0
0.0334936 0 0
0.0882887 0 0
0.141497 0 0
0.190616 0 0
0.238422 0 0
0.286229 0 0
0.334768 0 0
0.384405 0 0
0.435355 0 0
0.487648 0 0
0.541176 0 0
0.595697 0 0
0.650843 0 0
0.706157 0 0
0.761059 0 0
0.814939 0 0
0.86714 0 0
0.917067 0 0
0.964141 0 0
1 0 0
1 0 0
1 0 0
1 0 0
1 0 0
1 0 0
1 0 0
1 0 0
1 0 0
1 0 0
1 0 0
0 0 0
0 0 0
0 0 0
0.0334936 0 0
0.0882887 0 0
0.141497 0 0
0.190616 0 0
0.238422 0 0
0.286229 0 0
0.334768 0 0
0.384405 0 0
0.435355 0 0
0.487648 0 0
0.541176 0 0
0.595697 0 0
0.650843 0 0
0.706157 0 0
0.761059 0 0
0.814939 0 0
0.86714 0 0
0.917067 0 0
0.964141 0 0
1 0 0
1 0 0
1 0 0
1 0 0
1 0 0
1 0 0
1 0 0
1 0 0
1 0 0
1 0 0
1 0 0
0 0.0287175 0
0 0.0287175 0
0 0.0287175 0
0.0223239 0.0268711 0
0.0770428 0.0238651 0
0.133471 0.020264 0
0.184268 0.0159304 0
0.233173 0.0107576 0
0.281788 0.00460822 0
0.330922 0 0
0.381033 0 0
0.43238 0 0
0.484993 0 0
0.538796 0 0
0.593545 0 0
0.64889 0 0
0.704356 0 0
0.759396 0 0
0.813397 0 0
0.865705 0 0
0.915709 0 0
0.962875 0 0
1 0 0
1 0 0
1 0 0
1 0 0
1 0 0
1 0 0
1 0 0
1 0 0
1 0 0
1 0 0
1 0 0
0 0.075639 0
0 0.075639 0
0 0.075639 0
0.00410468 0.0737926 0
0.0588083 0.0707866 0
0.119585 0.0671702 0
0.17351 0.0628367 0
0.224384 0.0576638 0
0.274372 0.0515145 0
0.324544 0.0442359 0
0.375479 0.0356909 0
0.427482 0.0257267 0
0.480629 0.0142214 0
0.534874 0.00108339 0
0.590005 0 0
0.64567 0 0
0.701411 0 0
0.75668 0 0
0.81088 0 0
0.863355 0 0
0.913497 0 0
0.960769 0 0
1 0 0
1 0 0
1 0 0
1 0 0
1 0 0
1 0 0
1 0 0
1 0 0
1 0 0
1 0 0
1 0 0
0 0.125414 0
0 0.125414 0
0 0.125414 0
0 0.123995 0
0.0369726 0.12166 0
0.101396 0.118822 0
0.159899 0.115343 0
0.213458 0.111101 0
0.265263 0.105913 0
0.316762 0.0995651 0
0.368719 0.0917678 0
0.421546 0.0821698 0
0.475364 0.0704204 0
0.530159 0.0572671 0
0.585748 0.0424201 0
0.641794 0.0258793 0
0.697871 0.00772107 0
0.753414 0 0
0.807843 0 0
0.860533 0 0
0.910842 0 0
0.958267 0 0
1 0 0
1 0 0
1 0 0
1 0 0
1 0 0
1 0 0
1 0 0
1 0 0
1 0 0
1 0 0
1 0 0
0 0.171252 0
0 0.171252 0
0 0.171252 0
0 0.170123 0
0.0107729 0.168276 0
0.0762951 0.166033 0
0.142321 0.163302 0
0.199695 0.160006 0
0.253941 0.156008 0
0.307179 0.151186 0
0.360464 0.145373 0
0.414298 0.138369 0
0.468956 0.129961 0
0.524437 0.11986 0
0.580591 0.107729 0
0.63711 0.09308 0
0.693584 0.0751354 0
0.749477 0.0555428 0
0.804196 0.0347753 0
0.857114 0.0131533 0
0.907652 0 0
0.955245 0 0
0.999451 0 0
1 0 0
1 0 0
1 0 0
1 0 0
1 0 0
1 0 0
1 0 0
1 0 0
1 0 0
1 0 0
0 0.215869 0
0 0.215869 0
0 0.215869 0
0 0.214939 0
0 0.213397 0
0.0449836 0.211551 0
0.119005 0.209308 0
0.182162 0.206607 0
0.239811 0.203357 0
0.295354 0.199451 0
0.350332 0.194797 0
0.405478 0.189242 0
0.461173 0.18265 0
0.51751 0.174884 0
0.574365 0.165789 0
0.631479 0.155169 0
0.688441 0.14287 0
0.744747 0.128664 0
0.799817 0.112306 0
0.853025 0.0934768 0
0.903807 0.0716716 0
0.951614 0.0496376 0
0.996002 0.0280308 0
1 0.00729381 0
1 0 0
1 0 0
1 0 0
1 0 0
1 0 0
1 0 0
1 0 0
1 0 0
1 0 0
0 0.260487 0
0 0.260487 0
0 0.260487 0
0 0.259693 0
0 0.258396 0
0.00775158 0.256825 0
0.0865339 0.254932 0
0.15938 0.252644 0
0.222004 0.249912 0
0.280705 0.246647 0
0.337911 0.242756 0
0.394751 0.238148 0
0.451759 0.232746 0
0.509133 0.226413 0
0.566857 0.219089 0
0.624689 0.210681 0
0.682261 0.201129 0
0.739071 0.190372 0
0.794553 0.178408 0
0.848142 0.16524 0
0.899214 0.150942 0
0.94728 0.135561 0
0.991882 0.119203 0
1 0.101915 0
1 0.0837568 0
1 0.0654154 0
1 0.0489052 0
1 0.0340887 0
1 0.0209812 0
1 0.00950637 0
1 0 0
1 0 0
1 0 0
0 0.305776 0
0 0.305776 0
0 0.305776 0
0 0.305089 0
0 0.30396 0
0 0.302602 0
0.0423285 0.300969 0
0.128801 0.299016 0
0.199237 0.296666 0
0.26244 0.293858 0
0.322637 0.290547 0
0.381659 0.286625 0
0.440345 0.282048 0
0.499062 0.276722 0
0.557855 0.270604 0
0.616571 0.263645 0
0.674876 0.255802 0
0.732296 0.247089 0
0.788296 0.237568 0
0.842313 0.227283 0
0.893751 0.216373 0
0.942123 0.20499 0
0.986984 0.193286 0
1 0.181491 0
1 0.169787 0
1 0.158358 0
1 0.147372 0
1 0.13698 0
1 0.127291 0
1 0.118379 0
1 0.110292 0
1 0.103029 0
1 0.099443 0
0 0.352087 0
0 0.352087 0
0 0.352087 0
0 0.351492 0
0 0.3505 0
0 0.349325 0
0 0.34789 0
0.0847639 0.346181 0
0.169436 0.344137 0
0.239414 0.341711 0
0.303792 0.338827 0
0.365728 0.335439 0
0.426566 0.331487 0
0.486961 0.326909 0
0.547082 0.321675 0
0.606882 0.31574 0
0.666087 0.309102 0
0.724254 0.301808 0
0.78088 0.293873 0
0.835416 0.285405 0
0.887297 0.276539 0
0.936019 0.267399 0
0.981201 0.258183 0
1 0.249027 0
1 0.240116 0
1 0.231601 0
1 0.223621 0
1 0.216236 0
1 0.209506 0
1 0.203479 0
1 0.198138 0
1 0.193469 0
1 0.191211 0
0 0.399634 0
0 0.399634 0
0 0.399634 0
0 0.3991 0
0 0.39823 0
0 0.397192 0
0 0.395926 0
0.0242466 0.394415 0
0.128573 0.392615 0
0.209888 0.390478 0
0.280369 0.387945 0
0.346242 0.38497 0
0.409918 0.381506 0
0.472435 0.377508 0
0.534249 0.372961 0
0.595392 0.367819 0
0.65568 0.362081 0
0.714748 0.35581 0
0.772122 0.349035 0
0.827283 0.341863 0
0.879698 0.334386 0
0.928862 0.326741 0
0.974411 0.319097 0
1 0.311589 0
1 0.304341 0
1 0.29749 0
1 0.291127 0
1 0.285298 0
1 0.280049 0
1 0.27538 0
1 0.27129 0
1 0.26772 0
1 0.266011 0
0 0.448432 0
0 0.448432 0
0 0.448432 0
0 0.447959 0
0 0.447181 0
0 0.44625 0
0 0.445136 0
0 0.443793 0
0.066331 0.442176 0
0.170779 0.440284 0
0.250889 0.438025 0
0.322377 0.435401 0
0.389822 0.432334 0
0.4551 0.428809 0
0.519005 0.424781 0
0.581811 0.420264 0
0.643442 0.415244 0
0.703609 0.409766 0
0.761883 0.403861 0
0.817792 0.39765 0
0.870817 0.391196 0
0.920516 0.384649 0
0.966491 0.378119 0
1 0.37174 0
1 0.365637 0
1 0.359884 0
1 0.354574 0
1 0.349737 0
1 0.345418 0
1 0.341573 0
1 0.338231 0
1 0.335332 0
1 0.333928 0
0 0.49839 0
0 0.49839 0
0 0.49839 0
0 0.497963 0
0 0.497261 0
0 0.496422 0
0 0.495415 0
0 0.494209 0
0 0.492775 0
0.115206 0.491066 0
0.21297 0.489052 0
0.292897 0.486702 0
0.365545 0.483955 0
0.434424 0.480812 0
0.501015 0.477226 0
0.565881 0.473213 0
0.629145 0.468757 0
0.690639 0.463905 0
0.749996 0.458701 0
0.80679 0.453239 0
0.860563 0.447578 0
0.910872 0.441855 0
0.957366 0.436179 0
0.999786 0.43064 0
1 0.425361 0
1 0.420417 0
1 0.415854 0
1 0.411719 0
1 0.408026 0
1 0.404776 0
1 0.401938 0
1 0.399481 0
1 0.398306 0
0 0.549264 0
0 0.549264 0
0 0.549264 0
0 0.548882 0
0 0.548241 0
0 0.547494 0
0 0.546578 0
0 0.545495 0
0 0.544198 0
0.0289921 0.542657 0
0.161883 0.540825 0
0.25594 0.538705 0
0.33611 0.536248 0
0.409842 0.53341 0
0.47985 0.53019 0
0.547311 0.526589 0
0.612573 0.522591 0
0.675669 0.518257 0
0.736324 0.513619 0
0.794171 0.508736 0
0.848814 0.503716 0
0.89984 0.49865 0
0.946929 0.493629 0
0.989853 0.488746 0
1 0.484108 0
1 0.479759 0
1 0.475776 0
1 0.47216 0
1 0.46894 0
1 0.466117 0
1 0.463645 0
1 0.461524 0
1 0.460502 0
0 0.600732 0
0 0.600732 0
0 0.600732 0
0 0.600381 0
0 0.599802 0
0 0.599115 0
0 0.598291 0
0 0.597299 0
0 0.596109 0
0 0.594705 0
0.0842908 0.593057 0
0.20827 0.591134 0
0.30016 0.588891 0
0.380606 0.586328 0
0.455116 0.583413 0
0.525811 0.580148 0
0.593545 0.576547 0
0.658564 0.572625 0
0.72076 0.568444 0
0.779858 0.56405 0
0.835523 0.559548 0
0.887388 0.555001 0
0.935164 0.5505 0
0.978653 0.546151 0
1 0.542 0
1 0.53814 0
1 0.5346 0
1 0.531395 0
1 0.528542 0
1 0.52604 0
1 0.523857 0
1 0.521981 0
1 0.52108 0
0 0.652354 0
0 0.652354 0
0 0.652354 0
0 0.652018 0
0 0.651499 0
0 0.650858 0
0 0.650111 0
0 0.649195 0
0 0.648112 0
0 0.64683 0
0 0.645319 0
0.142458 0.643549 0
0.255482 0.641505 0
0.3458 0.63917 0
0.426322 0.6365 0
0.501137 0.633524 0
0.571893 0.630243 0
0.639231 0.626673 0
0.703243 0.622873 0
0.763806 0.618891 0
0.820645 0.614801 0
0.873487 0.610681 0
0.922057 0.606607 0
0.966201 0.602686 0
1 0.598947 0
1 0.595468 0
1 0.592279 0
1 0.58941 0
1 0.586847 0
1 0.584604 0
1 0.58265 0
1 0.580957 0
1 0.580163 0
0 0.703578 0
0 0.703578 0
0 0.703578 0
0 0.703288 0
0 0.7028 0
0 0.70222 0
0 0.701518 0
0 0.700679 0
0 0.699672 0
0 0.698497 0
0 0.697108 0
0.0365301 0.695476 0
0.197879 0.693599 0
0.304051 0.691432 0
0.392905 0.688991 0
0.47303 0.686259 0
0.547539 0.683238 0
0.617655 0.679973 0
0.683818 0.676478 0
0.746075 0.672831 0
0.804273 0.669093 0
0.858198 0.665324 0
0.907668 0.661616 0
0.952544 0.65803 0
0.992813 0.654627 0
1 0.651469 0
1 0.648569 0
1 0.645945 0
1 0.643626 0
1 0.641596 0
1 0.639826 0
1 0.6383 0
1 0.637568 0
0 0.753857 0
0 0.753857 0
0 0.753857 0
0 0.753582 0
0 0.753124 0
0 0.75259 0
0 0.751934 0
0 0.751156 0
0 0.75024 0
0 0.749142 0
0 0.747845 0
0 0.746334 0
0.115923 0.744595 0
0.253071 0.742596 0
0.354131 0.740322 0
0.44126 0.737804 0
0.520409 0.735012 0
0.593866 0.731991 0
0.662547 0.728771 0
0.726741 0.725399 0
0.786496 0.72195 0
0.841657 0.718471 0
0.892134 0.715053 0
0.937835 0.711757 0
0.978775 0.708629 0
1 0.70573 0
1 0.703059 0
1 0.700664 0
1 0.698543 0
1 0.696666 0
1 0.695048 0
1 0.69366 0
1 0.692988 0
0 0.802579 0
0 0.802579 0
0 0.802579 0
0 0.802319 0
0 0.801892 0
0 0.801389 0
0 0.800778 0
0 0.800061 0
0 0.799191 0
0 0.798169 0
0 0.796963 0
0 0.79556 0
0 0.793927 0
0.188037 0.792065 0
0.308949 0.789944 0
0.4056 0.787594 0
0.490562 0.785 0
0.568017 0.782177 0
0.639612 0.779187 0
0.70605 0.776043 0
0.767529 0.772839 0
0.824079 0.769619 0
0.875654 0.766445 0
0.922255 0.763394 0
0.963928 0.760494 0
1 0.757794 0
1 0.755337 0
1 0.753109 0
1 0.751141 0
1 0.749416 0
1 0.747921 0
1 0.746624 0
1 0.746014 0
0 0.849165 0
0 0.849165 0
0 0.849165 0
0 0.84892 0
0 0.848524 0
0 0.848051 0
0 0.847471 0
0 0.846799 0
0 0.845975 0
0 0.845014 0
0 0.843885 0
0 0.842557 0
0 0.841031 0
0.0940719 0.839277 0
0.255467 0.837308 0
0.365713 0.835081 0
0.458091 0.832654 0
0.540307 0.830014 0
0.61529 0.827207 0
0.68423 0.824262 0
0.747646 0.821271 0
0.805707 0.81825 0
0.858488 0.81529 0
0.906065 0.812421 0
0.948516 0.80972 0
0.986038 0.807202 0
1 0.804898 0
1 0.802823 0
1 0.800992 0
1 0.799374 0
1 0.797986 0
1 0.79678 0
1 0.796201 0
0 0.893095 0
0 0.893095 0
0 0.893095 0
0 0.892866 0
0 0.892485 0
0 0.892042 0
0 0.891493 0
0 0.890852 0
0 0.890089 0
0 0.889174 0
0 0.888106 0
0 0.886854 0
0 0.885405 0
0 0.883757 0
0.18967 0.88188 0
0.321141 0.879789 0
0.423117 0.877485 0
0.51107 0.874998 0
0.589914 0.872343 0
0.661662 0.869581 0
0.727169 0.866743 0
0.786877 0.863905 0
0.84094 0.861112 0
0.88954 0.858412 0
0.93283 0.855863 0
0.971023 0.853498 0
1 0.851331 0
1 0.849393 0
1 0.847654 0
1 0.846143 0
1 0.844831 0
1 0.843702 0
1 0.843168 0
0 0.933959 0
0 0.933959 0
0 0.933959 0
0 0.93373 0
0 0.933379 0
0 0.932952 0
0 0.932433 0
0 0.931823 0
0 0.93109 0
0 0.93022 0
0 0.929198 0
0 0.928023 0
0 0.926635 0
0 0.925063 0
0.0991226 0.923293 0
0.270985 0.921294 0
0.385809 0.919112 0
0.480659 0.916747 0
0.563897 0.914229 0
0.638712 0.911604 0
0.706493 0.908904 0
0.767926 0.906218 0
0.823362 0.903563 0
0.87303 0.900999 0
0.917159 0.898589 0
0.956054 0.896345 0
0.990021 0.894301 0
1 0.892454 0
1 0.890822 0
1 0.889387 0
1 0.888136 0
1 0.887068 0
1 0.886564 0
0 0.971435 0
0 0.971435 0
0 0.971435 0
0 0.971222 0
0 0.970886 0
0 0.970474 0
0 0.969985 0
0 0.96939 0
0 0.968688 0
0 0.967865 0
0 0.966888 0
0 0.965743 0
0 0.964431 0
0 0.962936 0
0 0.961227 0
0.213336 0.959319 0
0.346334 0.957229 0
0.44947 0.954971 0
0.537652 0.95256 0
0.615808 0.950057 0
0.686 0.947478 0
0.749233 0.944915 0
0.806058 0.942382 0
0.856825 0.939941 0
0.901839 0.937636 0
0.941421 0.935485 0
0.975952 0.933532 0
1 0.931777 0
1 0.93022 0
1 0.928847 0
1 0.927657 0
1 0.92665 0
1 0.926162 0
0 1 0
0 1 0
0 1 0
0 1 0
0 1 0
0 1 0
0 1 0
0 1 0
0 1 0
0 1 0
0 1 0
0 0.999893 0
0 0.998627 0
0 0.997177 0
0 0.995529 0
0.143343 0.993698 0
0.304723 0.991699 0
0.417929 0.989517 0
0.51165 0.987198 0
0.593362 0.984787 0
0.666056 0.98233 0
0.731136 0.979843 0
0.789364 0.977417 0
0.84123 0.975082 0
0.887114 0.972869 0
0.927398 0.97081 0
0.962478 0.968933 0
0.992798 0.967239 0
1 0.965743 0
1 0.964431 0
1 0.963302 0
1 0.962325 0
1 0.961852 0
0 1 0
0 1 0
0 1 0
0 1 0
0 1 0
0 1 0
0 1 0
0 1 0
0 1 0
0 1 0
0 1 0
0 1 0
0 1 0
0 1 0
0 1 0
0.0467079 1 0
0.260838 1 0
0.386465 1 0
0.48629 1 0
0.57174 1 0
0.646998 1 0
0.713939 1 0
0.773571 1 0
0.826505 1 0
0.873228 1 0
0.914183 1 0
0.949813 1 0
0.98056 0.998856 0
1 0.997406 0
1 0.996139 0
1 0.995041 0
1 0.99411 0
1 0.993652 0
0 1 0
0 1 0
0 1 0
0 1 0
0 1 0
0 1 0
0 1 0
0 1 0
0 1 0
0 1 0
0 1 0
0 1 0
0 1 0
0 1 0
0 1 0
0 1 0
0.214191 1 0
0.355444 1 0
0.461952 1 0
0.551293 1 0
0.629114 1 0
0.697871 1 0
0.758862 1 0
0.812833 1 0
0.86038 1 0
0.901961 1 0
0.938094 1 0
0.969268 1 0
0.995956 1 0
1 1 0
1 1 0
1 1 0
1 1 0
0 1 0
0 1 0
0 1 0
0 1 0
0 1 0
0 1 0
0 1 0
0 1 0
0 1 0
