MEDT/Pirringer/Unterricht/2025-02-26/Korrektur und Grading FootageFotos-20250226T115430Z-001/Korrektur und Grading FootageFotos/Bounce Color True Basic Log Conversion LUTs/BMPCC 6K Gen4 BMDFilm to Rec.709 LUT 33x33.cube
TITLE "Generated by Resolve"
LUT_3D_SIZE 9
0 0 0
0.0882887 0 0
0.286229 0 0
0.487648 0 0
0.706157 0 0
0.917067 0 0
1 0 0
1 0 0
1 0 0
0 0.075639 0
0.0588083 0.0707866 0
0.274372 0.0515145 0
0.480629 0.0142214 0
0.701411 0 0
0.913497 0 0
1 0 0
1 0 0
1 0 0
0 0.260487 0
0 0.258396 0
0.222004 0.249912 0
0.451759 0.232746 0
0.682261 0.201129 0
0.899214 0.150942 0
1 0.0837568 0
1 0.0209812 0
1 0 0
0 0.448432 0
0 0.447181 0
0.066331 0.442176 0
0.389822 0.432334 0
0.643442 0.415244 0
0.870817 0.391196 0
1 0.365637 0
1 0.345418 0
1 0.333928 0
0 0.652354 0
0 0.651499 0
0 0.648112 0
0.255482 0.641505 0
0.571893 0.630243 0
0.820645 0.614801 0
1 0.598947 0
1 0.586847 0
1 0.580163 0
0 0.849165 0
0 0.848524 0
0 0.845975 0
0 0.841031 0
0.458091 0.832654 0
0.747646 0.821271 0
0.948516 0.80972 0
1 0.800992 0
1 0.796201 0
0 1 0
0 1 0
0 1 0
0 0.998627 0
0.304723 0.991699 0
0.666056 0.98233 0
0.887114 0.972869 0
1 0.965743 0
1 0.961852 0
0 1 0
0 1 0
0 1 0
0 1 0
0.105715 1 0
0.597543 1 0
0.838132 1 0
0.977096 1 0
1 1 0
0 1 0
0 1 0
0 1 0
0 1 0
0 1 0
0.556603 1 0
0.810147 1 0
0.953582 1 0
1 1 0
0 0 0.073167
0.0858167 0 0.0702525
0.285222 0 0.0586404
0.487037 0 0.0361639
0.705745 0 0
0.916762 0 0
1 0 0
1 0 0
1 0 0
0 0.0610971 0.0591592
0.0562295 0.0562295 0.0562295
0.27332 0.0369726 0.0446326
0.480018 0 0.0221561
0.700999 0 0
0.913191 0 0
1 0 0
1 0 0
1 0 0
0 0.254154 0.00360113
0 0.252018 0.000671397
0.220722 0.243336 0
0.451102 0.225742 0
0.681834 0.193179 0
0.898894 0.140932 0
1 0.068986 0
1 0.00643931 0
1 0 0
0 0.444678 0
0 0.443412 0
0.0637675 0.438361 0
0.389059 0.428428 0
0.642985 0.411185 0
0.870497 0.386892 0
1 0.361028 0
1 0.340551 0
1 0.328908 0
0 0.64979 0
0 0.648951 0
0 0.645548 0
0.254353 0.638911 0
0.571389 0.627588 0
0.820294 0.612085 0
1 0.596155 0
1 0.583993 0
1 0.577279 0
0 0.847242 0
0 0.846601 0
0 0.844053 0
0 0.839094 0
0.457435 0.830686 0
0.74725 0.819272 0
0.948211 0.807691 0
1 0.798947 0
1 0.794156 0
0 1 0
0 1 0
0 1 0
0 0.997024 0
0.303746 0.990082 0
0.665614 0.980697 0
0.886793 0.971206 0
1 0.96408 0
1 0.960189 0
0 1 0
0 1 0
0 1 0
0 1 0
0.103487 1 0
0.597055 1 0
0.837781 1 0
0.976806 1 0
1 1 0
0 1 0
0 1 0
0 1 0
0 1 0
0 1 0
0.556085 1 0
0.809796 1 0
0.953292 1 0
1 1 0
0 0 0.255177
0.0754406 0 0.253895
0.281147 0 0.248722
0.484611 0 0.238468
0.704097 0 0.220295
0.915526 0 0.193744
1 0 0.163882
1 0 0.138613
1 0 0.123384
0 0.00341802 0.248966
0.0460365 0 0.247654
0.269078 0 0.242374
0.477562 0 0.231861
0.699336 0 0.213214
0.911955 0 0.185855
1 0 0.154849
1 0 0.128328
1 0 0.1122
0 0.227558 0.222873
0 0.225193 0.221424
0.21561 0.21561 0.21561
0.448478 0.195956 0.203952
0.680125 0.158724 0.183017
0.897642 0.0948959 0.151553
1 0.0113069 0.114336
1 0 0.0800946
1 0 0.059617
0 0.429435 0.163165
0 0.428122 0.161303
0.0535592 0.422889 0.15375
0.386023 0.412589 0.138293
0.641169 0.394659 0.109071
0.869184 0.369314 0.0608072
1 0.342184 0.0102083
1 0.320562 0
1 0.308217 0
0 0.639582 0.00534066
0 0.638712 0.00241093
0 0.635264 0
0.249836 0.628504 0
0.569329 0.616983 0
0.818906 0.60119 0
1 0.584955 0
1 0.572534 0
1 0.565682 0
0 0.839597 0
0 0.838941 0
0 0.836378 0
0 0.831373 0
0.454856 0.822873 0
0.745708 0.811337 0
0.947036 0.799634 0
1 0.790784 0
1 0.785931 0
0 0.997436 0
0 0.996887 0
0 0.994766 0
0 0.990631 0
0.299901 0.983642 0
0.663859 0.974197 0
0.885512 0.964645 0
1 0.957458 0
1 0.953521 0
0 1 0
0 1 0
0 1 0
0 1 0
0.094377 1 0
0.595087 1 0
0.836423 1 0
0.975647 1 0
1 1 0
0 1 0
0 1 0
0 1 0
0 1 0
0 1 0
0.553964 1 0
0.808377 1 0
0.952102 1 0
1 1 0
0 0 0.440345
0.0556802 0 0.439582
0.273091 0 0.436515
0.479881 0 0.430533
0.700908 0 0.420264
0.91313 0 0.406119
1 0 0.391485
1 0 0.380224
1 0 0.373968
0 0 0.436652
0.0262913 0 0.435874
0.2607 0 0.432792
0.472755 0 0.426749
0.696132 0 0.416403
0.909545 0 0.402121
1 0 0.387335
1 0 0.375952
1 0 0.369635
0 0.166613 0.421698
0 0.163561 0.420905
0.205386 0.151019 0.4177
0.443366 0.124254 0.411444
0.676814 0.0676127 0.400702
0.895186 0 0.385855
1 0 0.370443
1 0 0.358541
1 0 0.351904
0 0.398276 0.39115
0 0.396872 0.39028
0.033814 0.391226 0.386847
0.380087 0.380087 0.380087
0.637644 0.360586 0.36846
0.866651 0.332769 0.3523
1 0.302586 0.335409
1 0.278141 0.322286
1 0.264012 0.314946
0 0.619287 0.333745
0 0.618387 0.332738
0 0.614816 0.328725
0.240864 0.607828 0.320806
0.565332 0.595895 0.307073
0.81619 0.579477 0.287709
1 0.562585 0.267124
1 0.549661 0.250797
1 0.542489 0.241535
0 0.824567 0.23772
0 0.823911 0.236362
0 0.821286 0.230854
0 0.816175 0.219883
0.449805 0.807507 0.20032
0.742702 0.795727 0.171328
0.944717 0.783764 0.137972
1 0.774731 0.108782
1 0.769757 0.0905623
0 0.985031 0.0828412
0 0.984497 0.0796674
0 0.98233 0.0680552
0 0.978149 0.045594
0.292332 0.971054 0.00781262
0.660471 0.961471 0
0.883024 0.951766 0
1 0.944472 0
1 0.94049 0
0 1 0
0 1 0
0 1 0
0 1 0
0.0749523 1 0
0.591272 1 0
0.833768 1 0
0.973419 1 0
1 1 0
0 1 0
0 1 0
0 1 0
0 1 0
0 1 0
0.549844 1 0
0.805631 1 0
0.949813 1 0
1 1 0
0 0 0.641245
0.0224918 0 0.640711
0.259068 0 0.638651
0.471824 0 0.634607
0.695506 0 0.627771
0.909072 0 0.618463
1 0 0.609033
1 0 0.601892
1 0 0.597986
0 0 0.638743
0 0 0.638209
0.246052 0 0.636133
0.464576 0 0.632074
0.690684 0 0.625208
0.905486 0 0.615869
1 0 0.606394
1 0 0.599222
1 0 0.595285
0 0.00396735 0.628717
0 0 0.628183
0.187213 0 0.626062
0.434623 0 0.621942
0.671199 0 0.614954
0.891051 0 0.605447
1 0 0.595789
1 0 0.588495
1 0 0.584482
0 0.339712 0.60882
0 0.338064 0.60827
0.00062562 0.331472 0.606073
0.369894 0.318349 0.601816
0.631662 0.295048 0.594568
0.862364 0.260914 0.58471
1 0.222293 0.574685
1 0.189334 0.567102
1 0.169329 0.562936
0 0.583505 0.573724
0 0.582544 0.573129
0 0.578744 0.570794
0.225116 0.571298 0.566262
0.558541 0.558541 0.558541
0.811612 0.540948 0.548012
0.998657 0.522759 0.53727
1 0.508782 0.529137
1 0.501015 0.524651
0 0.798596 0.52285
0 0.797909 0.522194
0 0.795193 0.519631
0 0.789899 0.514626
0.441199 0.780911 0.506081
0.737636 0.768704 0.494408
0.940826 0.756268 0.482444
1 0.746868 0.47335
1 0.741711 0.468315
0 0.963806 0.466346
0 0.963241 0.465614
0 0.961028 0.46273
0 0.956741 0.457084
0.279179 0.949477 0.44744
0.654704 0.939635 0.434165
0.878828 0.929686 0.420493
1 0.92221 0.41001
1 0.918105 0.404211
0 1 0.419272
0 1 0.418463
0 1 0.415244
0 1 0.408957
0.0417639 1 0.398154
0.584802 1 0.3832
0.829297 1 0.367681
0.96965 1 0.355688
1 1 0.349004
0 1 0.391348
0 1 0.390478
0 1 0.387045
0 1 0.380285
0 1 0.368673
0.542855 1 0.352514
0.800992 1 0.335637
0.945937 1 0.32253
1 1 0.31519
0 0 0.835142
0 0 0.834745
0.239139 0 0.833188
0.460807 0 0.830167
0.688197 0 0.825055
0.903624 0 0.818143
1 0 0.81117
1 0 0.805936
1 0 0.803082
0 0 0.833265
0 0 0.832868
0.225132 0 0.831312
0.453376 0 0.828275
0.683314 0 0.823148
0.900008 0 0.81622
1 0 0.809232
1 0 0.803983
1 0 0.801114
0 0 0.825757
0 0 0.82536
0.160357 0 0.823789
0.422644 0 0.820722
0.6636 0 0.815534
0.885481 0 0.808545
1 0 0.80148
1 0 0.796185
1 0 0.793286
0 0.241581 0.811017
0 0.239338 0.810605
0 0.230259 0.809003
0.355779 0.211734 0.805875
0.62356 0.177127 0.800595
0.85658 0.120089 0.793454
1 0.0410315 0.786236
1 0 0.780819
1 0 0.777859
0 0.531609 0.78555
0 0.530556 0.785122
0 0.52636 0.783459
0.202396 0.51812 0.780224
0.549294 0.503975 0.774746
0.805432 0.484352 0.767346
0.993744 0.463905 0.759869
1 0.448066 0.754253
1 0.439216 0.751171
0 0.762295 0.749935
0 0.761563 0.749493
0 0.758709 0.747738
0 0.75314 0.744335
0.429404 0.743679 0.738582
0.73077 0.73077 0.73077
0.935576 0.717647 0.722896
1 0.707683 0.71696
1 0.702205 0.71371
0 0.934493 0.712428
0 0.933928 0.711971
0 0.93164 0.710124
0 0.927199 0.706523
0.260609 0.919661 0.70042
0.646906 0.909468 0.692149
0.873167 0.899153 0.683787
1 0.891386 0.677485
1 0.887129 0.674037
0 1 0.683055
0 1 0.682567
0 1 0.680629
0 1 0.67686
0 1 0.670466
0.575998 1 0.661814
0.82327 1 0.653025
0.964584 1 0.646403
1 1 0.642786
0 1 0.666514
0 1 0.66601
0 1 0.664012
0 1 0.660151
0 1 0.65359
0.533333 1 0.644678
0.79472 1 0.63566
0.940719 1 0.62884
1 1 0.625101
0 0 0.989029
0 0 0.988708
0.21767 0 0.987411
0.449531 0 0.984909
0.680812 0 0.980667
0.898146 0 0.97496
1 0 0.969223
1 0 0.96492
1 0 0.962585
0 0 0.987472
0 0 0.987137
0.202441 0 0.985855
0.441917 0 0.983337
0.675868 0 0.979095
0.894499 0 0.973373
1 0 0.967636
1 0 0.963317
1 0 0.960967
0 0 0.981247
0 0 0.980926
0.129625 0 0.979614
0.410315 0 0.977096
0.655924 0 0.972824
0.879866 0 0.967056
1 0 0.961273
1 0 0.956939
1 0 0.954574
0 0.0819562 0.9691
0 0.0768444 0.968765
0 0.0575875 0.967437
0.341131 0.0202945 0.964874
0.615335 0 0.96054
0.850767 0 0.954711
1 0 0.948837
1 0 0.944427
1 0 0.942031
0 0.47393 0.948257
0 0.47274 0.947921
0 0.468025 0.946563
0.177386 0.458717 0.943938
0.539895 0.442649 0.939498
0.799207 0.420157 0.933516
0.988815 0.396429 0.927489
1 0.377798 0.922972
1 0.367285 0.920516
0 0.724041 0.919524
0 0.723278 0.919173
0 0.720256 0.917769
0 0.714366 0.915053
0.417273 0.704326 0.91046
0.723857 0.690639 0.904265
0.930297 0.676677 0.898024
1 0.666056 0.893339
1 0.660212 0.890791
0 0.904173 0.889784
0 0.903578 0.889418
0 0.901198 0.887968
0 0.89659 0.885145
0.240803 0.888777 0.880385
0.639002 0.878187 0.873945
0.86746 0.86746 0.86746
1 0.859388 0.862608
1 0.854948 0.859953
0 1 0.866896
0 1 0.866514
0 1 0.865019
0 1 0.862119
0 1 0.857206
0.567056 0.993408 0.850584
0.817182 0.98407 0.843915
0.959472 0.977035 0.838895
1 0.973205 0.836164
0 1 0.85417
0 1 0.853788
0 1 0.852277
0 1 0.849317
0 1 0.844327
0.523644 1 0.837598
0.788403 1 0.830808
0.93547 1 0.825711
1 1 0.822919
0 0 1
0 0 1
0.200443 0 1
0.44094 0 1
0.675242 0 1
0.894026 0 1
1 0 1
1 0 1
1 0 1
0 0 1
0 0 1
0.18407 0 1
0.433173 0 1
0.670268 0 1
0.890364 0 1
1 0 1
1 0 1
1 0 1
0 0 1
0 0 1
0.102937 0 1
0.400885 0 1
0.650141 0 1
0.875669 0 1
1 0 1
1 0 1
1 0 1
0 0 1
0 0 1
0 0 1
0.329809 0 1
0.60914 0 1
0.846403 0 1
1 0 1
1 0 1
1 0 1
0 0.425834 1
0 0.424521 1
0 0.419242 1
0.156786 0.40885 1
0.532784 0.390753 1
0.794537 0.365148 1
0.985122 0.337697 1
1 0.315785 1
1 0.303273 1
0 0.694057 1
0 0.693263 1
0 0.690105 1
0 0.683925 1
0.408011 0.673411 1
0.718654 0.659037 1
0.926345 0.644327 1
1 0.633143 1
1 0.626978 1
0 0.880827 1
0 0.880217 0.999741
0 0.877775 0.998474
0 0.87303 0.995987
0.225086 0.864973 0.991806
0.633051 0.854063 0.986175
0.863203 0.843 0.980514
0.998352 0.834653 0.976272
1 0.830091 0.973953
0 0.995712 0.980011
0 0.995178 0.97969
0 0.993042 0.978378
0 0.988907 0.975845
0 0.981903 0.971572
0.560296 0.972427 0.965805
0.812634 0.96286 0.960006
0.955657 0.955657 0.955657
1 0.95172 0.953292
0 1 0.968917
0 1 0.968597
0 1 0.967269
0 1 0.964706
0 1 0.960372
0.516304 1 0.954528
0.783658 1 0.948653
0.931548 1 0.944244
1 1 0.941848
0 0 1
0 0 1
0.190555 0 1
0.436194 0 1
0.672206 0 1
0.891798 0 1
1 0 1
1 0 1
1 0 1
0 0 1
0 0 1
0.173449 0 1
0.428336 0 1
0.667201 0 1
0.888121 0 1
1 0 1
1 0 1
1 0 1
0 0 1
0 0 1
0.0864271 0 1
0.395682 0 1
0.646967 0 1
0.873365 0 1
1 0 1
1 0 1
1 0 1
0 0 1
0 0 1
0 0 1
0.323507 0 1
0.605753 0 1
0.844022 0 1
1 0 1
1 0 1
1 0 1
0 0.397299 1
0 0.39588 1
0 0.390234 1
0.144686 0.379049 1
0.528878 0.359503 1
0.791989 0.331594 1
0.983108 0.301289 1
1 0.276753 1
1 0.262562 1
0 0.67718 1
0 0.676356 1
0 0.673106 1
0 0.666758 1
0.402884 0.655955 1
0.715801 0.641169 1
0.924193 0.626017 1
1 0.614481 1
1 0.608118 1
0 0.867857 1
0 0.867231 1
0 0.864744 1
0 0.859922 1
0.216129 0.851728 1
0.629801 0.840635 1
0.860868 0.829374 1
0.996368 0.820874 1
1 0.81622 1
0 0.984405 1
0 0.983856 1
0 0.981704 1
0 0.977508 1
0 0.970413 1
0.556603 0.960815 1
0.810132 0.95111 1
0.953582 0.943816 1
1 0.939818 1
0 1 1
0 1 1
0 1 1
0 1 1
0 1 1
0.512261 1 1
0.781064 1 1
0.929412 1 1
1 1 1
