MEDT/Pirringer/Unterricht/2025-02-26/Korrektur und Grading FootageFotos-20250226T115430Z-001/Korrektur und Grading FootageFotos/Bounce Color True Basic Log Conversion LUTs/BMPCC 6K Gen5 BMDFilm to Rec.709 LUT 33x33.cube
TITLE "Generated by Resolve"
LUT_3D_SIZE 33
0 0 0
0 0 0
0 0 0
0 0 0
0.00393683 0 0
0.0426642 0 0
0.0908827 0 0
0.142336 0 0
0.194888 0 0
0.250736 0 0
0.311849 0 0
0.379263 0 0
0.452705 0 0
0.531273 0 0
0.612604 0 0
0.693523 0 0
0.771069 0 0
0.842115 0 0
0.90605 0 0
0.963333 0 0
1 0 0
1 0 0
1 0 0
1 0 0
1 0 0
1 0 0
1 0 0
1 0 0
1 0 0
1 0 0
1 0 0
1 0 0
1 0 0
0 0 0
0 0 0
0 0 0
0 0 0
0.00393683 0 0
0.0421759 0 0
0.0901198 0 0
0.141619 0 0
0.194278 0 0
0.250507 0 0
0.311711 0 0
0.379065 0 0
0.452766 0 0
0.531838 0 0
0.61387 0 0
0.695735 0 0
0.773495 0 0
0.845136 0 0
0.909926 0 0
0.968124 0 0
1 0 0
1 0 0
1 0 0
1 0 0
1 0 0
1 0 0
1 0 0
1 0 0
1 0 0
1 0 0
1 0 0
1 0 0
1 0 0
0 0 0
0 0 0
0 0 0
0 0 0
0.00370794 0 0
0.0420539 0 0
0.0901503 0 0
0.141772 0 0
0.194797 0 0
0.251133 0 0
0.312871 0 0
0.380911 0 0
0.455222 0 0
0.534951 0 0
0.618265 0 0
0.701167 0 0
0.780224 0 0
0.852628 0 0
0.917739 0 0
0.976379 0 0
1 0 0
1 0 0
1 0 0
1 0 0
1 0 0
1 0 0
1 0 0
1 0 0
1 0 0
1 0 0
1 0 0
1 0 0
1 0 0
0 0 0
0 0 0
0 0 0
0 0 0
0.00376898 0 0
0.0423438 0 0
0.0910811 0 0
0.143343 0 0
0.196674 0 0
0.253437 0 0
0.315785 0 0
0.384863 0 0
0.460838 0 0
0.542275 0 0
0.626383 0 0
0.710201 0 0
0.790265 0 0
0.863676 0 0
0.929412 0 0
0.987869 0 0
1 0 0
1 0 0
1 0 0
1 0 0
1 0 0
1 0 0
1 0 0
1 0 0
1 0 0
1 0 0
1 0 0
1 0 0
1 0 0
0 0.00218204 0
0 0.00215152 0
0 0.00241093 0
0 0.00282292 0
0.00227359 0.00273136 0
0.0418402 0 0
0.0919966 0 0
0.144762 0 0
0.199084 0 0
0.257099 0 0
0.320577 0 0
0.390753 0 0
0.468025 0 0
0.550866 0 0
0.636713 0 0
0.721706 0 0
0.802319 0 0
0.876387 0 0
0.942123 0 0
1 0 0
1 0 0
1 0 0
1 0 0
1 0 0
1 0 0
1 0 0
1 0 0
1 0 0
1 0 0
1 0 0
1 0 0
1 0 0
1 0 0
0 0.0322118 0
0 0.0327306 0
0 0.0336156 0
0 0.0345006 0
0 0.035523 0
0.0277867 0.0334325 0
0.0788434 0.0296483 0
0.137011 0.0235904 0
0.19469 0.0155489 0
0.255528 0.00505074 0
0.322179 0 0
0.394903 0 0
0.474022 0 0
0.558572 0 0
0.645823 0 0
0.732067 0 0
0.813947 0 0
0.887739 0 0
0.953292 0 0
1 0 0
1 0 0
1 0 0
1 0 0
1 0 0
1 0 0
1 0 0
1 0 0
1 0 0
1 0 0
1 0 0
1 0 0
1 0 0
1 0 0
0 0.0682078 0
0 0.0697795 0
0 0.0719005 0
0 0.0744793 0
0 0.0763409 0
0.00865187 0.075227 0
0.0601511 0.0724041 0
0.123934 0.0675212 0
0.18584 0.060029 0
0.249821 0.0499733 0
0.318441 0.0361791 0
0.393362 0.0183871 0
0.474678 0 0
0.561059 0 0
0.649866 0 0
0.738094 0 0
0.820859 0 0
0.895659 0 0
0.961501 0 0
1 0 0
1 0 0
1 0 0
1 0 0
1 0 0
1 0 0
1 0 0
1 0 0
1 0 0
1 0 0
1 0 0
1 0 0
1 0 0
1 0 0
0 0.113008 0
0 0.115312 0
0 0.118563 0
0 0.121889 0
0 0.12491 0
0 0.125383 0
0.0345769 0.123919 0
0.103349 0.120943 0
0.171771 0.115785 0
0.239612 0.107591 0
0.311192 0.0953689 0
0.388479 0.0774853 0
0.472023 0.0545205 0
0.560967 0.0269017 0
0.652049 0 0
0.741146 0 0
0.824842 0 0
0.900435 0 0
0.966934 0 0
1 0 0
1 0 0
1 0 0
1 0 0
1 0 0
1 0 0
1 0 0
1 0 0
1 0 0
1 0 0
1 0 0
1 0 0
1 0 0
1 0 0
0 0.159426 0
0 0.162966 0
0 0.166537 0
0 0.170367 0
0 0.174075 0
0 0.175982 0
0.000122072 0.176043 0
0.0699474 0.174472 0
0.149294 0.170886 0
0.223285 0.16527 0
0.299275 0.156802 0
0.379904 0.144518 0
0.466194 0.127626 0
0.557458 0.104936 0
0.650523 0.0738384 0
0.74165 0.0383459 0
0.826673 0.00227359 0
0.902953 0 0
0.970367 0 0
1 0 0
1 0 0
1 0 0
1 0 0
1 0 0
1 0 0
1 0 0
1 0 0
1 0 0
1 0 0
1 0 0
1 0 0
1 0 0
1 0.0089723 0
0 0.208698 0
0 0.212909 0
0 0.217456 0
0 0.222049 0
0 0.226352 0
0 0.229755 0
0 0.230991 0
0.0231022 0.230716 0
0.114275 0.228626 0
0.198749 0.224643 0
0.280949 0.218448 0
0.366751 0.209995 0
0.456641 0.197635 0
0.550408 0.181292 0
0.645655 0.160922 0
0.738735 0.136736 0
0.825559 0.109148 0
0.903609 0.0790723 0
0.971023 0.049424 0
1 0.0238346 0
1 0.00317388 0
1 0 0
1 0 0
1 0 0
1 0 0
1 0 0
1 0.009308 0
1 0.0307164 0
1 0.0597543 0
1 0.0944076 0
1 0.124437 0
1 0.151476 0
1 0.176287 0
0 0.262257 0
0 0.267155 0
0 0.272602 0
0 0.27834 0
0 0.284184 0
0 0.288243 0
0 0.290486 0
0 0.291508 0
0.053666 0.291051 0
0.160739 0.288746 0
0.254032 0.284733 0
0.345876 0.277958 0
0.440635 0.268681 0
0.538399 0.256596 0
0.636683 0.241749 0
0.731929 0.224842 0
0.820981 0.207752 0
0.899825 0.190646 0
0.968231 0.174899 0
1 0.160708 0
1 0.149035 0
1 0.142199 0
1 0.140063 0
1 0.142641 0
1 0.149737 0
1 0.160952 0
1 0.176089 0
1 0.194369 0
1 0.216159 0
1 0.2374 0
1 0.258198 0
1 0.27837 0
1 0.297917 0
0 0.32137 0
0 0.327306 0
0 0.333608 0
0 0.340795 0
0 0.347433 0
0 0.353033 0
0 0.356466 0
0 0.358557 0
0 0.35967 0
0.0958877 0.359182 0
0.212573 0.356512 0
0.315511 0.351553 0
0.417105 0.344335 0
0.519783 0.335012 0
0.6224 0.324239 0
0.720958 0.312139 0
0.81146 0.299565 0
0.891661 0.28806 0
0.961059 0.278355 0
1 0.270573 0
1 0.265385 0
1 0.263203 0
1 0.264042 0
1 0.26833 0
1 0.275776 0
1 0.286152 0
1 0.299763 0
1 0.31574 0
1 0.333745 0
1 0.352087 0
1 0.370474 0
1 0.388525 0
1 0.406882 0
0 0.386419 0
0 0.394049 0
0 0.401984 0
0 0.409751 0
0 0.417365 0
0 0.424231 0
0 0.429206 0
0 0.432959 0
0 0.435187 0
0 0.43563 0
0.144961 0.434394 0
0.270817 0.431205 0
0.383902 0.425895 0
0.493919 0.41883 0
0.60145 0.410513 0
0.70341 0.401175 0
0.796719 0.392111 0
0.878813 0.384146 0
0.949401 0.377813 0
1 0.373907 0
1 0.371283 0
1 0.371176 0
1 0.37377 0
1 0.379019 0
1 0.386831 0
1 0.39765 0
1 0.410208 0
1 0.424857 0
1 0.441398 0
1 0.458152 0
1 0.474891 0
1 0.49218 0
1 0.508385 0
0 0.458351 0
0 0.46714 0
0 0.476188 0
0 0.485466 0
0 0.494301 0
0 0.502113 0
0 0.508827 0
0 0.513603 0
0 0.516884 0
0 0.518456 0
0.015259 0.518242 0
0.202899 0.516289 0
0.337957 0.51313 0
0.459083 0.507607 0
0.573266 0.500786 0
0.679866 0.493431 0
0.776349 0.486519 0
0.860746 0.480858 0
0.93341 0.477501 0
0.994476 0.474876 0
1 0.473823 0
1 0.474876 0
1 0.478233 0
1 0.483909 0
1 0.492515 0
1 0.502266 0
1 0.514015 0
1 0.527474 0
1 0.542748 0
1 0.558297 0
1 0.574395 0
1 0.589227 0
1 0.603677 0
0 0.536614 0
0 0.546105 0
0 0.556054 0
0 0.566384 0
0 0.576471 0
0 0.586084 0
0 0.593103 0
0 0.598627 0
0 0.602762 0
0 0.605417 0
0 0.60621 0
0.0835431 0.605768 0
0.273472 0.602884 0
0.413275 0.598474 0
0.537636 0.592996 0
0.650568 0.587121 0
0.751125 0.581659 0
0.838682 0.578012 0
0.91252 0.575097 0
0.974807 0.573495 0
1 0.573312 0
1 0.574914 0
1 0.578927 0
1 0.584451 0
1 0.591684 0
1 0.600793 0
1 0.611719 0
1 0.623835 0
1 0.637842 0
1 0.651865 0
1 0.66569 0
1 0.679072 0
1 0.691752 0
0 0.618265 0
0 0.628931 0
0 0.639796 0
0 0.650752 0
0 0.662074 0
0 0.671687 0
0 0.6795 0
0 0.685634 0
0 0.690196 0
0 0.693706 0
0 0.695232 0
0 0.694743 0
0.180499 0.6925 0
0.356313 0.688731 0
0.49546 0.683909 0
0.616922 0.679179 0
0.722667 0.674754 0
0.812818 0.671183 0
0.888701 0.668833 0
0.952285 0.66746 0
1 0.667231 0
1 0.669062 0
1 0.672557 0
1 0.677348 0
1 0.683574 0
1 0.69131 0
1 0.700862 0
1 0.71194 0
1 0.724132 0
1 0.735988 0
1 0.747692 0
1 0.759228 0
1 0.770413 0
0 0.701381 0
0 0.712444 0
0 0.724239 0
0 0.735897 0
0 0.746685 0
0 0.756283 0
0 0.76408 0
0 0.770321 0
0 0.775372 0
0 0.778805 0
0 0.780133 0
0 0.779675 0
0.016846 0.777554 0
0.287388 0.774075 0
0.449104 0.76994 0
0.580896 0.765423 0
0.692088 0.760876 0
0.78555 0.757305 0
0.8636 0.754971 0
0.928664 0.753582 0
0.9823 0.753674 0
1 0.754376 0
1 0.756603 0
1 0.760479 0
1 0.765728 0
1 0.772274 0
1 0.780529 0
1 0.78938 0
1 0.799451 0
1 0.809827 0
1 0.82005 0
1 0.83003 0
1 0.840085 0
0 0.782788 0
0 0.793957 0
0 0.805402 0
0 0.816403 0
0 0.826841 0
0 0.836011 0
0 0.843275 0
0 0.849638 0
0 0.853849 0
0 0.856565 0
0 0.857664 0
0 0.857038 0
0 0.854826 0
0.205417 0.851637 0
0.400809 0.847089 0
0.544839 0.842298 0
0.662425 0.837781 0
0.759335 0.833982 0
0.839277 0.831144 0
0.905898 0.829694 0
0.960128 0.828702 0
1 0.828809 0
1 0.83006 0
1 0.832578 0
1 0.836469 0
1 0.842237 0
1 0.848844 0
1 0.856336 0
1 0.864775 0
1 0.87364 0
1 0.882475 0
1 0.891463 0
1 0.899611 0
0 0.85951 0
0 0.86981 0
0 0.880079 0
0 0.890105 0
0 0.899443 0
0 0.907515 0
0 0.914443 0
0 0.919402 0
0 0.922896 0
0 0.92488 0
0 0.925292 0
0 0.924239 0
0 0.92224 0
0.0960098 0.918395 0
0.352331 0.913573 0
0.510475 0.908415 0
0.634501 0.903639 0
0.734936 0.899657 0
0.817212 0.896895 0
0.884443 0.894255 0
0.9393 0.892409 0
0.982925 0.891752 0
1 0.892363 0
1 0.89453 0
1 0.897566 0
1 0.901717 0
1 0.907179 0
1 0.913512 0
1 0.920592 0
1 0.928298 0
1 0.935775 0
1 0.942962 0
1 0.949783 0
0 0.927962 0
0 0.936996 0
0 0.945922 0
0 0.95462 0
0 0.962646 0
0 0.969818 0
0 0.974914 0
0 0.978729 0
0 0.981353 0
0 0.982666 0
0 0.982803 0
0 0.981216 0
0 0.978241 0
0 0.974197 0
0.303761 0.969314 0
0.478218 0.964004 0
0.608835 0.959091 0
0.712398 0.954772 0
0.796063 0.951232 0
0.864591 0.948394 0
0.920333 0.946258 0
0.964523 0.945113 0
0.999054 0.945373 0
1 0.946715 0
1 0.948959 0
1 0.952193 0
1 0.956527 0
1 0.961685 0
1 0.967727 0
1 0.973968 0
1 0.979889 0
1 0.98558 0
1 0.991058 0
0 0.98677 0
0 0.994354 0
0 1 0
0 1 0
0 1 0
0 1 0
0 1 0
0 1 0
0 1 0
0 1 0
0 1 0
0 1 0
0 1 0
0 1 0
0.255436 1 0
0.448981 1 0
0.586053 1 0
0.692546 1 0
0.777844 0.996399 0
0.847425 0.993393 0
0.903899 0.991119 0
0.948821 0.990021 0
0.983536 0.989593 0
1 0.990173 0
1 0.991745 0
1 0.994202 0
1 0.997604 0
1 1 0
1 1 0
1 1 0
1 1 0
1 1 0
1 1 0
0 1 0
0 1 0
0 1 0
0 1 0
0 1 0
0 1 0
0 1 0
0 1 0
0 1 0
0 1 0
0 1 0
0 1 0
0 1 0
0 1 0
0.21651 1 0
0.427115 1 0
0.569177 1 0
0.67808 1 0
0.764508 1 0
0.834592 1 0
0.891539 1 0
0.936324 1 0
0.971115 1 0
0.997864 1 0
1 1 0
1 1 0
1 1 0
1 1 0
1 1 0
1 1 0
1 1 0
1 1 0
1 1 0
0 1 0
0 1 0
0 1 0
0 1 0
0 1 0
0 1 0
0 1 0
0 1 0
0 1 0
0 1 0
0 1 0
0 1 0
0 1 0
0 1 0
0.191928 1 0
0.415229 1 0
0.560189 1 0
0.670069 1 0
0.756725 1 0
0.826902 1 0
0.88304 1 0
0.927367 1 0
0.961883 1 0
0.988479 1 0
1 1 0
1 1 0
1 1 0
1 1 0
1 1 0
1 1 0
1 1 0
1 1 0
1 1 0
0 1 0
0 1 0
0 1 0
0 1 0
0 1 0
0 1 0
0 1 0
0 1 0
0 1 0
0 1 0
0 1 0
0 1 0
0 1 0
0 1 0
0.187701 1 0
0.414389 1 0
0.55935 1 0
0.668742 1 0
0.754376 1 0
0.823178 1 0
0.878462 1 0
0.92195 1 0
0.955734 1 0
0.981933 1 0
1 1 0
1 1 0
1 1 0
1 1 0
1 1 0
1 1 0
1 1 0
1 1 0
1 1 0
0 1 0
0 1 0
0 1 0
0 1 0
0 1 0
0 1 0
0 1 0
0 1 0
0 1 0
0 1 0
0 1 0
0 1 0
0 1 0
0 1 0
0.202396 1 0
0.422583 1 0
0.565591 1 0
0.672724 1 0
0.756191 1 0
0.823148 1 0
0.877012 1 0
0.919432 1 0
0.952514 1 0
0.977829 1 0
0.99733 1 0
1 1 0
1 1 0
1 1 0
1 1 0
1 1 0
1 1 0
1 1 0
1 1 0
0 1 0
0 1 0
0 1 0
0 1 0
0 1 0
0 1 0
0 1 0
0 1 0
0 1 0
0 1 0
0 1 0
0 1 0
0 1 0
0 1 0
0.232807 1 0
0.439826 1 0
0.577264 1 0
0.68098 1 0
0.761975 1 0
0.826688 1 0
0.878569 1 0
0.9196 1 0
0.951385 1 0
0.975906 1 0
0.994736 1 0
1 1 0
1 1 0
1 1 0
1 1 0
1 1 0
1 1 0
1 1 0
1 1 0
0 1 0
0 1 0
0 1 0
0 1 0
0 1 0
0 1 0
0 1 0
0 1 0
0 1 0
0 1 0
0 1 0
0 1 0
0 1 0
0 1 0
0.277821 1 0
0.464851 1 0
0.594644 1 0
0.693706 1 0
0.771313 1 0
0.833432 1 0
0.88333 1 0
0.922255 1 0
0.952544 1 0
0.976013 1 0
0.99411 1 0
1 1 0
1 1 0
1 1 0
1 1 0
1 1 0
1 1 0
1 1 0
1 1 0
0 1 0
0 1 0
0 1 0
0 1 0
0 1 0
0 1 0
0 1 0
0 1 0
0 1 0
