MEDT/Pirringer/Unterricht/2025-02-26/Korrektur und Grading FootageFotos-20250226T115430Z-001/Korrektur und Grading FootageFotos/Bounce Color True Basic Log Conversion LUTs/BMPCC 4K Gen5 BMDFilm to Rec.709 LUT 33x33.cube
TITLE "Generated by Resolve"
LUT_3D_SIZE 33
0 0 0
0 0 0
0 0 0
0 0 0
0.00430304 0 0
0.0466773 0 0
0.0986954 0 0
0.151461 0 0
0.204562 0 0
0.260182 0 0
0.320165 0 0
0.385367 0 0
0.455421 0 0
0.529473 0 0
0.605402 0 0
0.680598 0 0
0.75259 0 0
0.818845 0 0
0.878965 0 0
0.933486 0 0
0.982467 0 0
1 0 0
1 0 0
1 0 0
1 0 0
1 0 0
1 0 0
1 0 0
1 0 0
1 0 0
1 0 0
1 0 0
1 0 0
0 0 0
0 0 0
0 0 0
0 0 0
0.00430304 0 0
0.0461433 0 0
0.0979171 0 0
0.150713 0 0
0.203952 0 0
0.259968 0 0
0.320027 0 0
0.385168 0 0
0.455467 0 0
0.529992 0 0
0.606592 0 0
0.682643 0 0
0.754849 0 0
0.821668 0 0
0.882643 0 0
0.938094 0 0
0.987625 0 0
1 0 0
1 0 0
1 0 0
1 0 0
1 0 0
1 0 0
1 0 0
1 0 0
1 0 0
1 0 0
1 0 0
1 0 0
0 0 0
0 0 0
0 0 0
0 0 0
0.00404364 0 0
0.0460059 0 0
0.0979477 0 0
0.150881 0 0
0.204471 0 0
0.260594 0 0
0.321172 0 0
0.386954 0 0
0.457816 0 0
0.532906 0 0
0.610666 0 0
0.687678 0 0
0.761105 0 0
0.828687 0 0
0.890028 0 0
0.946029 0 0
0.996139 0 0
1 0 0
1 0 0
1 0 0
1 0 0
1 0 0
1 0 0
1 0 0
1 0 0
1 0 0
1 0 0
1 0 0
1 0 0
0 0 0
0 0 0
0 0 0
0 0 0
0.00411994 0 0
0.0463111 0 0
0.098909 0 0
0.152483 0 0
0.206363 0 0
0.262852 0 0
0.323995 0 0
0.390738 0 0
0.463127 0 0
0.539773 0 0
0.618235 0 0
0.696071 0 0
0.770443 0 0
0.839048 0 0
0.901122 0 0
0.957107 0 0
1 0 0
1 0 0
1 0 0
1 0 0
1 0 0
1 0 0
1 0 0
1 0 0
1 0 0
1 0 0
1 0 0
1 0 0
1 0 0
0 0.00238041 0
0 0.00234989 0
0 0.00262455 0
0 0.00309758 0
0.00248722 0.00299077 0
0.0457771 0 0
0.0998398 0 0
0.153933 0 0
0.208774 0 0
0.266468 0 0
0.328664 0 0
0.396384 0 0
0.469917 0 0
0.547814 0 0
0.627832 0 0
0.706752 0 0
0.781674 0 0
0.85098 0 0
0.913207 0 0
0.969055 0 0
1 0 0
1 0 0
1 0 0
1 0 0
1 0 0
1 0 0
1 0 0
1 0 0
1 0 0
1 0 0
1 0 0
1 0 0
1 0 0
0 0.0354162 0
0 0.0359808 0
0 0.0367437 0
0 0.0377203 0
0 0.0388495 0
0.0303807 0.0365759 0
0.0863966 0.0324254 0
0.145739 0.0260624 0
0.204074 0.0172427 0
0.264622 0.00621042 0
0.329931 0 0
0.400137 0 0
0.475456 0 0
0.554971 0 0
0.636301 0 0
0.71635 0 0
0.792523 0 0
0.861677 0 0
0.923888 0 0
0.979706 0 0
1 0 0
1 0 0
1 0 0
1 0 0
1 0 0
1 0 0
1 0 0
1 0 0
1 0 0
1 0 0
1 0 0
1 0 0
1 0 0
0 0.0746624 0
0 0.0763867 0
0 0.078706 0
0 0.0817426 0
0 0.0837415 0
0.00944533 0.082536 0
0.0657969 0.0791943 0
0.132113 0.0739452 0
0.19469 0.0659953 0
0.258396 0.0554513 0
0.325673 0.0412299 0
0.398016 0.0232242 0
0.475441 0.0010071 0
0.55668 0 0
0.639506 0 0
0.721508 0 0
0.798611 0 0
0.868849 0 0
0.931487 0 0
0.987259 0 0
1 0 0
1 0 0
1 0 0
1 0 0
1 0 0
1 0 0
1 0 0
1 0 0
1 0 0
1 0 0
1 0 0
1 0 0
1 0 0
0 0.121263 0
0 0.123613 0
0 0.126925 0
0 0.130312 0
0 0.13341 0
0 0.133837 0
0.0382849 0.13228 0
0.110964 0.129229 0
0.180133 0.124025 0
0.2477 0.115908 0
0.317922 0.104005 0
0.392584 0.0872358 0
0.47216 0.0644541 0
0.555825 0.0378424 0
0.640818 0.00746166 0
0.72369 0 0
0.801755 0 0
0.872831 0 0
0.936263 0 0
0.992569 0 0
1 0 0
1 0 0
1 0 0
1 0 0
1 0 0
1 0 0
1 0 0
1 0 0
1 0 0
1 0 0
1 0 0
1 0 0
1 0 0
0 0.168368 0
0 0.171939 0
0 0.175525 0
0 0.17937 0
0 0.183093 0
0 0.18497 0
0.00184634 0.184939 0
0.0770275 0.183291 0
0.157366 0.17966 0
0.231037 0.17409 0
0.305608 0.165835 0
0.383551 0.154116 0
0.465766 0.138415 0
0.55169 0.118059 0
0.63856 0.0914778 0
0.723384 0.0586404 0
0.802762 0.0254368 0
0.874617 0 0
0.93904 0 0
0.995621 0 0
1 0 0
1 0 0
1 0 0
1 0 0
1 0 0
1 0 0
1 0 0
1 0 0
1 0 0
1 0 0
1 0 0
1 0 0
1 0.0286717 0
0 0.21767 0
0 0.221866 0
0 0.226383 0
0 0.23093 0
0 0.235187 0
0 0.238499 0
0 0.239628 0
0.0285496 0.239261 0
0.122774 0.237095 0
0.206546 0.233112 0
0.28716 0.22707 0
0.370092 0.218997 0
0.455787 0.207431 0
0.544106 0.192508 0
0.633097 0.174426 0
0.719799 0.153674 0
0.800931 0.130892 0
0.874556 0.10753 0
0.939116 0.0826581 0
0.995941 0.0586252 0
1 0.0390326 0
1 0.0247807 0
1 0.0162203 0
1 0.0145724 0
1 0.0178225 0
1 0.0271 0
1 0.0426642 0
1 0.0632639 0
1 0.0880446 0
1 0.114183 0
1 0.138582 0
1 0.1635 0
1 0.186572 0
0 0.270527 0
0 0.275319 0
0 0.280644 0
0 0.286259 0
0 0.291951 0
0 0.295872 0
0 0.297948 0
0 0.298817 0
0.0636606 0.298253 0
0.169635 0.295903 0
0.26067 0.291951 0
0.349355 0.285451 0
0.439689 0.276722 0
0.531807 0.265614 0
0.623682 0.252232 0
0.712459 0.237339 0
0.795758 0.222629 0
0.870237 0.208103 0
0.935851 0.194812 0
0.993225 0.182803 0
1 0.172808 0
1 0.166751 0
1 0.164523 0
1 0.166186 0
1 0.171756 0
1 0.181064 0
1 0.194034 0
1 0.210101 0
1 0.227314 0
1 0.244862 0
1 0.263554 0
1 0.282567 0
1 0.300984 0
0 0.328023 0
0 0.333761 0
0 0.339834 0
0 0.346746 0
0 0.353124 0
0 0.35848 0
0 0.361654 0
0 0.363531 0
0 0.364446 0
0.109377 0.363836 0
0.221057 0.361166 0
0.319936 0.356359 0
0.416632 0.349523 0
0.513359 0.340887 0
0.609308 0.331121 0
0.701228 0.320333 0
0.785946 0.309255 0
0.861784 0.299168 0
0.92842 0.290654 0
0.986603 0.283711 0
1 0.278904 0
1 0.276616 0
1 0.276921 0
1 0.280324 0
1 0.286625 0
1 0.295674 0
1 0.30779 0
1 0.32192 0
1 0.336812 0
1 0.352438 0
1 0.369299 0
1 0.386282 0
1 0.40351 0
0 0.390417 0
0 0.397681 0
0 0.405219 0
0 0.412604 0
0 0.419806 0
0 0.426322 0
0 0.430915 0
0 0.434318 0
0 0.436271 0
0.00331121 0.436515 0
0.159197 0.435187 0
0.277867 0.432059 0
0.384909 0.426978 0
0.48835 0.420401 0
0.58883 0.412772 0
0.68394 0.404334 0
0.771298 0.396231 0
0.848966 0.38912 0
0.916808 0.383413 0
0.976196 0.379782 0
1 0.377127 0
1 0.376654 0
1 0.378576 0
1 0.382925 0
1 0.389654 0
1 0.399207 0
1 0.410468 0
1 0.423438 0
1 0.4374 0
1 0.451835 0
1 0.467216 0
1 0.483375 0
1 0.498512 0
0 0.458518 0
0 0.466804 0
0 0.475288 0
0 0.484001 0
0 0.492287 0
0 0.499596 0
0 0.505791 0
0 0.510124 0
0 0.513024 0
0 0.514336 0
0.0452583 0.513939 0
0.21648 0.51194 0
0.342214 0.508873 0
0.455451 0.50367 0
0.561929 0.497337 0
0.66125 0.490623 0
0.751583 0.484352 0
0.831418 0.47921 0
0.901274 0.476081 0
0.961227 0.473503 0
1 0.472251 0
1 0.472816 0
1 0.475456 0
1 0.480232 0
1 0.487739 0
1 0.496345 0
1 0.506889 0
1 0.518898 0
1 0.531899 0
1 0.545403 0
1 0.560113 0
1 0.573968 0
1 0.587442 0
0 0.531838 0
0 0.540688 0
0 0.549966 0
0 0.559579 0
0 0.568963 0
0 0.57789 0
0 0.584344 0
0 0.589349 0
0 0.593042 0
0 0.595331 0
0 0.59588 0
0.118791 0.5953 0
0.284245 0.592447 0
0.413184 0.588251 0
0.528557 0.583139 0
0.633555 0.577707 0
0.727596 0.572671 0
0.810391 0.569299 0
0.881361 0.566506 0
0.942489 0.564813 0
0.994324 0.56434 0
1 0.565423 0
1 0.568719 0
1 0.573404 0
1 0.57969 0
1 0.587777 0
1 0.59762 0
1 0.60856 0
1 0.620584 0
1 0.632837 0
1 0.645411 0
1 0.657923 0
1 0.66981 0
0 0.607797 0
0 0.6177 0
0 0.627787 0
0 0.637949 0
0 0.648447 0
0 0.657374 0
0 0.664546 0
0 0.670146 0
0 0.674235 0
0 0.677348 0
0 0.678584 0
0 0.677943 0
0.205158 0.6757 0
0.361852 0.672084 0
0.489677 0.667552 0
0.602167 0.663142 0
0.700862 0.659022 0
0.786023 0.655665 0
0.85893 0.653376 0
0.921294 0.651911 0
0.973953 0.651408 0
1 0.652735 0
1 0.655619 0
1 0.659709 0
1 0.665156 0
1 0.672068 0
1 0.68072 0
1 0.690852 0
1 0.701457 0
1 0.711894 0
1 0.722454 0
1 0.733349 0
1 0.743923 0
0 0.684947 0
0 0.695232 0
0 0.706203 0
0 0.717067 0
0 0.727108 0
0 0.736065 0
0 0.743267 0
0 0.749004 0
0 0.753613 0
0 0.756664 0
0 0.757763 0
0 0.757183 0
0.0804456 0.755077 0
0.301213 0.75172 0
0.447364 0.747799 0
0.568719 0.743572 0
0.672251 0.739315 0
0.760449 0.735943 0
0.835355 0.733684 0
0.899138 0.732219 0
0.953033 0.732052 0
0.996704 0.732418 0
1 0.734203 0
1 0.737514 0
1 0.742168 0
1 0.748074 0
1 0.755642 0
1 0.763851 0
1 0.772763 0
1 0.78201 0
1 0.791211 0
1 0.800778 0
1 0.810452 0
0 0.760845 0
0 0.771313 0
0 0.78204 0
0 0.792401 0
0 0.802228 0
0 0.810895 0
0 0.8177 0
0 0.823621 0
0 0.827512 0
0 0.829984 0
0 0.8309 0
0 0.830213 0
0 0.828 0
0.231525 0.824933 0
0.403296 0.820615 0
0.535073 0.816098 0
0.644312 0.811856 0
0.735683 0.80827 0
0.812406 0.805539 0
0.877714 0.804059 0
0.932158 0.80293 0
0.976501 0.802792 0
1 0.803738 0
1 0.80589 0
1 0.809369 0
1 0.814664 0
1 0.820813 0
1 0.827878 0
1 0.835523 0
1 0.843534 0
1 0.851606 0
1 0.860288 0
1 0.868269 0
0 0.833158 0
0 0.842954 0
0 0.85275 0
0 0.862348 0
0 0.871305 0
0 0.879072 0
0 0.885695 0
0 0.890425 0
0 0.893706 0
0 0.895552 0
0 0.895872 0
0 0.894774 0
0 0.892805 0
0.145968 0.889082 0
0.358602 0.884474 0
0.502434 0.879576 0
0.617533 0.87509 0
0.712245 0.871321 0
0.791257 0.868666 0
0.857176 0.866072 0
0.912261 0.864164 0
0.957183 0.863371 0
0.993072 0.863767 0
1 0.865675 0
1 0.868437 0
1 0.872297 0
1 0.877501 0
1 0.883604 0
1 0.890166 0
1 0.897231 0
1 0.904173 0
1 0.911223 0
1 0.918059 0
0 0.898848 0
0 0.907637 0
0 0.91635 0
0 0.924865 0
0 0.932754 0
0 0.939818 0
0 0.944808 0
0 0.948547 0
0 0.95108 0
0 0.952331 0
0 0.952422 0
0 0.950835 0
0 0.94789 0
0.0225986 0.943954 0
0.312932 0.939254 0
0.470909 0.934173 0
0.592203 0.929503 0
0.689998 0.925383 0
0.770459 0.921981 0
0.837736 0.919203 0
0.893751 0.917037 0
0.939269 0.915801 0
0.975753 0.915938 0
1 0.917113 0
1 0.919203 0
1 0.922301 0
1 0.926513 0
1 0.931594 0
1 0.937316 0
1 0.94313 0
1 0.948699 0
1 0.95436 0
1 0.959991 0
0 0.956664 0
0 0.964248 0
0 0.971618 0
0 0.978958 0
0 0.985641 0
0 0.990982 0
0 0.99498 0
0 0.997726 0
0 0.999298 0
0 1 0
0 0.999451 0
0 0.997421 0
0 0.994125 0
0 0.989792 0
0.266316 0.984894 0
0.44126 0.97998 0
0.568856 0.975265 0
0.669703 0.970977 0
0.751949 0.967407 0
0.820417 0.964462 0
0.877272 0.962173 0
0.923613 0.961028 0
0.960311 0.960494 0
0.989273 0.960998 0
1 0.962493 0
1 0.964904 0
1 0.968292 0
1 0.972473 0
1 0.976837 0
1 0.98143 0
1 0.985992 0
1 0.990494 0
1 0.994934 0
0 1 0
0 1 0
0 1 0
0 1 0
0 1 0
0 1 0
0 1 0
0 1 0
0 1 0
0 1 0
0 1 0
0 1 0
0 1 0
0 1 0
0.226398 1 0
0.417563 1 0
0.550484 1 0
0.654063 1 0
0.737713 1 0
0.806912 1 0
0.864424 1 0
0.91075 0.998566 0
0.947631 0.997726 0
0.976638 0.997696 0
0.999344 0.998474 0
1 1 0
1 1 0
1 1 0
1 1 0
1 1 0
1 1 0
1 1 0
1 1 0
0 1 0
0 1 0
0 1 0
0 1 0
0 1 0
0 1 0
0 1 0
0 1 0
0 1 0
0 1 0
0 1 0
0 1 0
0 1 0
0 1 0
0.197452 1 0
0.402502 1 0
0.539132 1 0
0.644266 1 0
0.728557 1 0
0.798199 1 0
0.855161 1 0
0.901198 1 0
0.937896 1 0
0.966812 1 0
0.989548 1 0
1 1 0
1 1 0
1 1 0
1 1 0
1 1 0
1 1 0
1 1 0
1 1 0
0 1 0
0 1 0
0 1 0
0 1 0
0 1 0
0 1 0
0 1 0
0 1 0
0 1 0
0 1 0
0 1 0
0 1 0
0 1 0
0 1 0
0.185519 1 0
0.397513 1 0
0.535393 1 0
0.640772 1 0
0.72459 1 0
0.793271 1 0
0.849668 1 0
0.895048 1 0
0.931121 1 0
0.959731 1 0
0.982116 1 0
0.999405 1 0
1 1 0
1 1 0
1 1 0
1 1 0
1 1 0
1 1 0
1 1 0
0 1 0
0 1 0
0 1 0
0 1 0
0 1 0
0 1 0
0 1 0
0 1 0
0 1 0
0 1 0
0 1 0
0 1 0
0 1 0
0 1 0
0.191318 1 0
0.401312 1 0
0.538552 1 0
0.642512 1 0
0.724773 1 0
0.792035 1 0
0.847303 1 0
0.891814 1 0
0.927321 1 0
0.955108 1 0
0.976913 1 0
0.993881 1 0
1 1 0
1 1 0
1 1 0
1 1 0
1 1 0
1 1 0
1 1 0
0 1 0
0 1 0
0 1 0
0 1 0
0 1 0
0 1 0
0 1 0
0 1 0
0 1 0
0 1 0
0 1 0
0 1 0
0 1 0
0 1 0
0.213703 1 0
0.414267 1 0
0.547311 1 0
0.648661 1 0
0.729046 1 0
0.794476 1 0
0.848066 1 0
0.891402 1 0
0.925719 1 0
0.952743 1 0
0.973938 1 0
0.990372 1 0
1 1 0
1 1 0
1 1 0
1 1 0
1 1 0
1 1 0
1 1 0
0 1 0
0 1 0
0 1 0
0 1 0
0 1 0
0 1 0
0 1 0
0 1 0
0 1 0
0 1 0
0 1 0
0 1 0
0 1 0
0 1 0
0.248646 1 0
0.434531 1 0
0.562066 1 0
0.659571 1 0
0.737118 1 0
0.800366 1 0
0.852262 1 0
0.893675 1 0
0.926574 1 0
0.952605 1 0
0.973083 1 0
0.989029 1 0
1 1 0
1 1 0
1 1 0
1 1 0
1 1 0
1 1 0
1 1 0
0 1 0
0 1 0
0 1 0
0 1 0
0 1 0
0 1 0
0 1 0
0 1 0
0 1 0
