MEDT/Pirringer/Unterricht/2025-02-26/Korrektur und Grading FootageFotos-20250226T115430Z-001/Korrektur und Grading FootageFotos/Bounce Color True Basic Log Conversion LUTs/Canon C-Log3 to Rec.709 LUT 33x33.cube
TITLE "Generated by Resolve"
LUT_3D_SIZE 33
0 0 0
0 0 0
0 0 0
0 0 0
0 0 0
0.137789 0 0
0.231357 0 0
0.310597 0 0
0.383886 0 0
0.454307 0 0
0.523232 0 0
0.591287 0 0
0.658595 0 0
0.725078 0 0
0.790372 0 0
0.854047 0 0
0.915572 0 0
0.974365 0 0
1 0 0
1 0 0
1 0 0
1 0 0
1 0 0
1 0 0
1 0 0
1 0 0
1 0 0
1 0 0
1 0 0
1 0 0
1 0 0
1 0 0
1 0 0
0 0 0
0 0 0
0 0 0
0 0 0
0 0 0
0.137789 0 0
0.231357 0 0
0.310597 0 0
0.383886 0 0
0.454307 0 0
0.523232 0 0
0.591287 0 0
0.658595 0 0
0.725078 0 0
0.790372 0 0
0.854047 0 0
0.915572 0 0
0.974365 0 0
1 0 0
1 0 0
1 0 0
1 0 0
1 0 0
1 0 0
1 0 0
1 0 0
1 0 0
1 0 0
1 0 0
1 0 0
1 0 0
1 0 0
1 0 0
0 0 0
0 0 0
0 0 0
0 0 0
0 0 0
0.137789 0 0
0.231357 0 0
0.310597 0 0
0.383886 0 0
0.454307 0 0
0.523232 0 0
0.591287 0 0
0.658595 0 0
0.725078 0 0
0.790372 0 0
0.854047 0 0
0.915572 0 0
0.974365 0 0
1 0 0
1 0 0
1 0 0
1 0 0
1 0 0
1 0 0
1 0 0
1 0 0
1 0 0
1 0 0
1 0 0
1 0 0
1 0 0
1 0 0
1 0 0
0 0 0
0 0 0
0 0 0
0 0 0
0 0 0
0.137789 0 0
0.231357 0 0
0.310597 0 0
0.383886 0 0
0.454307 0 0
0.523232 0 0
0.591287 0 0
0.658595 0 0
0.725078 0 0
0.790372 0 0
0.854047 0 0
0.915572 0 0
0.974365 0 0
1 0 0
1 0 0
1 0 0
1 0 0
1 0 0
1 0 0
1 0 0
1 0 0
1 0 0
1 0 0
1 0 0
1 0 0
1 0 0
1 0 0
1 0 0
0 0 0
0 0 0
0 0 0
0 0 0
0 0 0
0.137789 0 0
0.231357 0 0
0.310597 0 0
0.383886 0 0
0.454307 0 0
0.523232 0 0
0.591287 0 0
0.658595 0 0
0.725078 0 0
0.790372 0 0
0.854047 0 0
0.915572 0 0
0.974365 0 0
1 0 0
1 0 0
1 0 0
1 0 0
1 0 0
1 0 0
1 0 0
1 0 0
1 0 0
1 0 0
1 0 0
1 0 0
1 0 0
1 0 0
1 0 0
0 0.110765 0
0 0.110765 0
0 0.110765 0
0 0.110765 0
0 0.110765 0
0.0897536 0.0971695 0
0.201663 0.0805676 0
0.288273 0.0604257 0
0.36582 0.0370031 0
0.439109 0.0099794 0
0.510124 0 0
0.579767 0 0
0.648341 0 0
0.715831 0 0
0.781964 0 0
0.846326 0 0
0.908415 0 0
0.967697 0 0
1 0 0
1 0 0
1 0 0
1 0 0
1 0 0
1 0 0
1 0 0
1 0 0
1 0 0
1 0 0
1 0 0
1 0 0
1 0 0
1 0 0
1 0 0
0 0.193652 0
0 0.193652 0
0 0.193652 0
0 0.193652 0
0 0.193652 0
0.02533 0.184802 0
0.164355 0.174701 0
0.261845 0.162249 0
0.344991 0.146777 0
0.42182 0.127337 0
0.495338 0.102266 0
0.566857 0.0686503 0
0.636896 0.0297856 0
0.705547 0 0
0.772625 0 0
0.837766 0 0
0.900496 0 0
0.960327 0 0
1 0 0
1 0 0
1 0 0
1 0 0
1 0 0
1 0 0
1 0 0
1 0 0
1 0 0
1 0 0
1 0 0
1 0 0
1 0 0
1 0 0
1 0 0
0 0.263859 0
0 0.263859 0
0 0.263859 0
0 0.263859 0
0 0.263859 0
0 0.257099 0
0.110094 0.2495 0
0.227512 0.240345 0
0.318959 0.229297 0
0.400641 0.215976 0
0.47744 0.199847 0
0.551339 0.18027 0
0.623194 0.156222 0
0.693294 0.12607 0
0.761532 0.0865339 0
0.827619 0.0370336 0
0.891142 0 0
0.951598 0 0
1 0 0
1 0 0
1 0 0
1 0 0
1 0 0
1 0 0
1 0 0
1 0 0
1 0 0
1 0 0
1 0 0
1 0 0
1 0 0
1 0 0
1 0 0
0 0.328786 0
0 0.328786 0
0 0.328786 0
0 0.328786 0
0 0.328786 0
0 0.323278 0
0.024918 0.317143 0
0.181018 0.309804 0
0.285939 0.30106 0
0.374548 0.2907 0
0.455726 0.278416 0
0.532692 0.263935 0
0.606867 0.246906 0
0.678737 0.226917 0
0.748409 0.203387 0
0.815641 0.175586 0
0.88011 0.142199 0
0.94136 0.100633 0
0.998947 0.0480964 0
1 0 0
1 0 0
1 0 0
1 0 0
1 0 0
1 0 0
1 0 0
1 0 0
1 0 0
1 0 0
1 0 0
1 0 0
1 0 0
1 0 0
0 0.391165 0
0 0.391165 0
0 0.391165 0
0 0.391165 0
0 0.391165 0
0 0.386511 0
0 0.381353 0
0.111559 0.375219 0
0.242954 0.367956 0
0.342077 0.359411 0
0.429313 0.349401 0
0.510338 0.337774 0
0.587442 0.324331 0
0.66154 0.308904 0
0.732952 0.291356 0
0.801602 0.271519 0
0.867201 0.249271 0
0.929381 0.224414 0
0.987747 0.196735 0
1 0.165805 0
1 0.130831 0
1 0.0899672 0
1 0.0440528 0
1 0.00173953 0
1 0 0
1 0 0
1 0 0
1 0 0
1 0 0
1 0 0
1 0 0
1 0 0
1 0 0
0 0.452232 0
0 0.452232 0
0 0.452232 0
0 0.452232 0
0 0.452232 0
0 0.448218 0
0 0.443763 0
0 0.438483 0
0.183917 0.432273 0
0.301015 0.424994 0
0.397024 0.416526 0
0.483513 0.406744 0
0.564401 0.395575 0
0.641306 0.38291 0
0.71487 0.368704 0
0.785214 0.352987 0
0.852201 0.33576 0
0.915496 0.317143 0
0.974777 0.297292 0
1 0.276356 0
1 0.254582 0
1 0.232166 0
1 0.209354 0
1 0.186328 0
1 0.163256 0
1 0.140276 0
1 0.117433 0
1 0.0946975 0
1 0.0720226 0
1 0.0522316 0
1 0.043122 0
1 0.043122 0
1 0.043122 0
0 0.51252 0
0 0.51252 0
0 0.51252 0
0 0.51252 0
0 0.51252 0
0 0.50898 0
0 0.505058 0
0 0.500435 0
0.0900893 0.495003 0
0.247333 0.48867 0
0.357168 0.481331 0
0.45127 0.472892 0
0.537133 0.46331 0
0.617594 0.452522 0
0.693843 0.440543 0
0.766262 0.427405 0
0.834897 0.413214 0
0.899535 0.398108 0
0.959899 0.382284 0
1 0.365972 0
1 0.349447 0
1 0.332967 0
1 0.316793 0
1 0.301183 0
1 0.286336 0
1 0.272435 0
1 0.259586 0
1 0.247868 0
1 0.237324 0
1 0.227909 0
1 0.223468 0
1 0.223468 0
1 0.223468 0
0 0.572152 0
0 0.572152 0
0 0.572152 0
0 0.572152 0
0 0.572152 0
0 0.568994 0
0 0.565515 0
0 0.561395 0
0 0.556588 0
0.171832 0.550973 0
0.306966 0.544488 0
0.412345 0.537072 0
0.504936 0.528664 0
0.589975 0.519265 0
0.669551 0.508873 0
0.744503 0.497566 0
0.815122 0.485435 0
0.881346 0.472633 0
0.943008 0.459373 0
0.999908 0.445853 0
1 0.432319 0
1 0.419013 0
1 0.406165 0
1 0.393973 0
1 0.382559 0
1 0.372076 0
1 0.362539 0
1 0.354009 0
1 0.346456 0
1 0.339849 0
1 0.336751 0
1 0.336751 0
1 0.336751 0
0 0.631037 0
0 0.631037 0
0 0.631037 0
0 0.631037 0
0 0.631037 0
0 0.628199 0
0 0.625055 0
0 0.621363 0
0 0.617029 0
0.0400854 0.611994 0
0.241077 0.606195 0
0.364843 0.599573 0
0.466911 0.592081 0
0.557931 0.583749 0
0.641688 0.574563 0
0.719753 0.564599 0
0.792752 0.553979 0
0.860853 0.54284 0
0.92401 0.531365 0
0.982132 0.519738 0
1 0.508202 0
1 0.496956 0
1 0.486168 0
1 0.47602 0
1 0.466606 0
1 0.45803 0
1 0.450294 0
1 0.443427 0
1 0.437385 0
1 0.432135 0
1 0.429679 0
1 0.429679 0
1 0.429679 0
0 0.688899 0
0 0.688899 0
0 0.688899 0
0 0.688899 0
0 0.688899 0
0 0.686305 0
0 0.683436 0
0 0.680079 0
0 0.676143 0
0 0.67158 0
0.144884 0.666331 0
0.305547 0.660334 0
0.42182 0.65359 0
0.520912 0.646082 0
0.609979 0.637842 0
0.691859 0.628931 0
0.767712 0.619471 0
0.838026 0.609583 0
0.902937 0.59942 0
0.962463 0.589197 0
1 0.579095 0
1 0.569284 0
1 0.55993 0
1 0.551171 0
1 0.543099 0
1 0.53576 0
1 0.529183 0
1 0.523369 0
1 0.518273 0
1 0.513848 0
1 0.511803 0
1 0.511803 0
1 0.511803 0
0 0.745296 0
0 0.745296 0
0 0.745296 0
0 0.745296 0
0 0.745296 0
0 0.742916 0
0 0.740291 0
0 0.737209 0
0 0.733608 0
0 0.729427 0
0 0.72462 0
0.227619 0.719142 0
0.367834 0.712993 0
0.478233 0.706157 0
0.574182 0.698665 0
0.660746 0.690593 0
0.740017 0.682033 0
0.81294 0.673121 0
0.879881 0.663996 0
0.941009 0.654826 0
0.996414 0.645808 0
1 0.637064 0
1 0.628779 0
1 0.621027 0
1 0.613916 0
1 0.607462 0
1 0.601709 0
1 0.596628 0
1 0.592172 0
1 0.588327 0
1 0.586557 0
1 0.586557 0
1 0.586557 0
0 0.799802 0
0 0.799802 0
0 0.799802 0
0 0.799802 0
0 0.799802 0
0 0.797589 0
0 0.795163 0
0 0.792309 0
0 0.788983 0
0 0.785107 0
0 0.780682 0
0.107897 0.775631 0
0.30161 0.76997 0
0.428962 0.763684 0
0.53402 0.756802 0
0.626413 0.749401 0
0.709789 0.741558 0
0.785733 0.733425 0
0.854994 0.725109 0
0.917952 0.716777 0
0.974807 0.708583 0
1 0.700694 0
1 0.693202 0
1 0.686229 0
1 0.679835 0
1 0.674052 0
1 0.668894 0
1 0.664347 0
1 0.660395 0
1 0.656962 0
1 0.655375 0
1 0.655375 0
1 0.655375 0
0 0.851896 0
0 0.851896 0
0 0.851896 0
0 0.851896 0
0 0.851896 0
0 0.849836 0
0 0.847562 0
0 0.844907 0
0 0.841794 0
0 0.838193 0
0 0.834073 0
0 0.829374 0
0.215457 0.824109 0
0.371649 0.81828 0
0.489189 0.811902 0
0.588922 0.805051 0
0.677195 0.797803 0
0.756664 0.79028 0
0.828565 0.78262 0
0.893568 0.77496 0
0.952041 0.767437 0
1 0.760189 0
1 0.753338 0
1 0.746975 0
1 0.741131 0
1 0.735866 0
1 0.731182 0
1 0.727047 0
1 0.723461 0
1 0.720348 0
1 0.718914 0
1 0.718914 0
1 0.718914 0
0 0.901106 0
0 0.901106 0
0 0.901106 0
0 0.901106 0
0 0.901106 0
0 0.899168 0
0 0.897047 0
0 0.894545 0
0 0.89163 0
0 0.888243 0
0 0.884382 0
0 0.879973 0
0.0784314 0.875044 0
0.303563 0.869581 0
0.439307 0.863615 0
0.548394 0.857221 0
0.642542 0.850462 0
0.72607 0.843442 0
0.800946 0.836316 0
0.868208 0.82919 0
0.928435 0.822202 0
0.982086 0.815488 0
1 0.80914 0
1 0.80325 0
1 0.797864 0
1 0.793011 0
1 0.788678 0
1 0.784878 0
1 0.781567 0
1 0.778714 0
1 0.777401 0
1 0.777401 0
1 0.777401 0
0 0.947051 0
0 0.947051 0
0 0.947051 0
0 0.947051 0
0 0.947051 0
0 0.94522 0
0 0.943206 0
0 0.940841 0
0 0.938079 0
0 0.93489 0
0 0.931228 0
0 0.927077 0
0 0.922423 0
0.218296 0.917266 0
0.383658 0.91165 0
0.504997 0.905608 0
0.60618 0.89926 0
0.694362 0.892668 0
0.772564 0.885969 0
0.842298 0.879286 0
0.904418 0.87274 0
0.959548 0.866453 0
1 0.860517 0
1 0.855009 0
1 0.849973 0
1 0.845441 0
1 0.841413 0
1 0.837873 0
1 0.834791 0
1 0.832135 0
1 0.8309 0
1 0.8309 0
1 0.8309 0
0 0.98941 0
0 0.98941 0
0 0.98941 0
0 0.98941 0
0 0.98941 0
0 0.987671 0
0 0.985748 0
0 0.98349 0
0 0.980865 0
0 0.977829 0
0 0.97435 0
0 0.970397 0
0 0.965972 0
0.0918593 0.961074 0
0.320821 0.955734 0
0.458854 0.950027 0
0.568551 0.943984 0
0.662043 0.937743 0
0.743893 0.931395 0
0.816266 0.925078 0
0.880415 0.918898 0
0.937102 0.912947 0
0.986954 0.907347 0
1 0.902159 0
1 0.897414 0
1 0.893141 0
1 0.889357 0
1 0.886015 0
1 0.883116 0
1 0.880629 0
1 0.879469 0
1 0.879469 0
1 0.879469 0
0 1 0
0 1 0
0 1 0
0 1 0
0 1 0
0 1 0
0 1 0
0 1 0
0 1 0
0 1 0
0 1 0
0 1 0
0 1 0
0 1 0
0.247745 0.995773 0
0.41004 0.990311 0
0.530098 0.984543 0
0.629572 0.978592 0
0.715389 0.972549 0
0.7906 0.966522 0
0.85684 0.960632 0
0.915129 0.954971 0
0.966232 0.949645 0
1 0.944701 0
1 0.9402 0
1 0.936141 0
1 0.93254 0
1 0.929381 0
1 0.926635 0
1 0.924269 0
1 0.923171 0
1 0.923171 0
1 0.923171 0
0 1 0
0 1 0
0 1 0
0 1 0
0 1 0
0 1 0
0 1 0
0 1 0
0 1 0
0 1 0
0 1 0
0 1 0
0 1 0
0 1 0
0.155718 1 0
0.35845 1 0
0.491264 1 0
0.597482 1 0
0.687556 1 0
0.765698 1 0
0.834089 0.997971 0
0.894011 0.992554 0
0.94638 0.987442 0
0.991928 0.982727 0
1 0.978408 0
1 0.974533 0
1 0.971084 0
1 0.968063 0
1 0.965438 0
1 0.963165 0
1 0.962127 0
1 0.962127 0
1 0.962127 0
0 1 0
0 1 0
0 1 0
0 1 0
0 1 0
0 1 0
0 1 0
0 1 0
0 1 0
0 1 0
0 1 0
0 1 0
0 1 0
0 1 0
0.0162356 1 0
0.303655 1 0
0.452491 1 0
0.566217 1 0
0.660792 1 0
0.741955 1 0
0.812512 1 0
0.874052 1 0
0.927657 1 0
0.974182 1 0
1 1 0
1 1 0
1 1 0
1 1 0
1 0.99971 0
1 0.997543 0
1 0.996536 0
1 0.996536 0
1 0.996536 0
0 1 0
0 1 0
0 1 0
0 1 0
0 1 0
0 1 0
0 1 0
0 1 0
0 1 0
0 1 0
0 1 0
0 1 0
0 1 0
0 1 0
0 1 0
0.24448 1 0
0.41416 1 0
0.536202 1 0
0.635462 1 0
0.719676 1 0
0.792386 1 0
0.855497 1 0
0.910307 1 0
0.957763 1 0
0.998688 1 0
1 1 0
1 1 0
1 1 0
1 1 0
1 1 0
1 1 0
1 1 0
1 1 0
0 1 0
0 1 0
0 1 0
0 1 0
0 1 0
0 1 0
0 1 0
0 1 0
0 1 0
0 1 0
0 1 0
0 1 0
0 1 0
0 1 0
0 1 0
0.178164 1 0
0.376608 1 0
0.50779 1 0
0.611841 1 0
0.699092 1 0
0.773877 1 0
0.838499 1 0
0.894453 1 0
0.942794 1 0
0.984405 1 0
1 1 0
1 1 0
1 1 0
1 1 0
1 1 0
1 1 0
1 1 0
1 1 0
0 1 0
0 1 0
0 1 0
0 1 0
0 1 0
0 1 0
0 1 0
0 1 0
0 1 0
0 1 0
0 1 0
0 1 0
0 1 0
0 1 0
0 1 0
0.0964065 1 0
0.340093 1 0
0.481224 1 0
0.590143 1 0
0.680339 1 0
0.757107 1 0
0.823163 1 0
0.880171 1 0
0.929335 1 0
0.971588 1 0
1 1 0
1 1 0
1 1 0
1 1 0
1 1 0
1 1 0
1 1 0
1 1 0
0 1 0
0 1 0
0 1 0
0 1 0
0 1 0
0 1 0
0 1 0
0 1 0
0 1 0
