MEDT/Pirringer/Unterricht/2025-02-26/Korrektur und Grading FootageFotos-20250226T115430Z-001/Korrektur und Grading FootageFotos/Bounce Color True Basic Log Conversion LUTs/Canon C-Log3 to Rec.709 LUT 33x33.cube
TITLE "Generated by Resolve"
LUT_3D_SIZE 5
0 0 0
0.383886 0 0
0.915572 0 0
1 0 0
1 0 0
0 0.328786 0
0.285939 0.30106 0
0.88011 0.142199 0
1 0 0
1 0 0
0 0.799802 0
0 0.788983 0
0.709789 0.741558 0
1 0.679835 0
1 0.655375 0
0 1 0
0 1 0
0.41416 1 0
0.998688 1 0
1 1 0
0 1 0
0 1 0
0.221897 1 0
0.93756 1 0
1 1 0
0 0 0.308995
0.368872 0 0.30573
0.909606 0 0.291585
1 0 0.273716
1 0 0.266819
0 0.289067 0.248432
0.265873 0.257511 0.244434
0.873869 0.0471046 0.226993
1 0 0.204364
1 0 0.195438
0 0.784512 0
0 0.773465 0
0.7019 0.724941 0
1 0.661555 0
1 0.636347 0
0 1 0
0 1 0
0.400259 1 0
0.993271 1 0
1 1 0
0 1 0
0 1 0
0.196384 1 0
0.931746 1 0
1 1 0
0 0 0.758236
0.297978 0 0.756924
0.884016 0 0.751354
1 0 0.74461
1 0 0.742092
0 0 0.735622
0.160403 0 0.734264
0.847105 0 0.728511
1 0 0.721538
1 0 0.718929
0 0.71635 0.630976
0 0.704128 0.629374
0.667613 0.65005 0.622599
1 0.577951 0.614328
1 0.548714 0.611231
0 1 0.473671
0 1 0.471504
0.335729 1 0.462318
0.970123 0.981003 0.451026
1 0.964767 0.446769
0 1 0.399619
0 1 0.397055
0.0364385 1 0.386114
0.906859 1 0.372564
1 1 0.367407
0 0 1
0.183688 0 1
0.85214 0 1
1 0 1
1 0 1
0 0 1
0 0 1
0.813642 0 1
1 0 1
1 0 1
0 0.623819 0.981064
0 0.609613 0.980072
0.623743 0.545678 0.975875
1 0.456687 0.970825
1 0.418891 0.968948
0 1 0.891737
0 0.999222 0.890623
0.237766 0.963119 0.885985
0.941451 0.917617 0.880354
1 0.900114 0.878248
0 1 0.856016
0 1 0.854871
0 1 0.850004
0.875898 1 0.844099
1 1 0.841917
0 0 1
0.122667 0 1
0.839994 0 1
1 0 1
1 0 1
0 0 1
0 0 1
0.800855 0 1
1 0 1
1 0 1
0 0.585595 1
0 0.570397 1
0.606638 0.501289 1
1 0.402472 1
1 0.359121 1
0 0.985336 1
0 0.976761 0.999695
0.190967 0.939696 0.995605
0.930587 0.892882 0.990662
1 0.87483 0.988815
0 1 0.969375
0 1 0.968368
0 1 0.964126
0.864118 1 0.959014
1 0.997299 0.957107
