MEDT/Pirringer/Unterricht/2025-02-26/Korrektur und Grading FootageFotos-20250226T115430Z-001/Korrektur und Grading FootageFotos/Bounce Color True Basic Log Conversion LUTs/Canon C-Log3 to Rec.709 LUT 33x33.cube
TITLE "Generated by Resolve"
LUT_3D_SIZE 9
0 0 0
0 0 0
0.383886 0 0
0.658595 0 0
0.915572 0 0
1 0 0
1 0 0
1 0 0
1 0 0
0 0 0
0 0 0
0.383886 0 0
0.658595 0 0
0.915572 0 0
1 0 0
1 0 0
1 0 0
1 0 0
0 0.328786 0
0 0.328786 0
0.285939 0.30106 0
0.606867 0.246906 0
0.88011 0.142199 0
1 0 0
1 0 0
1 0 0
1 0 0
0 0.572152 0
0 0.572152 0
0 0.556588 0
0.504936 0.528664 0
0.815122 0.485435 0
1 0.432319 0
1 0.382559 0
1 0.346456 0
1 0.336751 0
0 0.799802 0
0 0.799802 0
0 0.788983 0
0.30161 0.76997 0
0.709789 0.741558 0
0.974807 0.708583 0
1 0.679835 0
1 0.660395 0
1 0.655375 0
0 0.98941 0
0 0.98941 0
0 0.980865 0
0 0.965972 0
0.568551 0.943984 0
0.880415 0.918898 0
1 0.897414 0
1 0.883116 0
1 0.879469 0
0 1 0
0 1 0
0 1 0
0 1 0
0.41416 1 0
0.792386 1 0
0.998688 1 0
1 1 0
1 1 0
0 1 0
0 1 0
0 1 0
0 1 0
0.270832 1 0
0.728832 1 0
0.95024 1 0
1 1 0
1 1 0
0 1 0
0 1 0
0 1 0
0 1 0
0.221897 1 0
0.711803 1 0
0.93756 1 0
1 1 0
1 1 0
0 0 0
0 0 0
0.383886 0 0
0.658595 0 0
0.915572 0 0
1 0 0
1 0 0
1 0 0
1 0 0
0 0 0
0 0 0
0.383886 0 0
0.658595 0 0
0.915572 0 0
1 0 0
1 0 0
1 0 0
1 0 0
0 0.328786 0
0 0.328786 0
0.285939 0.30106 0
0.606867 0.246906 0
0.88011 0.142199 0
1 0 0
1 0 0
1 0 0
1 0 0
0 0.572152 0
0 0.572152 0
0 0.556588 0
0.504936 0.528664 0
0.815122 0.485435 0
1 0.432319 0
1 0.382559 0
1 0.346456 0
1 0.336751 0
0 0.799802 0
0 0.799802 0
0 0.788983 0
0.30161 0.76997 0
0.709789 0.741558 0
0.974807 0.708583 0
1 0.679835 0
1 0.660395 0
1 0.655375 0
0 0.98941 0
0 0.98941 0
0 0.980865 0
0 0.965972 0
0.568551 0.943984 0
0.880415 0.918898 0
1 0.897414 0
1 0.883116 0
1 0.879469 0
0 1 0
0 1 0
0 1 0
0 1 0
0.41416 1 0
0.792386 1 0
0.998688 1 0
1 1 0
1 1 0
0 1 0
0 1 0
0 1 0
0 1 0
0.270832 1 0
0.728832 1 0
0.95024 1 0
1 1 0
1 1 0
0 1 0
0 1 0
0 1 0
0 1 0
0.221897 1 0
0.711803 1 0
0.93756 1 0
1 1 0
1 1 0
0 0 0.308995
0 0 0.308995
0.368872 0 0.30573
0.65005 0 0.300023
0.909606 0 0.291585
1 0 0.281956
1 0 0.273716
1 0 0.268223
1 0 0.266819
0 0 0.308995
0 0 0.308995
0.368872 0 0.30573
0.65005 0 0.300023
0.909606 0 0.291585
1 0 0.281956
1 0 0.273716
1 0 0.268223
1 0 0.266819
0 0.289067 0.248432
0 0.289067 0.248432
0.265873 0.257511 0.244434
0.597528 0.193301 0.23743
0.873869 0.0471046 0.226993
1 0 0.214893
1 0 0.204364
1 0 0.197269
1 0 0.195438
0 0.550103 0.0910201
0 0.550103 0.0910201
0 0.533852 0.0824903
0.493599 0.504646 0.0670481
0.808331 0.459113 0.0451057
1 0.402548 0.020737
1 0.348684 0.000457771
1 0.308858 0
1 0.298024 0
0 0.784512 0
0 0.784512 0
0 0.773465 0
0.282551 0.754025 0
0.7019 0.724941 0
0.969253 0.691112 0
1 0.661555 0
1 0.64152 0
1 0.636347 0
0 0.977356 0
0 0.977356 0
0 0.968704 0
0 0.953597 0
0.558541 0.931289 0
0.874174 0.905791 0
1 0.88397 0
1 0.869429 0
1 0.865721 0
0 1 0
0 1 0
0 1 0
0 1 0
0.400259 1 0
0.785382 1 0
0.993271 1 0
1 1 0
1 1 0
0 1 0
0 1 0
0 1 0
0 1 0
0.249699 1 0
0.721157 1 0
0.944518 1 0
1 1 0
1 1 0
0 1 0
0 1 0
0 1 0
0 1 0
0.196384 1 0
0.703929 1 0
0.931746 1 0
1 1 0
1 1 0
0 0 0.541115
0 0 0.541115
0.341558 0 0.539239
0.63505 0 0.535988
0.899229 0 0.531243
1 0 0.525933
1 0 0.521477
1 0 0.518547
1 0 0.5178
0 0 0.541115
0 0 0.541115
0.341558 0 0.539239
0.63505 0 0.535988
0.899229 0 0.531243
1 0 0.525933
1 0 0.521477
1 0 0.518547
1 0 0.5178
0 0.205646 0.508293
0 0.205646 0.508293
0.227756 0.16144 0.506294
0.581094 0.051957 0.502815
0.863035 0 0.497749
1 0 0.492073
1 0 0.487297
1 0 0.484154
1 0 0.48336
0 0.509834 0.446097
0 0.509834 0.446097
0 0.492241 0.443809
0.473457 0.460334 0.439826
0.796521 0.409888 0.434028
1 0.345525 0.427497
1 0.281605 0.421973
1 0.231708 0.418357
1 0.217563 0.417426
0 0.757427 0.336706
0 0.757427 0.336706
0 0.745937 0.333684
0.246708 0.725704 0.328435
0.68809 0.695354 0.320699
0.959594 0.659907 0.311894
1 0.628763 0.304387
1 0.607599 0.299413
1 0.602121 0.298146
0 0.956237 0.148165
0 0.956237 0.148165
0 0.947356 0.142061
0 0.931853 0.131106
0.540871 0.908965 0.114031
0.86334 0.882765 0.0928511
1 0.860288 0.0727703
1 0.845304 0.059556
1 0.841474 0.0562295
0 1 0
0 1 0
0 1 0
0 1 0
0.375158 1 0
0.77319 1 0
0.983871 1 0
1 0.998032 0
1 0.994842 0
0 1 0
0 1 0
0 1 0
0 1 0
0.209094 1 0
0.707759 1 0
0.934585 1 0
1 1 0
1 1 0
0 1 0
0 1 0
0 1 0
0 1 0
0.144732 1 0
0.690181 1 0
0.92166 1 0
1 1 0
1 1 0
0 0 0.758236
0 0 0.758236
0.297978 0 0.756924
0.61268 0 0.75465
0.884016 0 0.751354
1 0 0.747677
1 0 0.74461
1 0 0.742596
1 0 0.742092
0 0 0.758236
0 0 0.758236
0.297978 0 0.756924
0.61268 0 0.75465
0.884016 0 0.751354
1 0 0.747677
1 0 0.74461
1 0 0.742596
1 0 0.742092
0 0 0.735622
0 0 0.735622
0.160403 0 0.734264
0.556451 0 0.731914
0.847105 0 0.728511
1 0 0.724712
1 0 0.721538
1 0 0.719463
1 0 0.718929
0 0.445151 0.69485
0 0.445151 0.69485
0 0.424842 0.693401
0.44271 0.387457 0.690913
0.779095 0.326238 0.687297
1 0.242222 0.683238
1 0.145052 0.679866
1 0.04448 0.677638
1 0.0155795 0.677089
0 0.71635 0.630976
0 0.71635 0.630976
0 0.704128 0.629374
0.184985 0.682567 0.626612
0.667613 0.65005 0.622599
0.945449 0.611811 0.618097
1 0.577951 0.614328
1 0.554742 0.611856
1 0.548714 0.611231
0 0.924758 0.550912
0 0.924758 0.550912
0 0.915541 0.549065
0 0.899443 0.545876
0.514244 0.875608 0.541222
0.847425 0.84828 0.536019
1 0.824765 0.53164
1 0.809064 0.528771
1 0.805051 0.528054
0 1 0.473671
0 1 0.473671
0 1 0.471504
0 1 0.467765
0.335729 1 0.462318
0.755184 1 0.456199
0.970123 0.981003 0.451026
1 0.968063 0.447639
1 0.964767 0.446769
0 1 0.41561
0 1 0.41561
0 1 0.413153
0 1 0.408881
0.134997 1 0.40264
0.687907 1 0.39559
0.920012 1 0.389639
1 1 0.385718
1 1 0.38471
0 1 0.399619
0 1 0.399619
0 1 0.397055
0 1 0.392615
0.0364385 1 0.386114
0.669764 1 0.378775
0.906859 1 0.372564
1 1 0.36846
1 1 0.367407
0 0 0.939071
0 0 0.939071
0.241459 0 0.938033
0.586801 0 0.936248
0.866773 0 0.933639
1 0 0.930755
1 0 0.928328
1 0 0.926757
1 0 0.92636
0 0 0.939071
0 0 0.939071
0.241459 0 0.938033
0.586801 0 0.936248
0.866773 0 0.933639
1 0 0.930755
1 0 0.928328
1 0 0.926757
1 0 0.92636
0 0 0.921279
0 0 0.921279
0.0464942 0 0.920226
0.527703 0 0.918395
0.829023 0 0.91574
1 0 0.912779
1 0 0.910307
1 0 0.90869
1 0 0.908278
0 0.360006 0.889738
0 0.360006 0.889738
0 0.334737 0.88864
0.405859 0.286427 0.886732
0.759258 0.199466 0.88397
1 0.0373846 0.880903
1 0 0.878325
1 0 0.876661
1 0 0.876234
0 0.667536 0.841886
0 0.667536 0.841886
0 0.654353 0.840711
0.0871748 0.630961 0.838682
0.644068 0.595468 0.835752
0.929458 0.553262 0.832471
1 0.515404 0.82974
1 0.489143 0.827955
1 0.482261 0.827512
0 0.88835 0.784985
0 0.88835 0.784985
0 0.878721 0.783719
0 0.86186 0.781521
0.482918 0.836851 0.778363
0.829343 0.808087 0.774823
1 0.783261 0.771862
1 0.766629 0.76994
1 0.762356 0.769451
0 1 0.733959
0 1 0.733959
0 1 0.732601
0 1 0.730251
0.286061 0.990997 0.726833
0.73463 0.967254 0.723033
0.954604 0.94699 0.719844
1 0.933532 0.717754
1 0.930098 0.717235
0 1 0.698573
0 1 0.698573
0 1 0.697139
0 1 0.694667
0.00926223 1 0.691066
0.665125 1 0.687037
0.903532 1 0.68368
1 1 0.681468
1 1 0.680919
0 1 0.689326
0 1 0.689326
0 1 0.687877
0 1 0.685359
0 1 0.681697
0.646296 1 0.677623
0.890105 1 0.674205
1 1 0.671977
1 1 0.671412
0 0 1
0 0 1
0.183688 0 1
0.564309 0 1
0.85214 0 1
1 0 1
1 0 1
1 0 1
1 0 1
0 0 1
0 0 1
0.183688 0 1
0.564309 0 1
0.85214 0 1
1 0 1
1 0 1
1 0 1
1 0 1
0 0 1
0 0 1
0 0 1
0.50248 0 1
0.813642 0 1
1 0 1
1 0 1
1 0 1
1 0 1
0 0.270512 1
0 0.270512 1
0 0.236805 1
0.372473 0.166323 1
0.74229 0.00117494 1
0.998062 0 1
1 0 1
1 0 1
1 0 1
0 0.623819 0.981064
0 0.623819 0.981064
0 0.609613 0.980072
0 0.584344 0.978363
0.623743 0.545678 0.975875
0.915923 0.499123 0.973129
1 0.456687 0.970825
1 0.42678 0.969329
1 0.418891 0.968948
0 0.856764 0.933471
0 0.856764 0.933471
0 0.846738 0.932433
0 0.82916 0.930617
0.455177 0.803037 0.928008
0.813977 0.772885 0.925093
1 0.746792 0.922652
1 0.729259 0.921065
1 0.724758 0.920668
0 1 0.891737
0 1 0.891737
0 0.999222 0.890623
0 0.984634 0.888731
0.237766 0.963119 0.885985
0.717052 0.938598 0.882902
0.941451 0.917617 0.880354
1 0.903685 0.878676
1 0.900114 0.878248
0 1 0.863355
0 1 0.863355
0 1 0.862211
0 1 0.860243
0 1 0.857389
0.645518 1 0.854215
0.889555 1 0.851545
1 0.99968 0.849821
1 0.99649 0.849378
0 1 0.856016
0 1 0.856016
0 1 0.854871
0 1 0.852872
0 1 0.850004
0.626062 1 0.846784
0.875898 1 0.844099
1 1 0.842359
1 1 0.841917
0 0 1
0 0 1
0.136553 0 1
0.549157 0 1
0.842466 0 1
1 0 1
1 0 1
1 0 1
1 0 1
0 0 1
0 0 1
0.136553 0 1
0.549157 0 1
0.842466 0 1
1 0 1
1 0 1
1 0 1
1 0 1
0 0 1
0 0 1
0 0 1
0.485344 0 1
0.803449 0 1
1 0 1
1 0 1
1 0 1
1 0 1
0 0.193912 1
0 0.193912 1
0 0.147097 1
0.349081 0.0302586 1
0.731029 0 1
0.989944 0 1
1 0 1
1 0 1
1 0 1
0 0.593515 1
0 0.593515 1
0 0.578531 1
0 0.551781 1
0.610132 0.510552 1
0.906996 0.46038 1
1 0.413977 1
1 0.380774 1
1 0.371923 1
0 0.835492 1
0 0.835492 1
0 0.825177 1
0 0.807095 1
0.436164 0.780148 1
0.803784 0.749004 1
1 0.721981 1
1 0.703792 1
1 0.699107 1
0 0.989868 0.979767
0 0.989868 0.979767
0 0.981338 0.978775
0 0.966445 0.977066
0.201129 0.944472 0.974594
0.705348 0.919387 0.971832
0.932799 0.897932 0.969528
1 0.88365 0.968017
1 0.880003 0.967636
0 1 0.954269
0 1 0.954269
0 1 0.953246
0 1 0.951492
0 1 0.948943
0.632395 1 0.94609
0.880323 0.994537 0.943725
1 0.981796 0.942168
1 0.978561 0.941787
0 1 0.947707
0 1 0.947707
0 1 0.946685
0 1 0.9449
0 1 0.942336
0.612497 1 0.939467
0.866514 1 0.937072
0.995254 1 0.935515
1 1 0.935119
0 0 1
0 0 1
0.122667 0 1
0.545266 0 1
0.839994 0 1
1 0 1
1 0 1
1 0 1
1 0 1
0 0 1
0 0 1
0.122667 0 1
0.545266 0 1
0.839994 0 1
1 0 1
1 0 1
1 0 1
1 0 1
0 0 1
0 0 1
0 0 1
0.480903 0 1
0.800855 0 1
1 0 1
1 0 1
1 0 1
1 0 1
0 0.170245 1
0 0.170245 1
0 0.117037 1
0.342931 0 1
0.728145 0 1
0.987884 0 1
1 0 1
1 0 1
1 0 1
0 0.585595 1
0 0.585595 1
0 0.570397 1
0 0.543221 1
0.606638 0.501289 1
0.904723 0.45005 1
1 0.402472 1
1 0.368261 1
1 0.359121 1
0 0.830014 1
0 0.830014 1
0 0.819623 1
0 0.801404 1
0.43122 0.774258 1
0.80119 0.74284 1
1 0.715572 1
1 0.697185 1
1 0.69247 1
0 0.985336 1
0 0.985336 1
0 0.976761 0.999695
0 0.961791 0.998032
0.190967 0.939696 0.995605
0.702358 0.914473 0.992905
0.930587 0.892882 0.990662
1 0.878508 0.989197
1 0.87483 0.988815
0 1 0.975784
0 1 0.975784
0 1 0.974777
0 1 0.973068
0 1 0.970565
0.629038 1 0.967803
0.877974 0.990021 0.965484
1 0.977234 0.963973
1 0.973968 0.963592
0 1 0.969375
0 1 0.969375
0 1 0.968368
0 1 0.966644
0 1 0.964126
0.609018 1 0.961334
0.864118 1 0.959014
0.99321 1 0.957488
1 0.997299 0.957107
