MEDT/Pirringer/Unterricht/2025-02-26/Korrektur und Grading FootageFotos-20250226T115430Z-001/Korrektur und Grading FootageFotos/Bounce Color True Basic Log Conversion LUTs/Canon C-Log to Rec.709 LUT 33x33.cube
TITLE "Generated by Resolve"
LUT_3D_SIZE 33
0 0 0
0 0 0
0 0 0
0.0879377 0 0
0.190936 0 0
0.268254 0 0
0.335271 0 0
0.396719 0 0
0.454734 0 0
0.510399 0 0
0.564355 0 0
0.616922 0 0
0.668269 0 0
0.718456 0 0
0.767452 0 0
0.815183 0 0
0.86154 0 0
0.906386 0 0
0.949554 0 0
0.990921 0 0
1 0 0
1 0 0
1 0 0
1 0 0
1 0 0
1 0 0
1 0 0
1 0 0
1 0 0
1 0 0
1 0 0
1 0 0
1 0 0
0 0 0
0 0 0
0 0 0
0.0879377 0 0
0.190936 0 0
0.268254 0 0
0.335271 0 0
0.396719 0 0
0.454734 0 0
0.510399 0 0
0.564355 0 0
0.616922 0 0
0.668269 0 0
0.718456 0 0
0.767452 0 0
0.815183 0 0
0.86154 0 0
0.906386 0 0
0.949554 0 0
0.990921 0 0
1 0 0
1 0 0
1 0 0
1 0 0
1 0 0
1 0 0
1 0 0
1 0 0
1 0 0
1 0 0
1 0 0
1 0 0
1 0 0
0 0 0
0 0 0
0 0 0
0.0879377 0 0
0.190936 0 0
0.268254 0 0
0.335271 0 0
0.396719 0 0
0.454734 0 0
0.510399 0 0
0.564355 0 0
0.616922 0 0
0.668269 0 0
0.718456 0 0
0.767452 0 0
0.815183 0 0
0.86154 0 0
0.906386 0 0
0.949554 0 0
0.990921 0 0
1 0 0
1 0 0
1 0 0
1 0 0
1 0 0
1 0 0
1 0 0
1 0 0
1 0 0
1 0 0
1 0 0
1 0 0
1 0 0
0 0.0670939 0
0 0.0670939 0
0 0.0670939 0
0.0530709 0.0578164 0
0.170611 0.0424811 0
0.2533 0.0254826 0
0.323186 0.00669871 0
0.386481 0 0
0.445823 0 0
0.50248 0 0
0.557229 0 0
0.610437 0 0
0.662303 0 0
0.712947 0 0
0.762325 0 0
0.810391 0 0
0.857023 0 0
0.902113 0 0
0.945495 0 0
0.98706 0 0
1 0 0
1 0 0
1 0 0
1 0 0
1 0 0
1 0 0
1 0 0
1 0 0
1 0 0
1 0 0
1 0 0
1 0 0
1 0 0
0 0.157855 0
0 0.157855 0
0 0.157855 0
0 0.151751 0
0.132143 0.141222 0
0.226734 0.128847 0
0.302235 0.114137 0
0.368978 0.0963912 0
0.430686 0.0742962 0
0.489128 0.0497139 0
0.545235 0.0231022 0
0.599557 0 0
0.652338 0 0
0.703746 0 0
0.753765 0 0
0.802396 0 0
0.8495 0 0
0.895003 0 0
0.938766 0 0
0.980636 0 0
1 0 0
1 0 0
1 0 0
1 0 0
1 0 0
1 0 0
1 0 0
1 0 0
1 0 0
1 0 0
1 0 0
1 0 0
1 0 0
0 0.226352 0
0 0.226352 0
0 0.226352 0
0 0.22179 0
0.0770733 0.214099 0
0.193759 0.205264 0
0.277302 0.195148 0
0.348562 0.18349 0
0.413245 0.170047 0
0.473854 0.154391 0
0.531624 0.136019 0
0.587243 0.114061 0
0.641108 0.0870832 0
0.693385 0.0545815 0
0.744167 0.0205692 0
0.793423 0 0
0.841077 0 0
0.887053 0 0
0.931212 0 0
0.973449 0 0
1 0 0
1 0 0
1 0 0
1 0 0
1 0 0
1 0 0
1 0 0
1 0 0
1 0 0
1 0 0
1 0 0
1 0 0
1 0 0
0 0.285725 0
0 0.285725 0
0 0.285725 0
0 0.282017 0
0.00672923 0.275807 0
0.151064 0.268772 0
0.247196 0.260792 0
0.32459 0.251774 0
0.393118 0.24155 0
0.456382 0.229999 0
0.516136 0.216922 0
0.573327 0.202075 0
0.628428 0.185168 0
0.681758 0.165789 0
0.733394 0.143343 0
0.783383 0.116838 0
0.831662 0.0844129 0
0.878172 0.0465858 0
0.922805 0.00836194 0
0.965454 0 0
1 0 0
1 0 0
1 0 0
1 0 0
1 0 0
1 0 0
1 0 0
1 0 0
1 0 0
1 0 0
1 0 0
1 0 0
1 0 0
0 0.340154 0
0 0.340154 0
0 0.340154 0
0 0.337011 0
0 0.331762 0
0.0902876 0.325841 0
0.209857 0.319188 0
0.296178 0.311711 0
0.369741 0.303334 0
0.436362 0.293965 0
0.498558 0.283528 0
0.557595 0.271885 0
0.614191 0.258961 0
0.668711 0.244602 0
0.72134 0.228672 0
0.772168 0.210971 0
0.82118 0.191272 0
0.868299 0.169207 0
0.913466 0.144259 0
0.956573 0.115496 0
0.997513 0.0808728 0
1 0.0429541 0
1 0.00582895 0
1 0 0
1 0 0
1 0 0
1 0 0
1 0 0
1 0 0
1 0 0
1 0 0
1 0 0
1 0 0
0 0.391546 0
0 0.391546 0
0 0.391546 0
0 0.3888 0
0 0.384237 0
0.00567636 0.379095 0
0.161395 0.373342 0
0.261906 0.366918 0
0.342428 0.359762 0
0.413367 0.351827 0
0.478569 0.343023 0
0.539849 0.333333 0
0.598184 0.322683 0
0.654124 0.311009 0
0.707912 0.298299 0
0.759701 0.284489 0
0.809537 0.26952 0
0.857359 0.253376 0
0.90312 0.235996 0
0.946746 0.217288 0
0.988128 0.197192 0
1 0.17554 0
1 0.152102 0
1 0.126452 0
1 0.0978256 0
1 0.0654002 0
1 0.0340734 0
1 0.00463874 0
1 0 0
1 0 0
1 0 0
1 0 0
1 0 0
0 0.440864 0
0 0.440864 0
0 0.440864 0
0 0.438437 0
0 0.434379 0
0 0.429831 0
0.0912642 0.42475 0
0.219394 0.419089 0
0.310124 0.412818 0
0.386801 0.40589 0
0.455802 0.39826 0
0.519829 0.389883 0
0.580255 0.380743 0
0.637842 0.370825 0
0.692973 0.360113 0
0.745892 0.348608 0
0.796643 0.336324 0
0.845273 0.323262 0
0.891707 0.309468 0
0.935912 0.294972 0
0.977813 0.27985 0
1 0.264134 0
1 0.247898 0
1 0.231205 0
1 0.214099 0
1 0.196628 0
1 0.178836 0
1 0.160754 0
1 0.142367 0
1 0.123644 0
1 0.104494 0
1 0.0847944 0
1 0.0650034 0
0 0.488655 0
0 0.488655 0
0 0.488655 0
0 0.486458 0
0 0.482811 0
0 0.478721 0
0 0.474174 0
0.16376 0.469123 0
0.271244 0.463523 0
0.355901 0.457359 0
0.429801 0.450584 0
0.49723 0.443198 0
0.560174 0.435157 0
0.619715 0.42649 0
0.676432 0.417182 0
0.730617 0.407248 0
0.782452 0.396704 0
0.831968 0.385611 0
0.879179 0.374029 0
0.924041 0.36199 0
0.966522 0.349599 0
1 0.336919 0
1 0.324056 0
1 0.311086 0
1 0.298131 0
1 0.285252 0
1 0.272557 0
1 0.260136 0
1 0.248035 0
1 0.236347 0
1 0.225132 0
1 0.21442 0
1 0.204242 0
0 0.535225 0
0 0.535225 0
0 0.535225 0
0 0.533227 0
0 0.5299 0
0 0.526192 0
0 0.522057 0
0.0800793 0.517479 0
0.222934 0.512428 0
0.319554 0.506859 0
0.4 0.500771 0
0.471702 0.494133 0
0.537728 0.486946 0
0.599603 0.479225 0
0.658137 0.470954 0
0.713817 0.462165 0
0.766873 0.452903 0
0.817411 0.443214 0
0.865492 0.433143 0
0.911101 0.422751 0
0.954208 0.412146 0
0.994797 0.401389 0
1 0.39057 0
1 0.379782 0
1 0.369116 0
1 0.358648 0
1 0.34847 0
1 0.338628 0
1 0.329213 0
1 0.320241 0
1 0.311772 0
1 0.303807 0
1 0.296391 0
0 0.580713 0
0 0.580713 0
0 0.580713 0
0 0.578882 0
0 0.57583 0
0 0.572427 0
0 0.568643 0
0 0.564462 0
0.158938 0.559838 0
0.275898 0.554757 0
0.365576 0.549218 0
0.442832 0.543191 0
0.512642 0.536675 0
0.577295 0.529686 0
0.637995 0.52224 0
0.695399 0.514336 0
0.749844 0.50605 0
0.801556 0.497398 0
0.850614 0.488457 0
0.897047 0.479271 0
0.940871 0.469947 0
0.982055 0.460533 0
1 0.451118 0
1 0.441794 0
1 0.432639 0
1 0.423713 0
1 0.415091 0
1 0.406821 0
1 0.398947 0
1 0.391516 0
1 0.384543 0
1 0.378058 0
1 0.372045 0
0 0.625177 0
0 0.625177 0
0 0.625177 0
0 0.623484 0
0 0.620661 0
0 0.617517 0
0 0.614023 0
0 0.610162 0
0.0584573 0.605905 0
0.221576 0.601236 0
0.325322 0.596139 0
0.410025 0.5906 0
0.484611 0.584649 0
0.552651 0.578256 0
0.6159 0.571466 0
0.675288 0.564279 0
0.73135 0.556756 0
0.784375 0.548928 0
0.834531 0.540856 0
0.881895 0.532601 0
0.926497 0.524239 0
0.968368 0.515831 0
1 0.507454 0
1 0.499199 0
1 0.491112 0
1 0.483284 0
1 0.475731 0
1 0.468528 0
1 0.461723 0
1 0.455299 0
1 0.449317 0
1 0.443763 0
1 0.438636 0
0 0.668589 0
0 0.668589 0
0 0.668589 0
0 0.667002 0
0 0.664378 0
0 0.661448 0
0 0.658213 0
0 0.654612 0
0 0.650675 0
0.14844 0.646342 0
0.277211 0.641627 0
0.372457 0.636515 0
0.453239 0.631006 0
0.525429 0.625116 0
0.591714 0.61886 0
0.653422 0.612253 0
0.71133 0.605356 0
0.76585 0.598184 0
0.817243 0.590814 0
0.865644 0.583291 0
0.911116 0.575692 0
0.953735 0.568078 0
0.993515 0.56051 0
1 0.553063 0
1 0.5458 0
1 0.538781 0
1 0.532036 0
1 0.525628 0
1 0.51957 0
1 0.513893 0
1 0.508598 0
1 0.5037 0
1 0.499199 0
0 0.710872 0
0 0.710872 0
0 0.710872 0
0 0.709392 0
0 0.706935 0
0 0.704204 0
0 0.701167 0
0 0.69781 0
0 0.694118 0
0.0308995 0.690089 0
0.217319 0.685679 0
0.328939 0.680919 0
0.41799 0.675807 0
0.495415 0.670329 0
0.565332 0.664515 0
0.62977 0.658396 0
0.689784 0.652018 0
0.745998 0.645396 0
0.798779 0.63859 0
0.848325 0.631678 0
0.894774 0.624689 0
0.938201 0.6177 0
0.978683 0.610788 0
1 0.603983 0
1 0.59736 0
1 0.590982 0
1 0.584863 0
1 0.579049 0
1 0.573587 0
1 0.56846 0
1 0.563699 0
1 0.559304 0
1 0.555261 0
0 0.751949 0
0 0.751949 0
0 0.751949 0
0 0.750546 0
0 0.748241 0
0 0.745663 0
0 0.742809 0
0 0.739651 0
0 0.736187 0
0 0.732403 0
0.135424 0.728283 0
0.277348 0.723812 0
0.378164 0.71902 0
0.462272 0.713893 0
0.536645 0.708476 0
0.604273 0.70277 0
0.666712 0.696803 0
0.724849 0.690639 0
0.779171 0.684321 0
0.829999 0.677897 0
0.877516 0.671427 0
0.921828 0.664958 0
0.963073 0.658564 0
1 0.652293 0
1 0.646189 0
1 0.640314 0
1 0.634699 0
1 0.629374 0
1 0.624369 0
1 0.619684 0
1 0.615335 0
1 0.611322 0
1 0.607645 0
0 0.791669 0
0 0.791669 0
0 0.791669 0
0 0.790341 0
0 0.788159 0
0 0.785733 0
0 0.783032 0
0 0.780056 0
0 0.776791 0
0 0.773205 0
0.00436408 0.769314 0
0.213428 0.765118 0
0.332616 0.760601 0
0.42562 0.755779 0
0.50547 0.750683 0
0.576898 0.745327 0
0.642161 0.739727 0
0.702464 0.733959 0
0.758511 0.728038 0
0.810742 0.722026 0
0.859419 0.715984 0
0.904723 0.709941 0
0.946777 0.70399 0
0.985718 0.698146 0
1 0.692485 0
1 0.687022 0
1 0.681819 0
1 0.67689 0
1 0.672251 0
1 0.667918 0
1 0.663905 0
1 0.660212 0
1 0.656825 0
0 0.829908 0
0 0.829908 0
0 0.829908 0
0 0.828656 0
0 0.826581 0
0 0.824277 0
0 0.821714 0
0 0.818891 0
0 0.815793 0
0 0.812406 0
0 0.808713 0
0.12546 0.804746 0
0.279332 0.800458 0
0.384878 0.795911 0
0.471672 0.791089 0
0.547646 0.786023 0
0.616144 0.780743 0
0.678904 0.775296 0
0.736889 0.769726 0
0.790661 0.764065 0
0.840604 0.758389 0
0.886946 0.752712 0
0.9299 0.747127 0
0.969589 0.74165 0
1 0.736339 0
1 0.731228 0
1 0.72636 0
1 0.721767 0
1 0.717433 0
1 0.713405 0
1 0.709651 0
1 0.706218 0
1 0.703059 0
0 0.86656 0
0 0.86656 0
0 0.86656 0
0 0.86537 0
0 0.863386 0
0 0.861189 0
0 0.858747 0
0 0.856062 0
0 0.853101 0
0 0.849882 0
0 0.846372 0
0 0.842588 0
0.214313 0.838529 0
0.339101 0.834195 0
0.434958 0.829618 0
0.516457 0.824811 0
0.588739 0.819806 0
0.654276 0.814633 0
0.714397 0.809354 0
0.769863 0.803998 0
0.82118 0.798627 0
0.868666 0.793271 0
0.912566 0.787991 0
0.953048 0.782818 0
0.99028 0.777813 0
1 0.773007 0
1 0.768429 0
1 0.764096 0
1 0.760021 0
1 0.756237 0
1 0.752728 0
1 0.749493 0
1 0.746532 0
0 0.901503 0
0 0.901503 0
0 0.901503 0
0 0.900359 0
0 0.898466 0
0 0.896361 0
0 0.894026 0
0 0.891447 0
0 0.888624 0
0 0.885542 0
0 0.882185 0
0 0.878569 0
0.126345 0.874693 0
0.286702 0.870558 0
0.394995 0.866178 0
0.483284 0.861601 0
0.560006 0.856825 0
0.628687 0.851911 0
0.691173 0.846891 0
0.748501 0.841794 0
0.801297 0.836667 0
0.850004 0.831586 0
0.894896 0.826566 0
0.936233 0.821668 0
0.974182 0.816922 0
1 0.81236 0
1 0.808026 0
1 0.803922 0
1 0.800076 0
1 0.79649 0
1 0.793164 0
1 0.790112 0
1 0.78732 0
0 0.934615 0
0 0.934615 0
0 0.934615 0
0 0.933516 0
0 0.931701 0
0 0.929671 0
0 0.927428 0
0 0.924956 0
0 0.922255 0
0 0.919295 0
0 0.916075 0
0 0.912596 0
0 0.908888 0
0.224552 0.904921 0
0.351156 0.900725 0
0.448081 0.896345 0
0.530022 0.891783 0
0.602289 0.887068 0
0.667384 0.882261 0
0.726726 0.877394 0
0.781109 0.872511 0
0.831098 0.867643 0
0.877058 0.862852 0
0.919264 0.858183 0
0.957961 0.853666 0
0.993332 0.849317 0
1 0.845182 0
1 0.841276 0
1 0.837613 0
1 0.834211 0
1 0.831052 0
1 0.828153 0
1 0.825498 0
0 0.965835 0
0 0.965835 0
0 0.965835 0
0 0.964782 0
0 0.963027 0
0 0.961074 0
0 0.958907 0
0 0.956527 0
0 0.953918 0
0 0.951064 0
0 0.947967 0
0 0.944625 0
0 0.941039 0
0.144594 0.93724 0
0.30248 0.933211 0
0.410681 0.928985 0
0.498848 0.924605 0
0.575174 0.920073 0
0.643183 0.915465 0
0.704692 0.91078 0
0.760784 0.906096 0
0.812131 0.901427 0
0.85919 0.896849 0
0.902327 0.892363 0
0.941787 0.888029 0
0.977798 0.883879 0
1 0.879911 0
1 0.876188 0
1 0.872679 0
1 0.869429 0
1 0.866407 0
1 0.86363 0
1 0.861097 0
0 0.995102 0
0 0.995102 0
0 0.995102 0
0 0.994079 0
0 0.992386 0
0 0.990494 0
0 0.988403 0
0 0.986099 0
0 0.983581 0
0 0.980819 0
0 0.977829 0
0 0.974609 0
0 0.971145 0
0.023209 0.967468 0
0.247074 0.963577 0
0.370855 0.959503 0
0.466575 0.955276 0
0.547539 0.950912 0
0.618723 0.946456 0
0.682567 0.941955 0
0.740459 0.937438 0
0.79324 0.932952 0
0.841459 0.928527 0
0.885527 0.924224 0
0.92578 0.920043 0
0.962463 0.916045 0
0.995819 0.912245 0
1 0.90866 0
1 0.905287 0
1 0.902159 0
1 0.899275 0
1 0.896605 0
1 0.894179 0
0 1 0
0 1 0
0 1 0
0 1 0
0 1 0
0 1 0
0 1 0
0 1 0
0 1 0
0 1 0
0 1 0
0 1 0
0 0.999161 0
0 0.99559 0
0.18085 0.991821 0
0.328176 0.987884 0
0.433234 0.98378 0
0.519509 0.979568 0
0.594186 0.975265 0
0.660548 0.970901 0
0.720333 0.966537 0
0.774578 0.962188 0
0.823987 0.957931 0
0.869032 0.953765 0
0.910079 0.949737 0
0.947433 0.945876 0
0.981353 0.942199 0
1 0.93875 0
1 0.9355 0
1 0.932479 0
1 0.929686 0
1 0.927123 0
1 0.924788 0
0 1 0
0 1 0
0 1 0
0 1 0
0 1 0
0 1 0
0 1 0
0 1 0
0 1 0
0 1 0
0 1 0
0 1 0
0 1 0
0 1 0
0.0912795 1 0
0.28191 1 0
0.39884 1 0
0.491218 1 0
0.569741 1 0
0.638773 0.997665 0
0.700542 0.993423 0
0.756313 0.989212 0
0.806943 0.985077 0
0.852964 0.981033 0
0.894835 0.977142 0
0.93286 0.973404 0
0.967346 0.969848 0
0.99855 0.966491 0
1 0.963348 0
1 0.960433 0
1 0.957732 0
1 0.955245 0
1 0.952987 0
0 1 0
0 1 0
0 1 0
0 1 0
0 1 0
0 1 0
0 1 0
0 1 0
0 1 0
0 1 0
0 1 0
0 1 0
0 1 0
0 1 0
0 1 0
0.230655 1 0
0.363363 1 0
0.462821 1 0
0.545541 1 0
0.617411 1 0
0.681224 1 0
0.738582 1 0
0.790433 1 0
0.837446 1 0
0.88011 1 0
0.918807 0.998688 0
0.953857 0.995224 0
0.985534 0.991974 0
1 0.988922 0
1 0.986084 0
1 0.983459 0
1 0.981048 0
1 0.978851 0
0 1 0
0 1 0
0 1 0
0 1 0
0 1 0
0 1 0
0 1 0
0 1 0
0 1 0
