MEDT/Pirringer/Unterricht/2025-02-26/Korrektur und Grading FootageFotos-20250226T115430Z-001/Korrektur und Grading FootageFotos/Bounce Color True Basic Log Conversion LUTs/Fujifilm F-Log to Rec.709 LUT 33x33.cube
TITLE "Generated by Resolve"
LUT_3D_SIZE 5
0 0 0
0.222629 0 0
0.640314 0 0
1 0 0
1 0 0
0 0.185931 0
0.157397 0.167468 0
0.619226 0.027039 0
1 0 0
1 0 0
0 0.555947 0
0 0.549508 0
0.490364 0.513512 0
1 0.417121 0
1 0.319753 0
0 0.970199 0
0 0.966674 0
0 0.947524 0
0.863127 0.900923 0
1 0.861524 0
0 1 0
0 1 0
0 1 0
0.694286 1 0
1 1 0
0 0 0.172747
0.212619 0 0.170565
0.636744 0 0.158495
1 0 0.127138
1 0 0.0974746
0 0.159472 0.132403
0.14403 0.13846 0.129747
0.615549 0 0.114809
1 0 0.073518
1 0 0.0375219
0 0.546853 0
0 0.540291 0
0.485649 0.503624 0
1 0.404868 0
1 0.303792 0
0 0.965225 0
0 0.961685 0
0 0.942412 0
0.860548 0.895521 0
1 0.855848 0
0 1 0
0 1 0
0 1 0
0.69102 1 0
1 1 0
0 0 0.525658
0.150561 0 0.52488
0.617319 0 0.520653
1 0 0.510628
1 0 0.502419
0 0 0.512215
0.0508431 0 0.511406
0.595392 0 0.507057
1 0 0.496742
1 0 0.488319
0 0.49514 0.432929
0 0.487861 0.431983
0.459632 0.44683 0.426825
1 0.331838 0.414511
1 0.200244 0.404364
0 0.938094 0.130083
0 0.934432 0.127398
0 0.914519 0.112245
0.846601 0.865965 0.0703899
1 0.82472 0.0343938
0 1 0
0 1 0
0 1 0
0.673243 1 0
1 1 0
0 0 0.92076
0 0 0.920317
0.569131 0 0.918013
1 0 0.912581
1 0 0.908186
0 0 0.913436
0 0 0.912993
0.545174 0 0.910658
1 0 0.90518
1 0 0.90074
0 0.34493 0.87303
0 0.334478 0.872572
0.39205 0.272175 0.870115
0.99202 0.0147707 0.864347
1 0 0.859678
0 0.870924 0.769375
0 0.866957 0.768856
0 0.845289 0.766033
0.812955 0.792065 0.759396
1 0.746365 0.754025
0 1 0.673686
0 1 0.673075
0 1 0.669825
0.629587 1 0.66215
1 1 0.655924
0 0 1
0 0 1
0.527138 0 1
1 0 1
1 0 1
0 0 1
0 0 1
0.501106 0 1
1 0 1
1 0 1
0 0.146807 1
0 0.124331 1
0.328191 0 1
0.969558 0 1
1 0 1
0 0.812604 1
0 0.808316 1
0 0.784878 1
0.784817 0.726833 1
1 0.676371 1
0 1 0.953292
0 1 0.95288
0 1 0.950652
0.592081 1 0.945418
1 0.980789 0.941207
