MEDT/Pirringer/Unterricht/2025-02-26/Korrektur und Grading FootageFotos-20250226T115430Z-001/Korrektur und Grading FootageFotos/Bounce Color True Basic Log Conversion LUTs/Fujifilm F-Log to Rec.709 LUT 33x33.cube
TITLE "Generated by Resolve"
LUT_3D_SIZE 9
0 0 0
0.0387884 0 0
0.222629 0 0
0.415091 0 0
0.640314 0 0
0.885161 0 0
1 0 0
1 0 0
1 0 0
0 0.029633 0
0.0234379 0.0255283 0
0.214939 0 0
0.410788 0 0
0.637568 0 0
0.883223 0 0
1 0 0
1 0 0
1 0 0
0 0.185931 0
0 0.183566 0
0.157397 0.167468 0
0.38146 0.12874 0
0.619226 0.027039 0
0.870436 0 0
1 0 0
1 0 0
1 0 0
0 0.35642 0
0 0.355108 0
0 0.346288 0
0.310811 0.326925 0
0.578439 0.286366 0
0.842649 0.207385 0
1 0.0498512 0
1 0 0
1 0 0
0 0.555947 0
0 0.555108 0
0 0.549508 0
0.0935225 0.537453 0
0.490364 0.513512 0
0.786328 0.472541 0
1 0.417121 0
1 0.36144 0
1 0.319753 0
0 0.772869 0
0 0.772274 0
0 0.768338 0
0 0.75993 0
0.299107 0.743526 0
0.685542 0.716381 0
0.960433 0.681697 0
1 0.6495 0
1 0.627344 0
0 0.970199 0
0 0.969741 0
0 0.966674 0
0 0.960159 0
0 0.947524 0
0.535668 0.926848 0
0.863127 0.900923 0
1 0.877394 0
1 0.861524 0
0 1 0
0 1 0
0 1 0
0 1 0
0 1 0
0.352804 1 0
0.76614 1 0
0.991577 1 0
1 1 0
0 1 0
0 1 0
0 1 0
0 1 0
0 1 0
0.146365 1 0
0.694286 1 0
0.938598 1 0
1 1 0
0 0 0.0266728
0.0361639 0 0.0261997
0.221332 0 0.0231022
0.414359 0 0.0165255
0.639841 0 0.00392157
0.884825 0 0
1 0 0
1 0 0
1 0 0
0 0.0238651 0.0186618
0.0208133 0.0197604 0.0181888
0.213596 0 0.0150912
0.410056 0 0.00851453
0.637095 0 0
0.882902 0 0
1 0 0
1 0 0
1 0 0
0 0.182605 0
0 0.180209 0
0.155673 0.163851 0
0.380667 0.124346 0
0.618753 0.0212711 0
0.870085 0 0
1 0 0
1 0 0
1 0 0
0 0.354559 0
0 0.353231 0
0 0.344381 0
0.30985 0.324895 0
0.57792 0.284077 0
0.842298 0.204334 0
1 0.0440833 0
1 0 0
1 0 0
0 0.554757 0
0 0.553903 0
0 0.548287 0
0.0910811 0.536217 0
0.489738 0.512215 0
0.785962 0.471138 0
1 0.415518 0
1 0.359594 0
1 0.317693 0
0 0.77203 0
0 0.77142 0
0 0.767483 0
0 0.759075 0
0.298116 0.742657 0
0.685115 0.715465 0
0.960128 0.68072 0
1 0.648478 0
1 0.626291 0
0 0.969543 0
0 0.969085 0
0 0.966018 0
0 0.959503 0
0 0.946838 0
0.535103 0.926162 0
0.862776 0.900221 0
1 0.876661 0
1 0.860777 0
0 1 0
0 1 0
0 1 0
0 1 0
0 1 0
0.351949 1 0
0.765759 1 0
0.991287 1 0
1 1 0
0 1 0
0 1 0
0 1 0
0 1 0
0 1 0
0.144549 1 0
0.693843 1 0
0.938277 1 0
1 1 0
0 0 0.172747
0.0189059 0 0.172457
0.212619 0 0.170565
0.409522 0 0.166506
0.636744 0 0.158495
0.882658 0 0.144976
1 0 0.127138
1 0 0.109865
1 0 0.0974746
0 0 0.167834
0.00355535 0 0.167544
0.204623 0 0.165606
0.405173 0 0.161456
0.633997 0 0.153246
0.88072 0 0.139361
1 0 0.120958
1 0 0.103029
1 0 0.090074
0 0.159472 0.132403
0 0.156817 0.132067
0.14403 0.13846 0.129747
0.375402 0.0924086 0.124773
0.615549 0 0.114809
0.867872 0 0.0975357
1 0 0.073518
1 0 0.0518196
1 0 0.0375219
0 0.342077 0.0299535
0 0.340703 0.0294804
0 0.331533 0.0263828
0.303441 0.311299 0.0198062
0.574487 0.268605 0.00720226
0.840009 0.183398 0
1 0.00622568 0
1 0 0
1 0 0
0 0.546853 0
0 0.545983 0
0 0.540291 0
0.0738842 0.528023 0
0.485649 0.503624 0
0.78349 0.461753 0
1 0.404868 0
1 0.34728 0
1 0.303792 0
0 0.766476 0
0 0.765866 0
0 0.761898 0
0 0.753429 0
0.291463 0.736858 0
0.682246 0.709438 0
0.958144 0.674372 0
1 0.641779 0
1 0.619333 0
0 0.965225 0
0 0.964767 0
0 0.961685 0
0 0.955123 0
0 0.942412 0
0.53138 0.921614 0
0.860548 0.895521 0
1 0.871839 0
1 0.855848 0
0 1 0
0 1 0
0 1 0
0 1 0
0 1 0
0.346273 1 0
0.76321 1 0
0.989364 1 0
1 1 0
0 1 0
0 1 0
0 1 0
0 1 0
0 1 0
0.132204 1 0
0.69102 1 0
0.936248 1 0
1 1 0
0 0 0.335363
0 0 0.33521
0.193164 0 0.334142
0.3991 0 0.331884
0.630167 0 0.327504
0.878035 0 0.320363
1 0 0.311452
1 0 0.30341
1 0 0.298009
0 0 0.332616
0 0 0.332448
0.184497 0 0.33138
0.394644 0 0.329107
0.627375 0 0.324697
0.876097 0 0.317494
1 0 0.308507
1 0 0.300389
1 0 0.294942
0 0.0995041 0.314031
0 0.0958114 0.313848
0.116808 0.0693675 0.312718
0.36405 0.0124819 0.310323
0.608713 0 0.305653
0.863172 0 0.298039
1 0 0.288487
1 0 0.27985
1 0 0.274022
0 0.314137 0.270878
0 0.312642 0.270695
0 0.302693 0.269398
0.289448 0.280552 0.266636
0.567132 0.232944 0.261265
0.835126 0.131273 0.252461
1 0 0.241337
1 0 0.231144
1 0 0.224231
0 0.529717 0.163561
0 0.528832 0.163272
0 0.522927 0.161288
0.0373999 0.510231 0.157046
0.476905 0.484932 0.148669
0.778225 0.441276 0.134447
1 0.381369 0.115526
1 0.319768 0.0969711
1 0.272282 0.0834821
0 0.754589 0
0 0.753979 0
0 0.749935 0
0 0.741314 0
0.276921 0.724453 0
0.676127 0.696498 0
0.953918 0.6607 0
1 0.627359 0
1 0.604349 0
0 0.956024 0
0 0.95555 0
0 0.952438 0
0 0.945815 0
0 0.932952 0
0.523415 0.911925 0
0.855802 0.885527 0
1 0.861524 0
1 0.845319 0
0 1 0
0 1 0
0 1 0
0 1 0
0 1 0
0.333959 1 0
0.757794 1 0
0.985306 1 0
1 1 0
0 1 0
0 1 0
0 1 0
0 1 0
0 1 0
0.103029 1 0
0.684977 1 0
0.931914 1 0
1 1 0
0 0 0.525658
0 0 0.525551
0.150561 0 0.52488
0.378332 0 0.52343
0.617319 0 0.520653
0.869108 0 0.516152
1 0 0.510628
1 0 0.505699
1 0 0.502419
0 0 0.523903
0 0 0.523796
0.139956 0 0.52311
0.373632 0 0.52166
0.614466 0 0.518868
0.86714 0 0.514366
1 0 0.508812
1 0 0.503868
1 0 0.500587
0 0 0.512215
0 0 0.512108
0.0508431 0 0.511406
0.341222 0 0.509911
0.595392 0 0.507057
0.854063 0 0.502434
1 0 0.496742
1 0 0.491676
1 0 0.488319
0 0.252811 0.486519
0 0.250996 0.486412
0 0.238758 0.485664
0.260731 0.210925 0.484108
0.552758 0.146532 0.481086
0.825681 0 0.476219
1 0 0.470207
1 0 0.464836
1 0 0.46128
0 0.49514 0.432929
0 0.494179 0.432807
0 0.487861 0.431983
0 0.474205 0.430213
0.459632 0.44683 0.426825
0.768017 0.399039 0.421317
1 0.331838 0.414511
1 0.259632 0.408423
1 0.200244 0.404364
0 0.731197 0.32958
0 0.730571 0.329412
0 0.72639 0.328328
0 0.717449 0.32604
0.246921 0.699977 0.321584
0.664225 0.670924 0.314321
0.945769 0.633585 0.305257
1 0.598642 0.297047
1 0.574441 0.291539
0 0.938094 0.130083
0 0.937606 0.129732
0 0.934432 0.127398
0 0.927657 0.122347
0 0.914519 0.112245
0.507744 0.893004 0.0946975
0.846601 0.865965 0.0703899
1 0.841367 0.0486763
1 0.82472 0.0343938
0 1 0
0 1 0
0 1 0
0 1 0
0 1 0
0.309071 1 0
0.74728 1 0
0.977447 1 0
1 0.990967 0
0 1 0
0 1 0
0 1 0
0 1 0
0 1 0
0.0343328 1 0
0.673243 1 0
0.923552 1 0
1 1 0
0 0 0.73254
0 0 0.732479
0.054612 0 0.731991
0.342489 0 0.730968
0.596109 0 0.729015
0.854566 0 0.725872
1 0 0.722011
1 0 0.718593
1 0 0.716335
0 0 0.731304
0 0 0.731228
0.0392615 0 0.730755
0.337316 0 0.729732
0.593149 0 0.727779
0.852552 0 0.72462
1 0 0.72076
1 0 0.717342
1 0 0.715068
0 0 0.723125
0 0 0.723049
0 0 0.72256
0.301274 0 0.721523
0.573327 0 0.719539
0.839231 0 0.71635
1 0 0.712444
1 0 0.70898
1 0 0.706691
0 0.109209 0.70547
0 0.10573 0.705394
0 0.0805982 0.70489
0.207675 0.0237125 0.703838
0.528847 0 0.701793
0.810285 0 0.698512
1 0 0.694499
1 0 0.690929
1 0 0.688579
0 0.433875 0.670207
0 0.432792 0.670115
0 0.425559 0.669596
0 0.409827 0.668467
0.430488 0.377859 0.666316
0.751324 0.320272 0.662852
1 0.233234 0.658595
1 0.121859 0.654826
1 0.00347906 0.652338
0 0.69192 0.60911
0 0.691249 0.609018
0 0.686809 0.608438
0 0.677317 0.607187
0.190707 0.658701 0.604807
0.644648 0.627604 0.600961
0.93254 0.58735 0.596246
1 0.54934 0.59205
1 0.522744 0.589288
0 0.908507 0.524544
0 0.908003 0.524437
0 0.904707 0.523751
0 0.897704 0.522301
0 0.884062 0.519509
0.481559 0.861708 0.515007
0.831632 0.833555 0.509468
1 0.807874 0.504524
1 0.790463 0.501244
0 1 0.436255
0 1 0.436118
0 1 0.435294
0 1 0.433555
0 1 0.430182
0.264729 1 0.42472
0.730083 0.998184 0.417975
0.964691 0.977234 0.411933
1 0.963165 0.407904
0 1 0.366751
0 1 0.366613
0 1 0.365637
0 1 0.363561
0 1 0.359548
0 1 0.353033
0.653956 1 0.344915
0.909972 1 0.337621
1 1 0.332738
0 0 0.92076
0 0 0.920699
0 0 0.920317
0.293294 0 0.919539
0.569131 0 0.918013
0.836454 0 0.915572
1 0 0.912581
1 0 0.909926
1 0 0.908186
0 0 0.919783
0 0 0.919738
0 0 0.919356
0.287297 0 0.918563
0.566033 0 0.917037
0.834394 0 0.914595
1 0 0.911604
1 0 0.908949
1 0 0.90721
0 0 0.913436
0 0 0.913375
0 0 0.912993
0.244724 0 0.9122
0.545174 0 0.910658
0.820752 0 0.908186
1 0 0.90518
1 0 0.90251
1 0 0.90074
0 0 0.899809
0 0 0.899748
0 0 0.899367
0.12163 0 0.898558
0.4981 0 0.897002
0.791074 0 0.894484
1 0 0.891417
1 0 0.888701
1 0 0.886915
0 0.34493 0.87303
0 0.343572 0.872969
0 0.334478 0.872572
0 0.314412 0.871733
0.39205 0.272175 0.870115
0.730419 0.188281 0.867521
0.99202 0.0147707 0.864347
1 0 0.86154
1 0 0.859678
0 0.640513 0.828077
0 0.63978 0.828016
0 0.634958 0.827588
0 0.624643 0.826703
0.095201 0.604303 0.824994
0.619883 0.570092 0.822248
0.916121 0.525231 0.818875
1 0.48217 0.8159
1 0.45156 0.813931
0 0.870924 0.769375
0 0.870405 0.769314
0 0.866957 0.768856
0 0.859602 0.767895
0 0.845289 0.766033
0.447517 0.821775 0.763058
0.812955 0.792065 0.759396
1 0.764858 0.756161
1 0.746365 0.754025
0 1 0.713314
0 1 0.713252
0 1 0.712749
0 1 0.711711
0 1 0.709697
0.199542 0.988556 0.706447
0.708507 0.964462 0.70248
0.948882 0.942687 0.69897
1 0.928038 0.696635
0 1 0.673686
0 1 0.673609
0 1 0.673075
0 1 0.671962
0 1 0.669825
0 1 0.666377
0.629587 1 0.66215
0.893095 1 0.658396
1 1 0.655924
0 0 1
0 0 1
0 0 1
0.242649 0 1
0.544213 0 1
0.820142 0 1
1 0 1
1 0 1
1 0 1
0 0 1
0 0 1
0 0 1
0.235523 0 1
0.540963 0 1
0.818036 0 1
1 0 1
1 0 1
1 0 1
0 0 1
0 0 1
0 0 1
0.183215 0 1
0.519066 0 1
0.804089 0 1
1 0 1
1 0 1
1 0 1
0 0 1
0 0 1
0 0 1
0.00631724 0 1
0.469322 0 1
0.773709 0 1
1 0 1
1 0 1
1 0 1
0 0.242725 1
0 0.240833 1
0 0.228138 1
0 0.199084 1
0.354864 0.13051 1
0.711452 0 1
0.978546 0 1
1 0 1
1 0 1
0 0.591318 0.978546
0 0.590524 0.978485
0 0.585275 0.978134
0 0.573999 0.977401
0 0.551705 0.975982
0.597177 0.513863 0.973693
0.901381 0.463447 0.970901
1 0.413947 0.968429
1 0.37789 0.966796
0 0.836286 0.930266
0 0.835737 0.930205
0 0.83212 0.929839
0 0.82443 0.929061
0 0.809445 0.92755
0.415213 0.784756 0.925139
0.796124 0.75346 0.922179
1 0.724681 0.919554
1 0.705043 0.91783
0 1 0.885313
0 0.999969 0.885252
0 0.997009 0.884871
0 0.990723 0.884031
0 0.978515 0.882445
0.122423 0.958587 0.879896
0.688884 0.933639 0.876768
0.934722 0.91104 0.874006
1 0.895827 0.872175
0 1 0.854307
0 1 0.854246
0 1 0.853834
0 1 0.852979
0 1 0.851331
0 1 0.848676
0.607263 1 0.845411
0.877928 1 0.842542
1 1 0.840635
0 0 1
0 0 1
0 0 1
0.203555 0 1
0.527138 0 1
0.809201 0 1
1 0 1
1 0 1
1 0 1
0 0 1
0 0 1
0 0 1
0.195254 0 1
0.523781 0 1
0.807065 0 1
1 0 1
1 0 1
1 0 1
0 0 1
0 0 1
0 0 1
0.131548 0 1
0.501106 0 1
0.79292 0 1
1 0 1
1 0 1
1 0 1
0 0 1
0 0 1
0 0 1
0 0 1
0.449348 0 1
0.762051 0 1
1 0 1
1 0 1
1 0 1
0 0.146807 1
0 0.143984 1
0 0.124331 1
0 0.073518 1
0.328191 0 1
0.69868 0 1
0.969558 0 1
1 0 1
1 0 1
0 0.556451 1
0 0.555596 1
0 0.549996 1
0 0.537972 1
0 0.514046 1
0.58172 0.473136 1
0.891539 0.417792 1
1 0.362188 1
1 0.320607 1
0 0.812604 1
0 0.812039 1
0 0.808316 1
0 0.800366 1
0 0.784878 1
0.392523 0.759319 1
0.784817 0.726833 1
1 0.69688 1
1 0.676371 1
0 0.981079 0.98088
0 0.980621 0.980819
0 0.9776 0.980468
0 0.97116 0.979736
0 0.958679 0.978317
0.0485695 0.938277 0.976043
0.675654 0.912718 0.973251
0.925261 0.889525 0.970794
1 0.873899 0.969162
0 1 0.953292
0 1 0.953231
0 1 0.95288
0 1 0.952117
0 1 0.950652
0 1 0.948302
0.592081 1 0.945418
0.867781 0.994583 0.942885
1 0.980789 0.941207
