MEDT/Pirringer/Unterricht/2025-02-26/Korrektur und Grading FootageFotos-20250226T115430Z-001/Korrektur und Grading FootageFotos/Bounce Color True Basic Log Conversion LUTs/Fujifilm F-Log to Rec.709 LUT 33x33.cube
TITLE "Generated by Resolve"
LUT_3D_SIZE 33
0 0 0
0 0 0
0 0 0
0.000961318 0 0
0.0387884 0 0
0.0852674 0 0
0.132677 0 0
0.177798 0 0
0.222629 0 0
0.268238 0 0
0.315267 0 0
0.364126 0 0
0.415091 0 0
0.468254 0 0
0.523629 0 0
0.581064 0 0
0.640314 0 0
0.700938 0 0
0.762417 0 0
0.824079 0 0
0.885161 0 0
0.944854 0 0
1 0 0
1 0 0
1 0 0
1 0 0
1 0 0
1 0 0
1 0 0
1 0 0
1 0 0
1 0 0
1 0 0
0 0 0
0 0 0
0 0 0
0.000961318 0 0
0.0387884 0 0
0.0852674 0 0
0.132677 0 0
0.177798 0 0
0.222629 0 0
0.268238 0 0
0.315267 0 0
0.364126 0 0
0.415091 0 0
0.468254 0 0
0.523629 0 0
0.581064 0 0
0.640314 0 0
0.700938 0 0
0.762417 0 0
0.824079 0 0
0.885161 0 0
0.944854 0 0
1 0 0
1 0 0
1 0 0
1 0 0
1 0 0
1 0 0
1 0 0
1 0 0
1 0 0
1 0 0
1 0 0
0 0 0
0 0 0
0 0 0
0.000961318 0 0
0.0387884 0 0
0.0852674 0 0
0.132677 0 0
0.177798 0 0
0.222629 0 0
0.268238 0 0
0.315267 0 0
0.364126 0 0
0.415091 0 0
0.468254 0 0
0.523629 0 0
0.581064 0 0
0.640314 0 0
0.700938 0 0
0.762417 0 0
0.824079 0 0
0.885161 0 0
0.944854 0 0
1 0 0
1 0 0
1 0 0
1 0 0
1 0 0
1 0 0
1 0 0
1 0 0
1 0 0
1 0 0
1 0 0
0 0.000732433 0
0 0.000732433 0
0 0.000732433 0
0.000579843 0.000640879 0
0.038407 0 0
0.0849012 0 0
0.132403 0 0
0.177569 0 0
0.222431 0 0
0.26807 0 0
0.315129 0 0
0.364004 0 0
0.414984 0 0
0.468162 0 0
0.523537 0 0
0.580987 0 0
0.640238 0 0
0.700877 0 0
0.762371 0 0
0.824033 0 0
0.885115 0 0
0.944808 0 0
1 0 0
1 0 0
1 0 0
1 0 0
1 0 0
1 0 0
1 0 0
1 0 0
1 0 0
1 0 0
1 0 0
0 0.029633 0
0 0.029633 0
0 0.029633 0
0 0.0295262 0
0.0234379 0.0255283 0
0.0697185 0.0206455 0
0.121019 0.0146792 0
0.168505 0.00743114 0
0.214939 0 0
0.261723 0 0
0.309667 0 0
0.359243 0 0
0.410788 0 0
0.464454 0 0
0.520226 0 0
0.578027 0 0
0.637568 0 0
0.698451 0 0
0.760143 0 0
0.821988 0 0
0.883223 0 0
0.943053 0 0
1 0 0
1 0 0
1 0 0
1 0 0
1 0 0
1 0 0
1 0 0
1 0 0
1 0 0
1 0 0
1 0 0
0 0.0649882 0
0 0.0649882 0
0 0.0649882 0
0 0.0648966 0
0.00512703 0.0608988 0
0.0514076 0.0560006 0
0.10602 0.0500496 0
0.156878 0.0427863 0
0.205463 0.0339971 0
0.253758 0.0233768 0
0.302846 0.010605 0
0.353338 0 0
0.405615 0 0
0.459876 0 0
0.516152 0 0
0.57438 0 0
0.634272 0 0
0.69546 0 0
0.757427 0 0
0.819486 0 0
0.880919 0 0
0.940902 0 0
0.998657 0 0
1 0 0
1 0 0
1 0 0
1 0 0
1 0 0
1 0 0
1 0 0
1 0 0
1 0 0
1 0 0
0 0.106249 0
0 0.106249 0
0 0.106249 0
0 0.106157 0
0 0.102708 0
0.0290837 0.0983749 0
0.0856947 0.0929427 0
0.141756 0.0860761 0
0.193378 0.0771038 0
0.243748 0.0664836 0
0.294347 0.0537118 0
0.345998 0.038407 0
0.399207 0.0202182 0
0.454231 0 0
0.511147 0 0
0.569894 0 0
0.630228 0 0
0.691814 0 0
0.754086 0 0
0.816419 0 0
0.878096 0 0
0.938277 0 0
0.996201 0 0
1 0 0
1 0 0
1 0 0
1 0 0
1 0 0
1 0 0
1 0 0
1 0 0
1 0 0
1 0 0
0 0.146212 0
0 0.146212 0
0 0.146212 0
0 0.146136 0
0 0.143374 0
0.00192264 0.13994 0
0.0583505 0.135653 0
0.12166 0.130327 0
0.177829 0.123644 0
0.231067 0.115236 0
0.283696 0.104555 0
0.336873 0.0907912 0
0.391287 0.0726329 0
0.447272 0.0511635 0
0.504982 0.0260014 0
0.564385 0 0
0.625284 0 0
0.687327 0 0
0.750011 0 0
0.81268 0 0
0.874632 0 0
0.935073 0 0
0.993194 0 0
1 0 0
1 0 0
1 0 0
1 0 0
1 0 0
1 0 0
1 0 0
1 0 0
1 0 0
1 0 0
0 0.185931 0
0 0.185931 0
0 0.185931 0
0 0.18587 0
0 0.183566 0
0 0.180728 0
0.0254215 0.177203 0
0.0937667 0.172854 0
0.157397 0.167468 0
0.214832 0.160769 0
0.270268 0.152422 0
0.32549 0.141955 0
0.38146 0.12874 0
0.438682 0.111803 0
0.497398 0.0895857 0
0.557641 0.0604257 0
0.619226 0.027039 0
0.681865 0 0
0.745022 0 0
0.808118 0 0
0.870436 0 0
0.931167 0 0
0.989548 0 0
1 0 0
1 0 0
1 0 0
1 0 0
1 0 0
1 0 0
1 0 0
1 0 0
1 0 0
1 0 0
0 0.226337 0
0 0.226337 0
0 0.226337 0
0 0.226276 0
0 0.224338 0
0 0.221927 0
0 0.218952 0
0.0542611 0.215305 0
0.129686 0.210803 0
0.193744 0.205249 0
0.253208 0.198413 0
0.311223 0.18996 0
0.369253 0.179492 0
0.428077 0.166491 0
0.48809 0.150195 0
0.549371 0.129503 0
0.611841 0.102571 0
0.675181 0.0661173 0
0.738964 0.0241398 0
0.802579 0 0
0.865309 0 0
0.926421 0 0
0.985107 0 0
1 0 0
1 0 0
1 0 0
1 0 0
1 0 0
1 0 0
1 0 0
1 0 0
1 0 0
1 0 0
0 0.267994 0
0 0.267994 0
0 0.267994 0
0 0.267948 0
0 0.26627 0
0 0.264195 0
0 0.261646 0
0.00640879 0.258518 0
0.0896162 0.254688 0
0.165621 0.249989 0
0.231235 0.244221 0
0.293202 0.237156 0
0.354025 0.228519 0
0.414969 0.217945 0
0.476631 0.20499 0
0.539254 0.189075 0
0.602808 0.169406 0
0.667063 0.144823 0
0.731594 0.113298 0
0.79585 0.070573 0
0.859113 0.0211948 0
0.920668 0 0
0.979751 0 0
1 0 0
1 0 0
1 0 0
1 0 0
1 0 0
1 0 0
1 0 0
1 0 0
1 0 0
1 0 0
0 0.311284 0
0 0.311284 0
0 0.311284 0
0 0.311254 0
0 0.309789 0
0 0.307973 0
0 0.30576 0
0 0.303044 0
0.0323186 0.299733 0
0.126192 0.295674 0
0.202335 0.29073 0
0.270191 0.284703 0
0.334951 0.277378 0
0.398718 0.268513 0
0.462547 0.257771 0
0.526879 0.244816 0
0.591806 0.229206 0
0.657206 0.210391 0
0.722683 0.187655 0
0.787717 0.15993 0
0.851637 0.125368 0
0.913741 0.0797436 0
0.973281 0.0260777 0
1 0 0
1 0 0
1 0 0
1 0 0
1 0 0
1 0 0
1 0 0
1 0 0
1 0 0
1 0 0
0 0.35642 0
0 0.35642 0
0 0.35642 0
0 0.35639 0
0 0.355108 0
0 0.353521 0
0 0.351568 0
0 0.349203 0
0 0.346288 0
0.0647135 0.342748 0
0.162799 0.338445 0
0.24033 0.333227 0
0.310811 0.326925 0
0.3785 0.31931 0
0.445212 0.310201 0
0.511742 0.299306 0
0.578439 0.286366 0
0.645258 0.271077 0
0.71191 0.253086 0
0.777905 0.232013 0
0.842649 0.207385 0
0.905425 0.178485 0
0.96553 0.144198 0
1 0.10219 0
1 0.0498512 0
1 0 0
1 0 0
1 0 0
1 0 0
1 0 0
1 0 0
1 0 0
1 0 0
0 0.403525 0
0 0.403525 0
0 0.403525 0
0 0.403494 0
0 0.40235 0
0 0.400946 0
0 0.399222 0
0 0.397131 0
0 0.394568 0
0 0.391455 0
0.103746 0.387671 0
0.200275 0.383093 0
0.279866 0.377584 0
0.353201 0.370962 0
0.423819 0.363073 0
0.493278 0.353735 0
0.562234 0.342718 0
0.630854 0.32987 0
0.698955 0.314977 0
0.766155 0.297887 0
0.831891 0.278462 0
0.895506 0.25658 0
0.956298 0.232136 0
1 0.204974 0
1 0.174853 0
1 0.141238 0
1 0.102968 0
1 0.0587167 0
1 0.0171511 0
1 0 0
1 0 0
1 0 0
1 0 0
0 0.452583 0
0 0.452583 0
0 0.452583 0
0 0.452552 0
0 0.45153 0
0 0.450278 0
0 0.448753 0
0 0.446876 0
0 0.444602 0
0 0.441825 0
0.0110018 0.438483 0
0.142901 0.434424 0
0.239185 0.429572 0
0.321172 0.423743 0
0.397345 0.416846 0
0.470726 0.408682 0
0.542626 0.399145 0
0.613535 0.388098 0
0.683467 0.375418 0
0.752163 0.361059 0
0.819104 0.344991 0
0.883726 0.327245 0
0.945342 0.307942 0
1 0.287236 0
1 0.265354 0
1 0.242542 0
1 0.219059 0
1 0.195163 0
1 0.171084 0
1 0.147005 0
1 0.123018 0
1 0.0991684 0
1 0.075227 0
0 0.503471 0
0 0.503471 0
0 0.503471 0
0 0.503441 0
0 0.502525 0
0 0.501411 0
0 0.500038 0
0 0.49836 0
0 0.496315 0
0 0.493843 0
0 0.490837 0
0.0466011 0.487236 0
0.182879 0.482902 0
0.279866 0.477745 0
0.364309 0.471626 0
0.443137 0.464439 0
0.518929 0.456062 0
0.592798 0.446403 0
0.665034 0.435401 0
0.735561 0.423041 0
0.804013 0.409339 0
0.869841 0.3944 0
0.932479 0.378378 0
0.991333 0.361517 0
1 0.344076 0
1 0.32636 0
1 0.308705 0
1 0.291432 0
1 0.274815 0
1 0.259098 0
1 0.24448 0
1 0.231067 0
1 0.218952 0
0 0.555947 0
0 0.555947 0
0 0.555947 0
0 0.555932 0
0 0.555108 0
0 0.554086 0
0 0.55285 0
0 0.551339 0
0 0.549508 0
0 0.54728 0
0 0.544579 0
0 0.541329 0
0.0935225 0.537453 0
0.224475 0.53283 0
0.322545 0.527367 0
0.409262 0.520958 0
0.490364 0.513512 0
0.568063 0.504967 0
0.643229 0.495293 0
0.71606 0.484459 0
0.786328 0.472541 0
0.853651 0.459663 0
0.91751 0.44596 0
0.977356 0.431693 0
1 0.417121 0
1 0.402533 0
1 0.38822 0
1 0.374441 0
1 0.36144 0
1 0.349371 0
1 0.338369 0
1 0.328496 0
1 0.319753 0
0 0.609674 0
0 0.609674 0
0 0.609674 0
0 0.609644 0
0 0.608896 0
0 0.60798 0
0 0.606851 0
0 0.605478 0
0 0.603815 0
0 0.601801 0
0 0.599359 0
0 0.596429 0
0 0.59292 0
0.142947 0.588739 0
0.268223 0.583825 0
0.367315 0.578058 0
0.455879 0.571389 0
0.538689 0.563745 0
0.617609 0.555123 0
0.693294 0.54551 0
0.76582 0.534981 0
0.834943 0.523659 0
0.900252 0.511711 0
0.961288 0.499352 0
1 0.486809 0
1 0.474372 0
1 0.462272 0
1 0.450736 0
1 0.439948 0
1 0.430045 0
1 0.421103 0
1 0.413153 0
1 0.406165 0
0 0.664134 0
0 0.664134 0
0 0.664134 0
0 0.664118 0
0 0.663432 0
0 0.662593 0
0 0.661555 0
0 0.660304 0
0 0.658793 0
0 0.656947 0
0 0.654719 0
0 0.652049 0
0 0.648859 0
0 0.645075 0
0.192966 0.640604 0
0.314397 0.635386 0
0.41413 0.629343 0
0.503929 0.622461 0
0.587701 0.614679 0
0.666987 0.606058 0
0.742275 0.596643 0
0.813565 0.586557 0
0.880598 0.575967 0
0.943038 0.565042 0
1 0.55404 0
1 0.543175 0
1 0.532662 0
1 0.522713 0
1 0.513466 0
1 0.505013 0
1 0.497429 0
1 0.490715 0
1 0.484855 0
0 0.718761 0
0 0.718761 0
0 0.718761 0
0 0.718746 0
0 0.718105 0
0 0.717342 0
0 0.716396 0
0 0.715251 0
0 0.713848 0
0 0.712154 0
0 0.710124 0
0 0.707668 0
0 0.704753 0
0 0.701274 0
0.0644541 0.6972 0
0.244846 0.692424 0
0.363073 0.686931 0
0.462821 0.680644 0
0.553033 0.673594 0
0.636851 0.665766 0
0.715526 0.657267 0
0.789425 0.648173 0
0.858518 0.638636 0
0.922606 0.62887 0
0.98143 0.619043 0
1 0.609384 0
1 0.600092 0
1 0.591318 0
1 0.583185 0
1 0.575799 0
1 0.569192 0
1 0.563348 0
1 0.558267 0
0 0.772869 0
0 0.772869 0
0 0.772869 0
0 0.772854 0
0 0.772274 0
0 0.771557 0
0 0.770687 0
0 0.769619 0
0 0.768338 0
0 0.766766 0
0 0.764889 0
0 0.762631 0
0 0.75993 0
0 0.756741 0
0 0.752972 0
0.142611 0.748592 0
0.299107 0.743526 0
0.414115 0.737774 0
0.513069 0.731304 0
0.602701 0.724147 0
0.685542 0.716381 0
0.762585 0.708095 0
0.834089 0.699428 0
0.900084 0.690562 0
0.960433 0.681697 0
1 0.672984 0
1 0.664622 0
1 0.656764 0
1 0.6495 0
1 0.642908 0
1 0.637018 0
1 0.631846 0
1 0.627344 0
0 0.825757 0
0 0.825757 0
0 0.825757 0
0 0.825742 0
0 0.825193 0
0 0.824537 0
0 0.823713 0
0 0.822736 0
0 0.82153 0
0 0.820081 0
0 0.818326 0
0 0.816236 0
0 0.813733 0
0 0.810758 0
0 0.807263 0
0 0.803204 0
0.214145 0.79852 0
0.355779 0.793194 0
0.467201 0.787213 0
0.564385 0.780621 0
0.652369 0.773449 0
0.733135 0.765835 0
0.807477 0.757885 0
0.875654 0.749767 0
0.937743 0.74165 0
0.993744 0.7337 0
1 0.726085 0
1 0.718929 0
1 0.712352 0
1 0.706386 0
1 0.70106 0
1 0.696391 0
1 0.692332 0
0 0.876692 0
0 0.876692 0
0 0.876692 0
0 0.876677 0
0 0.876173 0
0 0.875547 0
0 0.874784 0
0 0.873869 0
0 0.87274 0
0 0.871382 0
0 0.869749 0
0 0.867781 0
0 0.865446 0
0 0.862669 0
0 0.859403 0
0 0.855619 0
0.0753948 0.85124 0
0.284001 0.846281 0
0.414542 0.840711 0
0.521782 0.834562 0
0.616144 0.827909 0
0.701366 0.820844 0
0.778973 0.813474 0
0.849653 0.805966 0
0.91368 0.798459 0
0.971206 0.791135 0
1 0.784115 0
1 0.777539 0
1 0.771496 0
1 0.766018 0
1 0.761151 0
1 0.756878 0
1 0.75317 0
0 0.925032 0
0 0.925032 0
0 0.925032 0
0 0.925017 0
0 0.924544 0
0 0.923949 0
0 0.923247 0
0 0.922362 0
0 0.921309 0
0 0.920027 0
0 0.918486 0
0 0.91664 0
0 0.914443 0
0 0.911833 0
0 0.908766 0
0 0.905196 0
0 0.901091 0
0.188952 0.896422 0
0.353628 0.891188 0
0.474784 0.885435 0
0.577142 0.87921 0
0.667628 0.872587 0
0.749004 0.865705 0
0.822477 0.858686 0
0.88864 0.851682 0
0.94786 0.844862 0
1 0.838331 0
1 0.832227 0
1 0.826612 0
1 0.821546 0
1 0.817029 0
1 0.813077 0
1 0.809644 0
0 0.970199 0
0 0.970199 0
0 0.970199 0
0 0.970199 0
0 0.969741 0
0 0.969177 0
0 0.968505 0
0 0.967681 0
0 0.966674 0
0 0.965469 0
0 0.964004 0
0 0.962249 0
0 0.960159 0
0 0.957687 0
0 0.954787 0
0 0.9514 0
0 0.947524 0
0.0288243 0.943099 0
0.281514 0.93817 0
0.423178 0.932723 0
0.535668 0.926848 0
0.63241 0.920607 0
0.718044 0.914107 0
0.794629 0.9075 0
0.863127 0.900923 0
0.924132 0.894514 0
0.978088 0.888395 0
1 0.882658 0
1 0.877394 0
1 0.872648 0
1 0.868421 0
1 0.864729 0
1 0.861524 0
0 1 0
0 1 0
0 1 0
0 1 0
0 1 0
0 1 0
0 1 0
0 1 0
0 1 0
0 1 0
0 1 0
0 1 0
0 1 0
0 0.999832 0
0 0.99707 0
0 0.993851 0
0 0.990143 0
0 0.985946 0
0.190524 0.981247 0
0.366522 0.976074 0
0.492149 0.970489 0
0.596246 0.964553 0
0.686687 0.958389 0
0.766629 0.952117 0
0.837629 0.945891 0
0.900526 0.939803 0
0.955962 0.934005 0
1 0.928588 0
1 0.923613 0
1 0.919127 0
1 0.915145 0
1 0.91165 0
1 0.908629 0
0 1 0
0 1 0
0 1 0
0 1 0
0 1 0
0 1 0
0 1 0
0 1 0
0 1 0
0 1 0
0 1 0
0 1 0
0 1 0
0 1 0
0 1 0
0 1 0
0 1 0
0 1 0
0.0484016 1 0
0.30367 1 0
0.446952 1 0
0.559731 1 0
0.655497 0.998337 0
0.739055 0.992355 0
0.812665 0.986389 0
0.877531 0.980591 0
0.934462 0.975067 0
0.984115 0.969894 0
1 0.965164 0
1 0.960891 0
1 0.957092 0
1 0.953765 0
1 0.950896 0
0 1 0
0 1 0
0 1 0
0 1 0
0 1 0
0 1 0
0 1 0
0 1 0
0 1 0
