MEDT/Pirringer/Unterricht/2025-02-26/Korrektur und Grading FootageFotos-20250226T115430Z-001/Korrektur und Grading FootageFotos/Bounce Color True Basic Log Conversion LUTs/Nikon N-Log to Rec.709 LUT 33x33.cube
TITLE "Generated by Resolve"
LUT_3D_SIZE 33
0 0 0
0 0 0
0 0 0
0 0 0
0.000991836 0 0
0.0647593 0 0
0.144625 0 0
0.218692 0 0
0.290578 0 0
0.361227 0 0
0.430671 0 0
0.498589 0 0
0.564508 0 0
0.628 0 0
0.688655 0 0
0.746532 0 0
0.80499 0 0
0.863172 0 0
0.920226 0 0
0.97528 0 0
1 0 0
1 0 0
1 0 0
1 0 0
1 0 0
1 0 0
1 0 0
1 0 0
1 0 0
1 0 0
1 0 0
1 0 0
1 0 0
0 0 0
0 0 0
0 0 0
0 0 0
0.000991836 0 0
0.0647593 0 0
0.144625 0 0
0.218692 0 0
0.290578 0 0
0.361227 0 0
0.430671 0 0
0.498589 0 0
0.564508 0 0
0.628 0 0
0.688655 0 0
0.746532 0 0
0.80499 0 0
0.863172 0 0
0.920226 0 0
0.97528 0 0
1 0 0
1 0 0
1 0 0
1 0 0
1 0 0
1 0 0
1 0 0
1 0 0
1 0 0
1 0 0
1 0 0
1 0 0
1 0 0
0 0 0
0 0 0
0 0 0
0 0 0
0.000991836 0 0
0.0647593 0 0
0.144625 0 0
0.218692 0 0
0.290578 0 0
0.361227 0 0
0.430671 0 0
0.498589 0 0
0.564508 0 0
0.628 0 0
0.688655 0 0
0.746532 0 0
0.80499 0 0
0.863172 0 0
0.920226 0 0
0.97528 0 0
1 0 0
1 0 0
1 0 0
1 0 0
1 0 0
1 0 0
1 0 0
1 0 0
1 0 0
1 0 0
1 0 0
1 0 0
1 0 0
0 0 0
0 0 0
0 0 0
0 0 0
0.000991836 0 0
0.0647593 0 0
0.144625 0 0
0.218692 0 0
0.290578 0 0
0.361227 0 0
0.430671 0 0
0.498589 0 0
0.564508 0 0
0.628 0 0
0.688655 0 0
0.746532 0 0
0.80499 0 0
0.863172 0 0
0.920226 0 0
0.97528 0 0
1 0 0
1 0 0
1 0 0
1 0 0
1 0 0
1 0 0
1 0 0
1 0 0
1 0 0
1 0 0
1 0 0
1 0 0
1 0 0
0 0.000717174 0
0 0.000717174 0
0 0.000717174 0
0 0.000717174 0
0.000610361 0.00062562 0
0.0643778 0 0
0.14435 0 0
0.218509 0 0
0.290425 0 0
0.36112 0 0
0.430579 0 0
0.498497 0 0
0.564431 0 0
0.627939 0 0
0.688579 0 0
0.746471 0 0
0.804944 0 0
0.863127 0 0
0.92018 0 0
0.975235 0 0
1 0 0
1 0 0
1 0 0
1 0 0
1 0 0
1 0 0
1 0 0
1 0 0
1 0 0
1 0 0
1 0 0
1 0 0
1 0 0
0 0.0468147 0
0 0.0468147 0
0 0.0468147 0
0 0.0468147 0
0 0.0467231 0
0.0398108 0.0407111 0
0.126528 0.0319219 0
0.20589 0.0199435 0
0.28069 0.00453193 0
0.353201 0 0
0.423941 0 0
0.492775 0 0
0.559411 0 0
0.623453 0 0
0.68452 0 0
0.742748 0 0
0.801511 0 0
0.859953 0 0
0.917205 0 0
0.972457 0 0
1 0 0
1 0 0
1 0 0
1 0 0
1 0 0
1 0 0
1 0 0
1 0 0
1 0 0
1 0 0
1 0 0
1 0 0
1 0 0
0 0.111528 0
0 0.111528 0
0 0.111528 0
0 0.111528 0
0 0.111437 0
0.00383001 0.106401 0
0.0967422 0.0987106 0
0.18616 0.0876173 0
0.265843 0.0720836 0
0.341314 0.0531319 0
0.414023 0.0306859 0
0.484276 0.00495918 0
0.551965 0 0
0.6168 0 0
0.678508 0 0
0.73724 0 0
0.796445 0 0
0.855253 0 0
0.91284 0 0
0.968368 0 0
1 0 0
1 0 0
1 0 0
1 0 0
1 0 0
1 0 0
1 0 0
1 0 0
1 0 0
1 0 0
1 0 0
1 0 0
1 0 0
0 0.17554 0
0 0.17554 0
0 0.17554 0
0 0.17554 0
0 0.175479 0
0 0.171847 0
0.0483101 0.16643 0
0.156252 0.158831 0
0.244358 0.148623 0
0.324453 0.135302 0
0.400122 0.118242 0
0.47245 0.0964065 0
0.54165 0.0682689 0
0.607645 0.0371862 0
0.670237 0.00422675 0
0.729686 0 0
0.789502 0 0
0.848829 0 0
0.906874 0 0
0.962768 0 0
1 0 0
1 0 0
1 0 0
1 0 0
1 0 0
1 0 0
1 0 0
1 0 0
1 0 0
1 0 0
1 0 0
1 0 0
1 0 0
0 0.237644 0
0 0.237644 0
0 0.237644 0
0 0.237644 0
0 0.237613 0
0 0.234791 0
0 0.23061 0
0.109941 0.224811 0
0.214008 0.217166 0
0.301472 0.207431 0
0.381537 0.195392 0
0.456794 0.180804 0
0.528084 0.163394 0
0.595636 0.142733 0
0.659434 0.118151 0
0.719829 0.0881361 0
0.780453 0.0501564 0
0.840497 0.00933852 0
0.899107 0 0
0.95552 0 0
1 0 0
1 0 0
1 0 0
1 0 0
1 0 0
1 0 0
1 0 0
1 0 0
1 0 0
1 0 0
1 0 0
1 0 0
1 0 0
0 0.298711 0
0 0.298711 0
0 0.298711 0
0 0.298711 0
0 0.298665 0
0 0.296376 0
0 0.292988 0
0.0349584 0.288304 0
0.170871 0.2822 0
0.270787 0.274495 0
0.357382 0.265126 0
0.436744 0.254017 0
0.510872 0.241108 0
0.580514 0.226398 0
0.645884 0.209857 0
0.707515 0.191287 0
0.769177 0.16907 0
0.830106 0.142275 0
0.889479 0.109392 0
0.946502 0.0673686 0
1 0.0225071 0
1 0 0
1 0 0
1 0 0
1 0 0
1 0 0
1 0 0
1 0 0
1 0 0
1 0 0
1 0 0
1 0 0
1 0 0
0 0.358709 0
0 0.358709 0
0 0.358709 0
0 0.358709 0
0 0.358679 0
0 0.356756 0
0 0.353902 0
0 0.349996 0
0.10515 0.3449 0
0.229831 0.338537 0
0.326574 0.330861 0
0.411749 0.321828 0
0.489708 0.311498 0
0.562036 0.299916 0
0.629419 0.287175 0
0.692622 0.273259 0
0.755596 0.257191 0
0.817609 0.238849 0
0.877913 0.218067 0
0.935714 0.194705 0
0.990311 0.168551 0
1 0.139254 0
1 0.106035 0
1 0.0674907 0
1 0.0301518 0
1 0 0
1 0 0
1 0 0
1 0 0
1 0 0
1 0 0
1 0 0
1 0 0
0 0.417395 0
0 0.417395 0
0 0.417395 0
0 0.417395 0
0 0.417365 0
0 0.415702 0
0 0.41326 0
0 0.409888 0
0.00158694 0.405539 0
0.17348 0.400107 0
0.287526 0.393576 0
0.38114 0.385962 0
0.46424 0.37731 0
0.540078 0.367712 0
0.609995 0.357244 0
0.675105 0.345968 0
0.739681 0.333165 0
0.803037 0.318853 0
0.864439 0.303059 0
0.923171 0.285924 0
0.978546 0.267613 0
1 0.248386 0
1 0.228504 0
1 0.20827 0
1 0.187976 0
1 0.16788 0
1 0.148226 0
1 0.129213 0
1 0.111009 0
1 0.0936904 0
1 0.0771496 0
1 0.0746166 0
1 0.0746166 0
0 0.474372 0
0 0.474372 0
0 0.474372 0
0 0.474372 0
0 0.474342 0
0 0.472877 0
0 0.470726 0
0 0.467781 0
0 0.463966 0
0.0859083 0.45922 0
0.237415 0.453529 0
0.343954 0.446937 0
0.434104 0.439475 0
0.514473 0.43122 0
0.587564 0.422309 0
0.655039 0.412757 0
0.721523 0.402029 0
0.78645 0.390143 0
0.849165 0.377203 0
0.90898 0.363394 0
0.965255 0.348913 0
1 0.334035 0
1 0.319066 0
1 0.304295 0
1 0.290013 0
1 0.276448 0
1 0.263828 0
1 0.252262 0
1 0.24184 0
1 0.232593 0
1 0.224475 0
1 0.223239 0
1 0.223239 0
0 0.529229 0
0 0.529229 0
0 0.529229 0
0 0.529229 0
0 0.529213 0
0 0.527901 0
0 0.525979 0
0 0.523354 0
0 0.519951 0
0 0.515724 0
0.169879 0.510689 0
0.298741 0.504845 0
0.398856 0.498253 0
0.485115 0.49099 0
0.562158 0.483192 0
0.632471 0.474876 0
0.701259 0.465568 0
0.768032 0.455329 0
0.832242 0.444266 0
0.893309 0.432563 0
0.950607 0.420417 0
1 0.408072 0
1 0.395819 0
1 0.383871 0
1 0.372503 0
1 0.361868 0
1 0.352117 0
1 0.343313 0
1 0.335515 0
1 0.328679 0
1 0.322774 0
1 0.321889 0
1 0.321889 0
0 0.581643 0
0 0.581643 0
0 0.581643 0
0 0.581643 0
0 0.581613 0
0 0.580438 0
0 0.578683 0
0 0.576303 0
0 0.57322 0
0 0.569421 0
0.0621805 0.564874 0
0.242634 0.559609 0
0.357809 0.553689 0
0.451896 0.547189 0
0.533852 0.540215 0
0.607599 0.532815 0
0.679042 0.524544 0
0.747951 0.515496 0
0.813886 0.505776 0
0.876341 0.495537 0
0.934783 0.484977 0
0.988739 0.474327 0
1 0.463798 0
1 0.453635 0
1 0.444038 0
1 0.435111 0
1 0.427008 0
1 0.419745 0
1 0.413336 0
1 0.407767 0
1 0.402991 0
1 0.402258 0
1 0.402258 0
0 0.631647 0
0 0.631647 0
0 0.631647 0
0 0.631647 0
0 0.631632 0
0 0.630549 0
0 0.628946 0
0 0.626764 0
0 0.623957 0
0 0.620462 0
0 0.616312 0
0.168246 0.611521 0
0.309346 0.606119 0
0.414267 0.600214 0
0.502464 0.593881 0
0.580346 0.587182 0
0.654948 0.579736 0
0.726284 0.571588 0
0.794171 0.56286 0
0.858198 0.553704 0
0.917906 0.544305 0
0.9729 0.534859 0
1 0.525582 0
1 0.516655 0
1 0.508247 0
1 0.500496 0
1 0.493462 0
1 0.48719 0
1 0.481682 0
1 0.476921 0
1 0.472831 0
1 0.472206 0
1 0.472206 0
0 0.68217 0
0 0.68217 0
0 0.68217 0
0 0.68217 0
0 0.682155 0
0 0.681163 0
0 0.679683 0
0 0.677684 0
0 0.67509 0
0 0.671885 0
0 0.668055 0
0.0393378 0.663661 0
0.246357 0.658717 0
0.368597 0.653315 0
0.465492 0.647532 0
0.548791 0.641413 0
0.627329 0.634638 0
0.701671 0.627237 0
0.771893 0.619333 0
0.837766 0.611063 0
0.898955 0.602594 0
0.955154 0.59411 0
1 0.585794 0
1 0.577829 0
1 0.570367 0
1 0.563485 0
1 0.557275 0
1 0.551751 0
1 0.546914 0
1 0.542733 0
1 0.539147 0
1 0.538613 0
1 0.538613 0
0 0.732448 0
0 0.732448 0
0 0.732448 0
0 0.732448 0
0 0.732433 0
0 0.731502 0
0 0.730144 0
0 0.728283 0
0 0.725887 0
0 0.722927 0
0 0.719387 0
0 0.715328 0
0.157015 0.710765 0
0.312383 0.705791 0
0.422034 0.700465 0
0.512551 0.69485 0
0.596078 0.688624 0
0.674067 0.681849 0
0.747082 0.674617 0
0.815122 0.667079 0
0.87805 0.659373 0
0.935637 0.651667 0
0.987716 0.644129 0
1 0.636942 0
1 0.630198 0
1 0.624018 0
1 0.618433 0
1 0.613489 0
1 0.609155 0
1 0.605417 0
1 0.602228 0
1 0.601755 0
1 0.601755 0
0 0.78175 0
0 0.78175 0
0 0.78175 0
0 0.78175 0
0 0.781735 0
0 0.780865 0
0 0.779599 0
0 0.777859 0
0 0.775631 0
0 0.772869 0
0 0.769589 0
0 0.765805 0
0.000579843 0.761578 0
0.240482 0.756954 0
0.370809 0.752026 0
0.471244 0.746822 0
0.56112 0.74107 0
0.643595 0.734798 0
0.719905 0.728145 0
0.790478 0.721187 0
0.85539 0.714107 0
0.914534 0.707042 0
0.96788 0.700145 0
1 0.693568 0
1 0.687419 0
1 0.681773 0
1 0.676707 0
1 0.672206 0
1 0.668284 0
1 0.664897 0
1 0.662013 0
1 0.66157 0
1 0.66157 0
0 0.829328 0
0 0.829328 0
0 0.829328 0
0 0.829328 0
0 0.829313 0
0 0.828504 0
0 0.827314 0
0 0.825681 0
0 0.82359 0
0 0.821012 0
0 0.817929 0
0 0.814404 0
0 0.810437 0
0.138109 0.806119 0
0.309529 0.801511 0
0.424369 0.796658 0
0.522499 0.791302 0
0.610437 0.785473 0
0.690654 0.779278 0
0.764141 0.772824 0
0.831281 0.766247 0
0.89218 0.759701 0
0.946914 0.753323 0
0.99556 0.74725 0
1 0.741573 0
1 0.736385 0
1 0.731716 0
1 0.727581 0
1 0.72398 0
1 0.720867 0
1 0.718227 0
1 0.71783 0
1 0.71783 0
0 0.874495 0
0 0.874495 0
0 0.874495 0
0 0.874495 0
0 0.874495 0
0 0.873716 0
0 0.872602 0
0 0.871061 0
0 0.869093 0
0 0.866651 0
0 0.863767 0
0 0.860426 0
0 0.856703 0
0 0.852644 0
0.233387 0.84831 0
0.371145 0.843748 0
0.480293 0.838712 0
0.574929 0.833249 0
0.659709 0.827436 0
0.736507 0.821393 0
0.806149 0.815244 0
0.868971 0.809125 0
0.925216 0.803174 0
0.975067 0.797513 0
1 0.792233 0
1 0.787396 0
1 0.783062 0
1 0.779217 0
1 0.775876 0
1 0.772992 0
1 0.770535 0
1 0.770169 0
1 0.770169 0
0 0.916701 0
0 0.916701 0
0 0.916701 0
0 0.916701 0
0 0.916686 0
0 0.915969 0
0 0.9149 0
0 0.913436 0
0 0.911574 0
0 0.909255 0
0 0.906508 0
0 0.903349 0
0 0.899825 0
0 0.895979 0
0.127443 0.891875 0
0.310185 0.887556 0
0.434562 0.882795 0
0.537484 0.877623 0
0.627573 0.872145 0
0.708095 0.866438 0
0.780468 0.860639 0
0.84538 0.854887 0
0.903227 0.849287 0
0.95436 0.843946 0
0.9991 0.838987 0
1 0.834455 0
1 0.830381 0
1 0.82678 0
1 0.823636 0
1 0.820935 0
1 0.818647 0
1 0.818296 0
1 0.818296 0
0 0.955489 0
0 0.955489 0
0 0.955489 0
0 0.955489 0
0 0.955474 0
0 0.954787 0
0 0.953765 0
0 0.952377 0
0 0.950591 0
0 0.948379 0
0 0.945769 0
0 0.942748 0
0 0.939376 0
0 0.935714 0
0 0.931807 0
0.238331 0.927703 0
0.385367 0.923156 0
0.498589 0.918242 0
0.594827 0.913024 0
0.679469 0.907607 0
0.754803 0.902098 0
0.821912 0.896635 0
0.881453 0.89131 0
0.933883 0.886259 0
0.979675 0.881559 0
1 0.877256 0
1 0.873396 0
1 0.869993 0
1 0.867033 0
1 0.864485 0
1 0.862303 0
1 0.861982 0
1 0.861982 0
0 0.990585 0
0 0.990585 0
0 0.990585 0
0 0.990585 0
0 0.990585 0
0 0.989914 0
0 0.988937 0
0 0.98761 0
0 0.985885 0
0 0.983764 0
0 0.981247 0
0 0.978363 0
0 0.975128 0
0 0.971603 0
0 0.967865 0
0.146578 0.963912 0
0.332494 0.959564 0
0.458778 0.954864 0
0.562066 0.949859 0
0.651194 0.944686 0
0.729656 0.939406 0
0.799054 0.934188 0
0.860319 0.929107 0
0.914092 0.924269 0
0.960922 0.919783 0
1 0.915694 0
1 0.912016 0
1 0.908766 0
1 0.905943 0
1 0.903502 0
1 0.901442 0
1 0.901122 0
1 0.901122 0
0 1 0
0 1 0
0 1 0
0 1 0
0 1 0
0 1 0
0 1 0
0 1 0
0 1 0
0 1 0
0 1 0
0 1 0
0 1 0
0 1 0
0 0.999939 0
0.00828565 0.996139 0
0.275273 0.991958 0
0.41857 0.987411 0
0.529854 0.982605 0
0.623819 0.977615 0
0.705516 0.972534 0
0.777234 0.967514 0
0.840238 0.962631 0
0.895323 0.957992 0
0.943191 0.953674 0
0.984436 0.949737 0
1 0.946197 0
1 0.943084 0
1 0.940368 0
1 0.938033 0
1 0.936049 0
1 0.93576 0
1 0.93576 0
0 1 0
0 1 0
0 1 0
0 1 0
0 1 0
0 1 0
0 1 0
0 1 0
0 1 0
0 1 0
0 1 0
0 1 0
0 1 0
0 1 0
0 1 0
0 1 0
0.211917 1 0
0.378393 1 0
0.498756 1 0
0.597803 1 0
0.682795 1 0
0.756832 0.996704 0
0.82153 0.991989 0
0.877913 0.987503 0
0.926757 0.983322 0
0.96878 0.979522 0
1 0.976104 0
1 0.973098 0
1 0.970474 0
1 0.968231 0
1 0.966308 0
1 0.966018 0
1 0.966018 0
0 1 0
0 1 0
0 1 0
0 1 0
0 1 0
0 1 0
0 1 0
0 1 0
0 1 0
0 1 0
0 1 0
0 1 0
0 1 0
0 1 0
0 1 0
0 1 0
0.13756 1 0
0.338674 1 0
0.469215 1 0
0.573526 1 0
0.661814 1 0
0.738109 1 0
0.80444 1 0
0.862028 1 0
0.911818 1 0
0.954559 1 0
0.991012 1 0
1 0.999054 0
1 0.996506 0
1 0.994324 0
1 0.992462 0
1 0.992172 0
1 0.992172 0
0 1 0
0 1 0
0 1 0
0 1 0
0 1 0
0 1 0
0 1 0
0 1 0
0 1 0
