MEDT/Pirringer/Unterricht/2025-02-26/Korrektur und Grading FootageFotos-20250226T115430Z-001/Korrektur und Grading FootageFotos/Bounce Color True Basic Log Conversion LUTs/Nikon N-Log to Rec.709 LUT 33x33.cube
TITLE "Generated by Resolve"
LUT_3D_SIZE 5
0 0 0
0.290578 0 0
0.80499 0 0
1 0 0
1 0 0
0 0.237644 0
0.214008 0.217166 0
0.780453 0.0501564 0
1 0 0
1 0 0
0 0.68217 0
0 0.67509 0
0.627329 0.634638 0
1 0.570367 0
1 0.538613 0
0 1 0
0 1 0
0.275273 0.991958 0
0.943191 0.953674 0
1 0.93576 0
0 1 0
0 1 0
0 1 0
0.866331 1 0
1 1 0
0 0 0.222599
0.279637 0 0.219486
0.801144 0 0.201694
1 0 0.173236
1 0 0.15906
0 0.221408 0.202914
0.199542 0.199542 0.199542
0.776471 0.0163729 0.180179
1 0 0.148653
1 0 0.132616
0 0.676509 0.0439612
0 0.669367 0.037705
0.622278 0.628519 0.00329595
1 0.563516 0
1 0.531334 0
0 1 0
0 1 0
0.263752 0.988205 0
0.939941 0.949752 0
1 0.931746 0
0 1 0
0 1 0
0 1 0
0.862776 1 0
1 1 0
0 0 0.647227
0.210941 0 0.646128
0.779599 0 0.640009
1 0 0.631006
1 0 0.626886
0 0.103899 0.640421
0.0966659 0.0630961 0.639307
0.754162 0 0.633127
1 0 0.624018
1 0 0.619837
0 0.644495 0.601556
0 0.636957 0.600366
0.593759 0.593759 0.593759
1 0.524269 0.583993
1 0.489433 0.579522
0 0.998062 0.539788
0 0.993393 0.538445
0.190341 0.9673 0.531044
0.921935 0.927886 0.520058
1 0.909407 0.515007
0 1 0.509255
0 1 0.50782
0 1 0.499947
0.842939 1 0.488258
1 1 0.482856
0 0 0.971756
0.049897 0 0.971038
0.747036 0 0.967117
1 0 0.961395
1 0 0.958785
0 0 0.967376
0 0 0.966674
0.720363 0 0.962737
1 0 0.95697
1 0 0.954345
0 0.594644 0.942992
0 0.586435 0.94226
0.549493 0.538994 0.938216
1 0.461051 0.93228
1 0.420966 0.929595
0 0.967819 0.906218
0 0.962997 0.905455
0.0116274 0.935958 0.901213
0.895018 0.895018 0.895018
1 0.875776 0.892195
0 1 0.889006
0 1 0.888212
0 1 0.883894
0.813138 1 0.877562
1 1 0.874678
0 0 1
0 0 1
0.731777 0 1
1 0 1
1 0 1
0 0 1
0 0 1
0.704463 0 1
1 0 1
1 0 1
0 0.57055 1
0 0.561975 1
0.528176 0.512184 1
1 0.429328 1
1 0.385992 1
0 0.95378 1
0 0.948867 1
0 0.921386 1
0.882521 0.879683 1
1 0.860059 1
0 1 1
0 1 1
0 1 1
0.799237 1 1
1 1 1
