MEDT/Pirringer/Unterricht/2025-02-26/Korrektur und Grading FootageFotos-20250226T115430Z-001/Korrektur und Grading FootageFotos/Bounce Color True Basic Log Conversion LUTs/Nikon N-Log to Rec.709 LUT 33x33.cube
TITLE "Generated by Resolve"
LUT_3D_SIZE 9
0 0 0
0.000991836 0 0
0.290578 0 0
0.564508 0 0
0.80499 0 0
1 0 0
1 0 0
1 0 0
1 0 0
0 0.000717174 0
0.000610361 0.00062562 0
0.290425 0 0
0.564431 0 0
0.804944 0 0
1 0 0
1 0 0
1 0 0
1 0 0
0 0.237644 0
0 0.237613 0
0.214008 0.217166 0
0.528084 0.163394 0
0.780453 0.0501564 0
1 0 0
1 0 0
1 0 0
1 0 0
0 0.474372 0
0 0.474342 0
0 0.463966 0
0.434104 0.439475 0
0.721523 0.402029 0
0.965255 0.348913 0
1 0.290013 0
1 0.24184 0
1 0.223239 0
0 0.68217 0
0 0.682155 0
0 0.67509 0
0.246357 0.658717 0
0.627329 0.634638 0
0.898955 0.602594 0
1 0.570367 0
1 0.546914 0
1 0.538613 0
0 0.874495 0
0 0.874495 0
0 0.869093 0
0 0.856703 0
0.480293 0.838712 0
0.806149 0.815244 0
1 0.792233 0
1 0.775876 0
1 0.770169 0
0 1 0
0 1 0
0 1 0
0 1 0
0.275273 0.991958 0
0.705516 0.972534 0
0.943191 0.953674 0
1 0.940368 0
1 0.93576 0
0 1 0
0 1 0
0 1 0
0 1 0
0 1 0
0.625742 1 0
0.886687 1 0
1 1 0
1 1 0
0 1 0
0 1 0
0 1 0
0 1 0
0 1 0
0.595728 1 0
0.866331 1 0
1 1 0
1 1 0
0 0 0.000640879
0.0009308 0 0.00062562
0.290562 0 0
0.564508 0 0
0.80499 0 0
1 0 0
1 0 0
1 0 0
1 0 0
0 0.000640879 0.000564584
0.000549325 0.000549325 0.000549325
0.29041 0 0
0.564416 0 0
0.804929 0 0
1 0 0
1 0 0
1 0 0
1 0 0
0 0.237613 0
0 0.237568 0
0.213977 0.217121 0
0.528069 0.163348 0
0.780453 0.0500801 0
1 0 0
1 0 0
1 0 0
1 0 0
0 0.474342 0
0 0.474327 0
0 0.463935 0
0.434089 0.439445 0
0.721523 0.401999 0
0.965255 0.348882 0
1 0.289982 0
1 0.24181 0
1 0.223194 0
0 0.68217 0
0 0.682139 0
0 0.675074 0
0.246326 0.658701 0
0.627314 0.634623 0
0.898955 0.602579 0
1 0.570352 0
1 0.546899 0
1 0.538598 0
0 0.874495 0
0 0.874479 0
0 0.869078 0
0 0.856703 0
0.480278 0.838697 0
0.806134 0.815244 0
1 0.792218 0
1 0.77586 0
1 0.770153 0
0 1 0
0 1 0
0 1 0
0 1 0
0.275242 0.991943 0
0.705501 0.972534 0
0.943175 0.953658 0
1 0.940368 0
1 0.935744 0
0 1 0
0 1 0
0 1 0
0 1 0
0 1 0
0.625727 1 0
0.886671 1 0
1 1 0
1 1 0
0 1 0
0 1 0
0 1 0
0 1 0
0 1 0
0.595712 1 0
0.866316 1 0
1 1 0
1 1 0
0 0 0.222599
0 0 0.222583
0.279637 0 0.219486
0.558877 0 0.212299
0.801144 0 0.201694
1 0 0.187533
1 0 0.173236
1 0 0.162783
1 0 0.15906
0 0 0.222553
0 0 0.222538
0.279484 0 0.21944
0.558801 0 0.212253
0.801083 0 0.201648
1 0 0.187488
1 0 0.17319
1 0 0.162722
1 0 0.159014
0 0.221408 0.202914
0 0.221363 0.202899
0.199542 0.199542 0.199542
0.522026 0.140841 0.191745
0.776471 0.0163729 0.180179
1 0 0.164599
1 0 0.148653
1 0 0.136858
1 0 0.132616
0 0.466072 0.151202
0 0.466056 0.151186
0 0.455467 0.14696
0.426703 0.430503 0.136995
0.717189 0.392218 0.121828
0.962097 0.337621 0.100542
1 0.276509 0.0771344
1 0.225864 0.0602426
1 0.206058 0.0544442
0 0.676509 0.0439612
0 0.676493 0.0439612
0 0.669367 0.037705
0.2336 0.652842 0.0235142
0.622278 0.628519 0.00329595
0.895537 0.596124 0
1 0.563516 0
1 0.539757 0
1 0.531334 0
0 0.870176 0
0 0.870176 0
0 0.864744 0
0 0.852293 0
0.47361 0.834195 0
0.802289 0.81059 0
1 0.787411 0
1 0.770947 0
1 0.765209 0
0 1 0
0 1 0
0 1 0
0 1 0
0.263752 0.988205 0
0.70106 0.968704 0
0.939941 0.949752 0
1 0.936385 0
1 0.931746 0
0 1 0
0 1 0
0 1 0
0 1 0
0 1 0
0.620676 1 0
0.883207 1 0
1 1 0
1 1 0
0 1 0
0 1 0
0 1 0
0 1 0
0 1 0
0.590387 1 0
0.862776 1 0
1 1 0
1 1 0
0 0 0.448722
0 0 0.448722
0.253285 0 0.447105
0.545861 0 0.443427
0.792325 0 0.438117
1 0 0.431312
1 0 0.42472
1 0 0.420096
1 0 0.418509
0 0 0.448692
0 0 0.448692
0.253117 0 0.447074
0.545785 0 0.443397
0.792279 0 0.438102
1 0 0.431281
1 0 0.424689
1 0 0.420081
1 0 0.418479
0 0.180301 0.438727
0 0.18024 0.438712
0.163119 0.154009 0.437064
0.508049 0.0763104 0.43331
0.767346 0 0.427878
0.999084 0 0.42089
1 0 0.414145
1 0 0.409415
1 0 0.407782
0 0.446708 0.415198
0 0.446693 0.415198
0 0.435645 0.413443
0.409476 0.409476 0.409476
0.70724 0.369055 0.403723
0.95491 0.310628 0.396323
1 0.243519 0.389166
1 0.18555 0.384131
1 0.161929 0.382376
0 0.663508 0.379217
0 0.663493 0.379202
0 0.656199 0.377295
0.202243 0.639323 0.372946
0.610681 0.614435 0.366644
0.887755 0.581216 0.358511
1 0.547677 0.350591
1 0.523171 0.345022
1 0.514473 0.343084
0 0.860319 0.328115
0 0.860304 0.328115
0 0.85481 0.325917
0 0.842191 0.320897
0.458137 0.82385 0.313619
0.7935 0.799924 0.304158
1 0.776394 0.294881
1 0.75967 0.288319
1 0.753841 0.28603
0 1 0.271382
0 1 0.271366
0 1 0.268757
0 0.994858 0.26276
0.235859 0.979644 0.253986
0.690867 0.959945 0.242451
0.93257 0.940795 0.231022
1 0.927291 0.222827
1 0.922606 0.219959
0 1 0.224887
0 1 0.224872
0 1 0.22179
0 1 0.214679
0 1 0.204181
0.609064 1 0.190173
0.875303 1 0.176028
1 1 0.165713
1 1 0.162051
0 1 0.206882
0 1 0.206882
0 1 0.203571
0 1 0.195911
0 1 0.184543
0.578119 1 0.169284
0.854658 1 0.153704
0.999252 1 0.142184
1 1 0.138079
0 0 0.647227
0 0 0.647227
0.210941 0 0.646128
0.526772 0 0.64361
0.779599 0 0.640009
1 0 0.635416
1 0 0.631006
1 0 0.627939
1 0 0.626886
0 0 0.647211
0 0 0.647211
0.210742 0 0.646113
0.52668 0 0.643595
0.779538 0 0.639994
1 0 0.635401
1 0 0.630991
1 0 0.627924
1 0 0.626871
0 0.103899 0.640421
0 0.103822 0.640421
0.0966659 0.0630961 0.639307
0.487434 0 0.636759
0.754162 0 0.633127
0.989242 0 0.628473
1 0 0.624018
1 0 0.620905
1 0 0.619837
0 0.417578 0.624704
0 0.417563 0.624704
0 0.405722 0.62356
0.383597 0.377523 0.620951
0.692805 0.33341 0.617212
0.944564 0.267903 0.612421
1 0.188357 0.607843
1 0.111574 0.604654
1 0.0753033 0.603555
0 0.644495 0.601556
0 0.64448 0.601556
0 0.636957 0.600366
0.149035 0.619532 0.59765
0.593759 0.593759 0.593759
0.876524 0.559258 0.588785
1 0.524269 0.583993
1 0.498573 0.580667
1 0.489433 0.579522
0 0.846052 0.570764
0 0.846036 0.570764
0 0.840436 0.569512
0 0.827588 0.566644
0.435142 0.808881 0.562524
0.780789 0.784436 0.557244
0.999344 0.760403 0.552193
1 0.743282 0.548653
1 0.737316 0.547448
0 0.998062 0.539788
0 0.998047 0.539788
0 0.993393 0.538445
0 0.982727 0.535409
0.190341 0.9673 0.531044
0.676066 0.947326 0.525444
0.921935 0.927886 0.520058
1 0.914168 0.516304
1 0.909407 0.515007
0 1 0.517235
0 1 0.517235
0 1 0.515831
0 1 0.512657
0 1 0.50808
0.592081 1 0.50222
0.86389 1 0.49659
1 1 0.492653
1 1 0.491295
0 1 0.509255
0 1 0.509239
0 1 0.50782
0 1 0.504601
0 1 0.499947
0.560174 1 0.493996
0.842939 1 0.488258
0.989425 1 0.484245
1 1 0.482856
0 0 0.830945
0 0 0.830945
0.143969 0 0.830106
0.501457 0 0.828183
0.763088 0 0.825452
0.995895 0 0.821958
1 0 0.818616
1 0 0.816312
1 0 0.815503
0 0 0.830945
0 0 0.830945
0.143694 0 0.830091
0.501366 0 0.828183
0.763043 0 0.825437
0.995865 0 0.821942
1 0 0.818616
1 0 0.816297
1 0 0.815503
0 0 0.825757
0 0 0.825757
0 0 0.824903
0.459922 0 0.82298
0.737041 0 0.820218
0.976593 0 0.816709
1 0 0.813336
1 0 0.811002
1 0 0.810208
0 0.377447 0.813855
0 0.377417 0.813855
0 0.364309 0.813001
0.348089 0.332753 0.811032
0.674022 0.2822 0.80824
0.931243 0.202853 0.804654
1 0.0900435 0.801251
1 0 0.798871
1 0 0.798062
0 0.619471 0.796582
0 0.619455 0.796582
0 0.611612 0.795697
0.0517739 0.593393 0.793683
0.571511 0.566384 0.790814
0.862043 0.530022 0.787152
1 0.492897 0.783658
1 0.465446 0.781231
1 0.455634 0.780392
0 0.827543 0.774044
0 0.827527 0.774029
0 0.821805 0.773129
0 0.808621 0.771054
0.404074 0.789425 0.768093
0.764309 0.764309 0.764309
0.986847 0.739574 0.760693
1 0.72192 0.75819
1 0.71574 0.757321
0 0.982696 0.751919
0 0.982681 0.751919
0 0.977935 0.750973
0 0.967086 0.748837
0.115297 0.951385 0.745785
0.656764 0.931029 0.741878
0.908248 0.911208 0.73814
1 0.897215 0.735561
1 0.892348 0.734661
0 1 0.736202
0 1 0.736187
0 1 0.735225
0 1 0.733043
0 1 0.729915
0.569772 1 0.725917
0.84918 1 0.722103
0.994659 0.999176 0.719448
1 0.994858 0.718532
0 1 0.730709
0 1 0.730709
0 1 0.729732
0 1 0.727535
0 1 0.724376
0.536477 1 0.720348
0.827817 1 0.716503
0.976776 1 0.713817
1 1 0.712902
0 0 0.971756
0 0 0.97174
0.049897 0 0.971038
0.476097 0 0.969421
0.747036 0 0.967117
0.983963 0 0.964187
1 0 0.961395
1 0 0.959457
1 0 0.958785
0 0 0.97174
0 0 0.97174
0.0495155 0 0.971023
0.476005 0 0.969421
0.746975 0 0.967117
0.983932 0 0.964187
1 0 0.961379
1 0 0.959442
1 0 0.95877
0 0 0.967376
0 0 0.967376
0 0 0.966674
0.43212 0 0.965042
0.720363 0 0.962737
0.964401 0 0.959792
1 0 0.95697
1 0 0.955016
1 0 0.954345
0 0.334997 0.957412
0 0.334951 0.957412
0 0.320211 0.95668
0.31078 0.284153 0.955047
0.655619 0.224109 0.952697
0.918364 0.118669 0.949722
1 0 0.946883
1 0 0.9449
1 0 0.944228
0 0.594644 0.942992
0 0.594629 0.942992
0 0.586435 0.94226
0 0.567361 0.940597
0.549493 0.538994 0.938216
0.84802 0.500587 0.93518
1 0.461051 0.93228
1 0.431571 0.930282
1 0.420966 0.929595
0 0.809522 0.924346
0 0.809506 0.924346
0 0.803632 0.923598
0 0.790127 0.921889
0.372183 0.770428 0.919463
0.748287 0.744625 0.91635
0.974777 0.719142 0.91339
1 0.700938 0.911345
1 0.69456 0.910628
0 0.967819 0.906218
0 0.967819 0.906218
0 0.962997 0.905455
0 0.951949 0.9037
0.0116274 0.935958 0.901213
0.637827 0.915236 0.898039
0.895018 0.895018 0.895018
1 0.880735 0.892912
1 0.875776 0.892195
0 1 0.893431
0 1 0.893431
0 1 0.892653
0 1 0.890883
0 1 0.888365
0.547677 1 0.88513
0.834913 0.997223 0.882063
0.982712 0.984573 0.879927
1 0.980194 0.879194
0 1 0.889006
0 1 0.889006
0 1 0.888212
0 1 0.886442
0 1 0.883894
0.512901 1 0.880659
0.813138 1 0.877562
0.964584 1 0.87541
1 1 0.874678
0 0 1
0 0 1
0 0 1
0.45774 0 1
0.735714 0 1
0.975616 0 1
1 0 1
1 0 1
1 0 1
0 0 1
0 0 1
0 0 1
0.457633 0 1
0.735653 0 1
0.97557 0 1
1 0 1
1 0 1
1 0 1
0 0 1
0 0 1
0 0 1
0.411795 0 1
0.708568 0 1
0.955856 0 1
1 0 1
1 0 1
1 0 1
0 0.302373 1
0 0.302327 1
0 0.286046 1
0.282322 0.245533 1
0.642557 0.174945 1
0.909346 0.0321813 1
1 0 1
1 0 1
1 0 1
0 0.576822 1
0 0.576791 1
0 0.568338 1
0 0.548608 1
0.5337 0.519173 1
0.838163 0.479149 1
1 0.437659 1
1 0.406485 1
1 0.395224 1
0 0.796796 1
0 0.79678 1
0 0.790799 1
0 0.77705 1
0.34847 0.756985 1
0.73698 0.730663 1
0.966354 0.704646 1
1 0.68603 1
1 0.6795 1
0 0.957397 0.997909
0 0.957382 0.997909
0 0.952499 0.997223
0 0.941314 0.995651
0 0.925139 0.993408
0.624369 0.904128 0.99057
0.88574 0.883635 0.987854
1 0.869154 0.985977
1 0.864103 0.985321
0 1 0.986435
0 1 0.986435
0 1 0.985733
0 1 0.984146
0 1 0.981888
0.531838 1 0.979004
0.824887 0.987137 0.976257
0.97435 0.97435 0.97435
1 0.969909 0.973693
0 1 0.982467
0 1 0.982467
0 1 0.981765
0 1 0.980163
0 1 0.97789
0.495918 1 0.97499
0.802823 1 0.972229
0.956054 1 0.970321
1 1 0.96965
0 0 1
0 0 1
0 0 1
0.451255 0 1
0.731777 0 1
0.972732 0 1
1 0 1
1 0 1
1 0 1
0 0 1
0 0 1
0 0 1
0.451148 0 1
0.731716 0 1
0.972686 0 1
1 0 1
1 0 1
1 0 1
0 0 1
0 0 1
0 0 1
0.404578 0 1
0.704463 0 1
0.952911 0 1
1 0 1
1 0 1
1 0 1
0 0.290379 1
0 0.290349 1
0 0.273411 1
0.271916 0.230976 1
0.637995 0.155322 1
0.906233 0.000915541 1
1 0 1
1 0 1
1 0 1
0 0.57055 1
0 0.570535 1
0 0.561975 1
0 0.542016 1
0.528176 0.512184 1
0.834745 0.471565 1
1 0.429328 1
1 0.397513 1
1 0.385992 1
0 0.79237 1
0 0.792355 1
0 0.786343 1
0 0.772503 1
0.339971 0.7523 1
0.733043 0.725795 1
0.963424 0.69958 1
1 0.680812 1
1 0.67425 1
0 0.95378 1
0 0.953765 1
0 0.948867 1
0 0.937636 1
0 0.921386 1
0.619684 0.900282 1
0.882521 0.879683 1
1 0.865125 1
1 0.860059 1
0 1 1
0 1 1
0 1 1
0 1 1
0 1 1
0.526284 1 1
0.821408 0.983642 1
0.97145 0.97081 1
1 0.966339 1
0 1 1
0 1 1
0 1 1
0 1 1
0 1 1
0.489937 1 1
0.799237 1 1
0.953094 1 1
1 1 1
