MEDT/Pirringer/Unterricht/2025-02-26/Korrektur und Grading FootageFotos-20250226T115430Z-001/Korrektur und Grading FootageFotos/Bounce Color True Basic Log Conversion LUTs/Panasonic V-Log to Rec.709 LUT 33x33.cube
TITLE "Generated by Resolve"
LUT_3D_SIZE 9
0 0 0
0 0 0
0.192874 0 0
0.428504 0 0
0.738582 0 0
1 0 0
1 0 0
1 0 0
1 0 0
0 0 0
0 0 0
0.192874 0 0
0.428504 0 0
0.738582 0 0
1 0 0
1 0 0
1 0 0
1 0 0
0 0.153216 0
0 0.153216 0
0.135515 0.137865 0
0.40322 0.0880751 0
0.724498 0 0
1 0 0
1 0 0
1 0 0
1 0 0
0 0.356832 0
0 0.356832 0
0 0.349584 0
0.324819 0.329091 0
0.68452 0.272862 0
1 0.149554 0
1 0 0
1 0 0
1 0 0
0 0.624796 0
0 0.624796 0
0 0.620706 0
0 0.609415 0
0.573968 0.580743 0
0.949966 0.531182 0
1 0.483604 0
1 0.462898 0
1 0.462898 0
0 0.897246 0
0 0.897246 0
0 0.894484 0
0 0.8869 0
0.321935 0.868009 0
0.827283 0.836606 0
1 0.808057 0
1 0.796185 0
1 0.796185 0
0 1 0
0 1 0
0 1 0
0 1 0
0 1 0
0.700877 1 0
0.993927 1 0
1 0.995605 0
1 0.995605 0
0 1 0
0 1 0
0 1 0
0 1 0
0 1 0
0.642023 1 0
0.954696 1 0
1 1 0
1 1 0
0 1 0
0 1 0
0 1 0
0 1 0
0 1 0
0.642023 1 0
0.954696 1 0
1 1 0
1 1 0
0 0 0
0 0 0
0.192874 0 0
0.428504 0 0
0.738582 0 0
1 0 0
1 0 0
1 0 0
1 0 0
0 0 0
0 0 0
0.192874 0 0
0.428504 0 0
0.738582 0 0
1 0 0
1 0 0
1 0 0
1 0 0
0 0.153216 0
0 0.153216 0
0.135515 0.137865 0
0.40322 0.0880751 0
0.724498 0 0
1 0 0
1 0 0
1 0 0
1 0 0
0 0.356832 0
0 0.356832 0
0 0.349584 0
0.324819 0.329091 0
0.68452 0.272862 0
1 0.149554 0
1 0 0
1 0 0
1 0 0
0 0.624796 0
0 0.624796 0
0 0.620706 0
0 0.609415 0
0.573968 0.580743 0
0.949966 0.531182 0
1 0.483604 0
1 0.462898 0
1 0.462898 0
0 0.897246 0
0 0.897246 0
0 0.894484 0
0 0.8869 0
0.321935 0.868009 0
0.827283 0.836606 0
1 0.808057 0
1 0.796185 0
1 0.796185 0
0 1 0
0 1 0
0 1 0
0 1 0
0 1 0
0.700877 1 0
0.993927 1 0
1 0.995605 0
1 0.995605 0
0 1 0
0 1 0
0 1 0
0 1 0
0 1 0
0.642023 1 0
0.954696 1 0
1 1 0
1 1 0
0 1 0
0 1 0
0 1 0
0 1 0
0 1 0
0.642023 1 0
0.954696 1 0
1 1 0
1 1 0
0 0 0.141939
0 0 0.141939
0.184665 0 0.139605
0.424567 0 0.133104
0.73637 0 0.116152
1 0 0.0847486
1 0 0.0535134
1 0 0.04094
1 0 0.04094
0 0 0.141939
0 0 0.141939
0.184665 0 0.139605
0.424567 0 0.133104
0.73637 0 0.116152
1 0 0.0847486
1 0 0.0535134
1 0 0.04094
1 0 0.04094
0 0.141054 0.127184
0 0.141054 0.127184
0.124666 0.124666 0.124666
0.399054 0.0701915 0.117617
0.722225 0 0.0990158
1 0 0.064332
1 0 0.0332952
1 0 0.0207218
1 0 0.0207218
0 0.351049 0.0790723
0 0.351049 0.0790723
0 0.343694 0.0757763
0.319677 0.32285 0.0667735
0.682109 0.265431 0.0447395
1 0.137148 0.00923171
1 0 0
1 0 0
1 0 0
0 0.62153 0
0 0.62153 0
0 0.617411 0
0 0.606058 0
0.571054 0.577218 0
0.948272 0.527321 0
1 0.479332 0
1 0.458442 0
1 0.458442 0
0 0.895033 0
0 0.895033 0
0 0.892271 0
0 0.884672 0
0.316747 0.865721 0
0.825315 0.834226 0
1 0.805585 0
1 0.793667 0
1 0.793667 0
0 1 0
0 1 0
0 1 0
0 1 0
0 1 0
0.698512 1 0
0.992325 1 0
1 0.993637 0
1 0.993637 0
0 1 0
0 1 0
0 1 0
0 1 0
0 1 0
0.639429 1 0
0.953002 1 0
1 1 0
1 1 0
0 1 0
0 1 0
0 1 0
0 1 0
0 1 0
0.639429 1 0
0.953002 1 0
1 1 0
1 1 0
0 0 0.336446
0 0 0.336446
0.160693 0 0.335317
0.413672 0 0.332235
0.730266 0 0.324544
1 0 0.311803
1 0 0.300252
1 0 0.295445
1 0 0.295445
0 0 0.336446
0 0 0.336446
0.160693 0 0.335317
0.413672 0 0.332235
0.730266 0 0.324544
1 0 0.311803
1 0 0.300252
1 0 0.295445
1 0 0.295445
0 0.103288 0.329488
0 0.103288 0.329488
0.0912337 0.0826429 0.328328
0.387457 0.0217441 0.325185
0.715999 0 0.317342
1 0 0.304311
1 0 0.2925
1 0 0.287587
1 0 0.287587
0 0.334844 0.309789
0 0.334844 0.309789
0 0.327138 0.308568
0.305241 0.305241 0.305241
0.675471 0.244144 0.29691
1 0.0984512 0.283024
1 0 0.270359
1 0 0.26508
1 0 0.26508
0 0.612543 0.255741
0 0.612543 0.255741
0 0.608362 0.254292
0 0.596826 0.250309
0.563043 0.567483 0.240299
0.943648 0.516609 0.223377
1 0.467521 0.207645
1 0.446067 0.200977
1 0.446067 0.200977
0 0.888991 0.136782
0 0.888991 0.136782
0 0.886198 0.134401
0 0.878538 0.127718
0.302174 0.859449 0.110216
0.819928 0.827695 0.0773022
1 0.79881 0.0462806
1 0.78677 0.0337072
1 0.78677 0.0337072
0 1 0
0 1 0
0 1 0
0 1 0
0 1 0
0.692058 1 0
0.98793 0.997665 0
1 0.988266 0
1 0.988266 0
0 1 0
0 1 0
0 1 0
0 1 0
0 1 0
0.632334 1 0
0.948409 1 0
1 1 0
1 1 0
0 1 0
0 1 0
0 1 0
0 1 0
0 1 0
0.632334 1 0
0.948409 1 0
1 1 0
1 1 0
0 0 0.592416
0 0 0.592416
0.0855726 0 0.591775
0.385672 0 0.590036
0.715053 0 0.585733
1 0 0.578729
1 0 0.572534
1 0 0.570016
1 0 0.570016
0 0 0.592416
0 0 0.592416
0.0855726 0 0.591775
0.385672 0 0.590036
0.715053 0 0.585733
1 0 0.578729
1 0 0.572534
1 0 0.570016
1 0 0.570016
0 0 0.588495
0 0 0.588495
0 0 0.587839
0.357473 0 0.586084
0.70045 0 0.58175
1 0 0.574701
1 0 0.56846
1 0 0.565927
1 0 0.565927
0 0.291554 0.577646
0 0.291554 0.577646
0 0.282765 0.576989
0.266835 0.257481 0.575189
0.658915 0.18352 0.570779
1 0 0.563577
1 0 0.557214
1 0 0.55462
1 0 0.55462
0 0.589883 0.550103
0 0.589883 0.550103
0 0.585534 0.549401
0 0.57351 0.547524
0.54287 0.54287 0.54287
0.932204 0.489357 0.535286
1 0.437171 0.528572
1 0.41416 0.525826
1 0.41416 0.525826
0 0.873976 0.50248
0 0.873976 0.50248
0 0.871138 0.501717
0 0.863325 0.499641
0.263371 0.843854 0.49453
0.806546 0.811429 0.486168
1 0.781888 0.478752
1 0.769574 0.4757
1 0.769574 0.4757
0 1 0.456703
0 1 0.456703
0 1 0.455863
0 1 0.45359
0 1 0.447929
0.675929 1 0.438682
0.977066 0.984466 0.430442
1 0.974929 0.427054
1 0.974929 0.427054
0 1 0.43679
0 1 0.43679
0 1 0.43592
0 1 0.433524
0 1 0.427604
0.614527 1 0.417914
0.937026 1 0.409247
1 1 0.405692
1 1 0.405692
0 1 0.43679
0 1 0.43679
0 1 0.43592
0 1 0.433524
0 1 0.427604
0.614527 1 0.417914
0.937026 1 0.409247
1 1 0.405692
1 1 0.405692
0 0 0.852674
0 0 0.852674
0 0 0.852247
0.335897 0 0.851072
0.689815 0 0.848157
1 0 0.843473
1 0 0.839353
1 0 0.837674
1 0 0.837674
0 0 0.852674
0 0 0.852674
0 0 0.852247
0.335897 0 0.851072
0.689815 0 0.848157
1 0 0.843473
1 0 0.839353
1 0 0.837674
1 0 0.837674
0 0 0.850019
0 0 0.850019
0 0 0.849592
0.303349 0 0.848402
0.674632 0 0.845502
1 0 0.840787
1 0 0.836652
1 0 0.834958
1 0 0.834958
0 0.205768 0.842741
0 0.205768 0.842741
0 0.193744 0.842313
0.19173 0.157443 0.841108
0.631266 0.0285496 0.838178
0.984329 0 0.833417
1 0 0.829236
1 0 0.827543
1 0 0.827543
0 0.551354 0.824598
0 0.551354 0.824598
0 0.546685 0.824155
0 0.533761 0.822934
0.508644 0.500603 0.819913
0.913451 0.441917 0.815045
1 0.383337 0.810773
1 0.356954 0.809018
1 0.356954 0.809018
0 0.849195 0.79443
0 0.849195 0.79443
0 0.84625 0.793957
0 0.838193 0.792691
0.187137 0.818067 0.789563
0.784482 0.784482 0.784482
1 0.75378 0.780011
1 0.740963 0.778195
1 0.740963 0.778195
0 1 0.76701
0 1 0.76701
0 1 0.766522
0 1 0.765194
0 1 0.761944
0.649058 0.986481 0.756664
0.959274 0.962814 0.75201
1 0.953033 0.750118
1 0.953033 0.750118
0 1 0.755581
0 1 0.755581
0 1 0.755093
0 1 0.75375
0 1 0.750439
0.58468 1 0.745068
0.918379 1 0.740353
1 1 0.738415
1 1 0.738415
0 1 0.755581
0 1 0.755581
0 1 0.755093
0 1 0.75375
0 1 0.750439
0.58468 1 0.745068
0.918379 1 0.740353
1 1 0.738415
1 1 0.738415
0 0 1
0 0 1
0 0 1
0.285832 0 1
0.666911 0 1
1 0 1
1 0 1
1 0 1
1 0 1
0 0 1
0 0 1
0 0 1
0.285832 0 1
0.666911 0 1
1 0 1
1 0 1
1 0 1
1 0 1
0 0 1
0 0 1
0 0 1
0.24744 0 1
0.651148 0 1
0.996719 0 1
1 0 1
1 0 1
1 0 1
0 0.0928054 1
0 0.0928054 1
0 0.0707408 1
0.0972763 0.010071 1
0.606012 0 1
0.968933 0 1
1 0 1
1 0 1
1 0 1
0 0.515236 1
0 0.515236 1
0 0.510231 1
0 0.49633 0.999725
0.476677 0.460426 0.997299
0.896696 0.395804 0.993378
1 0.329397 0.989944
1 0.298573 0.98854
1 0.298573 0.98854
0 0.826856 0.976883
0 0.826856 0.976883
0 0.823835 0.976501
0 0.815534 0.975494
0.0897231 0.794781 0.972992
0.764614 0.760067 0.968963
1 0.728252 0.965423
1 0.714931 0.963989
1 0.714931 0.963989
0 1 0.955169
0 1 0.955169
0 1 0.954787
0 1 0.95375
0 0.994507 0.951186
0.624567 0.96762 0.947051
0.94342 0.94342 0.94342
1 0.933425 0.941955
1 0.933425 0.941955
0 1 0.946212
0 1 0.946212
0 1 0.94583
0 1 0.944778
0 1 0.942184
0.557214 1 0.938018
0.901732 1 0.93434
1 1 0.93286
1 1 0.93286
0 1 0.946212
0 1 0.946212
0 1 0.94583
0 1 0.944778
0 1 0.942184
0.557214 1 0.938018
0.901732 1 0.93434
1 1 0.93286
1 1 0.93286
0 0 1
0 0 1
0 0 1
0.263111 0 1
0.657389 0 1
1 0 1
1 0 1
1 0 1
1 0 1
0 0 1
0 0 1
0 0 1
0.263111 0 1
0.657389 0 1
1 0 1
1 0 1
1 0 1
1 0 1
0 0 1
0 0 1
0 0 1
0.221332 0 1
0.641382 0 1
0.9906 0 1
1 0 1
1 0 1
1 0 1
0 0.0252384 1
0 0.0252384 1
0 0.00299077 1
0.0425879 0 1
0.595468 0 1
0.962615 0 1
1 0 1
1 0 1
1 0 1
0 0.49984 1
0 0.49984 1
0 0.494667 1
0 0.480308 1
0.463081 0.443091 1
0.889815 0.375555 1
1 0.304997 1
1 0.271656 1
1 0.271656 1
0 0.817624 1
0 0.817624 1
0 0.814557 1
0 0.806149 1
0.0344244 0.785138 1
0.75642 0.749935 1
1 0.717647 1
1 0.704097 1
1 0.704097 1
0 1 1
0 1 1
0 1 1
0 1 1
0 0.986984 1
0.614343 0.959869 1
0.936919 0.935439 1
1 0.925338 1
1 0.925338 1
0 1 1
0 1 1
0 1 1
0 1 1
0 1 1
0.545678 1 1
0.894896 1 1
1 1 1
1 1 1
0 1 1
0 1 1
0 1 1
0 1 1
0 1 1
0.545678 1 1
0.894896 1 1
1 1 1
1 1 1
0 0 1
0 0 1
0 0 1
0.263111 0 1
0.657389 0 1
1 0 1
1 0 1
1 0 1
1 0 1
0 0 1
0 0 1
0 0 1
0.263111 0 1
0.657389 0 1
1 0 1
1 0 1
1 0 1
1 0 1
0 0 1
0 0 1
0 0 1
0.221332 0 1
0.641382 0 1
0.9906 0 1
1 0 1
1 0 1
1 0 1
0 0.0252384 1
0 0.0252384 1
0 0.00299077 1
0.0425879 0 1
0.595468 0 1
0.962615 0 1
1 0 1
1 0 1
1 0 1
0 0.49984 1
0 0.49984 1
0 0.494667 1
0 0.480308 1
0.463081 0.443091 1
0.889815 0.375555 1
1 0.304997 1
1 0.271656 1
1 0.271656 1
0 0.817624 1
0 0.817624 1
0 0.814557 1
0 0.806149 1
0.0344244 0.785138 1
0.75642 0.749935 1
1 0.717647 1
1 0.704097 1
1 0.704097 1
0 1 1
0 1 1
0 1 1
0 1 1
0 0.986984 1
0.614343 0.959869 1
0.936919 0.935439 1
1 0.925338 1
1 0.925338 1
0 1 1
0 1 1
0 1 1
0 1 1
0 1 1
0.545678 1 1
0.894896 1 1
1 1 1
1 1 1
0 1 1
0 1 1
0 1 1
0 1 1
0 1 1
0.545678 1 1
0.894896 1 1
1 1 1
1 1 1
