MEDT/Pirringer/Unterricht/2025-02-26/Korrektur und Grading FootageFotos-20250226T115430Z-001/Korrektur und Grading FootageFotos/Bounce Color True Basic Log Conversion LUTs/Panasonic V-Log to Rec.709 LUT 33x33.cube
TITLE "Generated by Resolve"
LUT_3D_SIZE 5
0 0 0
0.192874 0 0
0.738582 0 0
1 0 0
1 0 0
0 0.153216 0
0.135515 0.137865 0
0.724498 0 0
1 0 0
1 0 0
0 0.624796 0
0 0.620706 0
0.573968 0.580743 0
1 0.483604 0
1 0.462898 0
0 1 0
0 1 0
0 1 0
0.993927 1 0
1 0.995605 0
0 1 0
0 1 0
0 1 0
0.954696 1 0
1 1 0
0 0 0.141939
0.184665 0 0.139605
0.73637 0 0.116152
1 0 0.0535134
1 0 0.04094
0 0.141054 0.127184
0.124666 0.124666 0.124666
0.722225 0 0.0990158
1 0 0.0332952
1 0 0.0207218
0 0.62153 0
0 0.617411 0
0.571054 0.577218 0
1 0.479332 0
1 0.458442 0
0 1 0
0 1 0
0 1 0
0.992325 1 0
1 0.993637 0
0 1 0
0 1 0
0 1 0
0.953002 1 0
1 1 0
0 0 0.592416
0.0855726 0 0.591775
0.715053 0 0.585733
1 0 0.572534
1 0 0.570016
0 0 0.588495
0 0 0.587839
0.70045 0 0.58175
1 0 0.56846
1 0 0.565927
0 0.589883 0.550103
0 0.585534 0.549401
0.54287 0.54287 0.54287
1 0.437171 0.528572
1 0.41416 0.525826
0 1 0.456703
0 1 0.455863
0 1 0.447929
0.977066 0.984466 0.430442
1 0.974929 0.427054
0 1 0.43679
0 1 0.43592
0 1 0.427604
0.937026 1 0.409247
1 1 0.405692
0 0 1
0 0 1
0.666911 0 1
1 0 1
1 0 1
0 0 1
0 0 1
0.651148 0 1
1 0 1
1 0 1
0 0.515236 1
0 0.510231 1
0.476677 0.460426 0.997299
1 0.329397 0.989944
1 0.298573 0.98854
0 1 0.955169
0 1 0.954787
0 0.994507 0.951186
0.94342 0.94342 0.94342
1 0.933425 0.941955
0 1 0.946212
0 1 0.94583
0 1 0.942184
0.901732 1 0.93434
1 1 0.93286
0 0 1
0 0 1
0.657389 0 1
1 0 1
1 0 1
0 0 1
0 0 1
0.641382 0 1
1 0 1
1 0 1
0 0.49984 1
0 0.494667 1
0.463081 0.443091 1
1 0.304997 1
1 0.271656 1
0 1 1
0 1 1
0 0.986984 1
0.936919 0.935439 1
1 0.925338 1
0 1 1
0 1 1
0 1 1
0.894896 1 1
1 1 1
