MEDT/Pirringer/Unterricht/2025-02-26/Korrektur und Grading FootageFotos-20250226T115430Z-001/Korrektur und Grading FootageFotos/Bounce Color True Basic Log Conversion LUTs/Panasonic V-Log to Rec.709 LUT 33x33.cube
TITLE "Generated by Resolve"
LUT_3D_SIZE 33
0 0 0
0 0 0
0 0 0
0 0 0
0 0 0
0.0491188 0 0
0.0974136 0 0
0.144137 0 0
0.192874 0 0
0.244938 0 0
0.301213 0 0
0.36228 0 0
0.428504 0 0
0.499855 0 0
0.575967 0 0
0.656001 0 0
0.738582 0 0
0.821881 0 0
0.9037 0 0
0.981735 0 0
1 0 0
1 0 0
1 0 0
1 0 0
1 0 0
1 0 0
1 0 0
1 0 0
1 0 0
1 0 0
1 0 0
1 0 0
1 0 0
0 0 0
0 0 0
0 0 0
0 0 0
0 0 0
0.0491188 0 0
0.0974136 0 0
0.144137 0 0
0.192874 0 0
0.244938 0 0
0.301213 0 0
0.36228 0 0
0.428504 0 0
0.499855 0 0
0.575967 0 0
0.656001 0 0
0.738582 0 0
0.821881 0 0
0.9037 0 0
0.981735 0 0
1 0 0
1 0 0
1 0 0
1 0 0
1 0 0
1 0 0
1 0 0
1 0 0
1 0 0
1 0 0
1 0 0
1 0 0
1 0 0
0 0 0
0 0 0
0 0 0
0 0 0
0 0 0
0.0491188 0 0
0.0974136 0 0
0.144137 0 0
0.192874 0 0
0.244938 0 0
0.301213 0 0
0.36228 0 0
0.428504 0 0
0.499855 0 0
0.575967 0 0
0.656001 0 0
0.738582 0 0
0.821881 0 0
0.9037 0 0
0.981735 0 0
1 0 0
1 0 0
1 0 0
1 0 0
1 0 0
1 0 0
1 0 0
1 0 0
1 0 0
1 0 0
1 0 0
1 0 0
1 0 0
0 0 0
0 0 0
0 0 0
0 0 0
0 0 0
0.0491188 0 0
0.0974136 0 0
0.144137 0 0
0.192874 0 0
0.244938 0 0
0.301213 0 0
0.36228 0 0
0.428504 0 0
0.499855 0 0
0.575967 0 0
0.656001 0 0
0.738582 0 0
0.821881 0 0
0.9037 0 0
0.981735 0 0
1 0 0
1 0 0
1 0 0
1 0 0
1 0 0
1 0 0
1 0 0
1 0 0
1 0 0
1 0 0
1 0 0
1 0 0
1 0 0
0 0 0
0 0 0
0 0 0
0 0 0
0 0 0
0.0491188 0 0
0.0974136 0 0
0.144137 0 0
0.192874 0 0
0.244938 0 0
0.301213 0 0
0.36228 0 0
0.428504 0 0
0.499855 0 0
0.575967 0 0
0.656001 0 0
0.738582 0 0
0.821881 0 0
0.9037 0 0
0.981735 0 0
1 0 0
1 0 0
1 0 0
1 0 0
1 0 0
1 0 0
1 0 0
1 0 0
1 0 0
1 0 0
1 0 0
1 0 0
1 0 0
0 0.0355077 0
0 0.0355077 0
0 0.0355077 0
0 0.0355077 0
0 0.0355077 0
0.0301976 0.0308843 0
0.079118 0.026276 0
0.130541 0.020676 0
0.182132 0.0132448 0
0.23621 0.00344854 0
0.29398 0 0
0.356237 0 0
0.423362 0 0
0.49546 0 0
0.572183 0 0
0.652705 0 0
0.735683 0 0
0.819303 0 0
0.901366 0 0
0.979599 0 0
1 0 0
1 0 0
1 0 0
1 0 0
1 0 0
1 0 0
1 0 0
1 0 0
1 0 0
1 0 0
1 0 0
1 0 0
1 0 0
0 0.0708629 0
0 0.0708629 0
0 0.0708629 0
0 0.0708629 0
0 0.0708629 0
0.011368 0.0662394 0
0.0602731 0.0616312 0
0.115938 0.0560311 0
0.170901 0.0486 0
0.227222 0.0388037 0
0.286625 0.0259709 0
0.350103 0.00932326 0
0.418204 0 0
0.491066 0 0
0.568399 0 0
0.649409 0 0
0.732784 0 0
0.816724 0 0
0.899046 0 0
0.977478 0 0
1 0 0
1 0 0
1 0 0
1 0 0
1 0 0
1 0 0
1 0 0
1 0 0
1 0 0
1 0 0
1 0 0
1 0 0
1 0 0
0 0.111101 0
0 0.111101 0
0 0.111101 0
0 0.111101 0
0 0.111101 0
0 0.107225 0
0.0373693 0.103258 0
0.0963455 0.0983139 0
0.15642 0.0915084 0
0.215869 0.082063 0
0.27744 0.068986 0
0.342504 0.0523232 0
0.411826 0.0309453 0
0.485649 0.00395209 0
0.563745 0 0
0.645365 0 0
0.729229 0 0
0.813565 0 0
0.896208 0 0
0.974899 0 0
1 0 0
1 0 0
1 0 0
1 0 0
1 0 0
1 0 0
1 0 0
1 0 0
1 0 0
1 0 0
1 0 0
1 0 0
1 0 0
0 0.153216 0
0 0.153216 0
0 0.153216 0
0 0.153216 0
0 0.153216 0
0 0.150118 0
0.00698863 0.14699 0
0.0664836 0.14313 0
0.135515 0.137865 0
0.2 0.130709 0
0.264805 0.120897 0
0.332189 0.107301 0
0.40322 0.0880751 0
0.47837 0.0609751 0
0.557504 0.0274815 0
0.639963 0 0
0.724498 0 0
0.809369 0 0
0.892424 0 0
0.97145 0 0
1 0 0
1 0 0
1 0 0
1 0 0
1 0 0
1 0 0
1 0 0
1 0 0
1 0 0
1 0 0
1 0 0
1 0 0
1 0 0
0 0.198215 0
0 0.198215 0
0 0.198215 0
0 0.198215 0
0 0.198215 0
0 0.195682 0
0 0.193133 0
0.0264134 0.190005 0
0.103838 0.185794 0
0.17734 0.180117 0
0.247288 0.172457 0
0.31809 0.162112 0
0.391592 0.148043 0
0.468589 0.128725 0
0.549172 0.101579 0
0.632776 0.0621653 0
0.718212 0.014435 0
0.803784 0 0
0.887419 0 0
0.966903 0 0
1 0 0
1 0 0
1 0 0
1 0 0
1 0 0
1 0 0
1 0 0
1 0 0
1 0 0
1 0 0
1 0 0
1 0 0
1 0 0
0 0.24683 0
0 0.24683 0
0 0.24683 0
0 0.24683 0
0 0.24683 0
0 0.244739 0
0 0.242634 0
0 0.240055 0
0.0528115 0.236606 0
0.143679 0.231968 0
0.222553 0.225788 0
0.29868 0.217533 0
0.375814 0.206546 0
0.455482 0.191943 0
0.538064 0.172473 0
0.623209 0.146334 0
0.709865 0.110353 0
0.796414 0.0586252 0
0.880812 0 0
0.960891 0 0
1 0 0
1 0 0
1 0 0
1 0 0
1 0 0
1 0 0
1 0 0
1 0 0
1 0 0
1 0 0
1 0 0
1 0 0
1 0 0
0 0.299611 0
0 0.299611 0
0 0.299611 0
0 0.299611 0
0 0.299611 0
0 0.297856 0
0 0.296086 0
0 0.293935 0
0 0.291051 0
0.0887922 0.287205 0
0.186465 0.282109 0
0.271626 0.275349 0
0.354345 0.266468 0
0.437858 0.254841 0
0.523278 0.23975 0
0.610559 0.220295 0
0.698878 0.195346 0
0.786725 0.163363 0
0.872145 0.12166 0
0.953017 0.0643626 0
1 0.00132753 0
1 0 0
1 0 0
1 0 0
1 0 0
1 0 0
1 0 0
1 0 0
1 0 0
1 0 0
1 0 0
1 0 0
1 0 0
0 0.356832 0
0 0.356832 0
0 0.356832 0
0 0.356832 0
0 0.356832 0
0 0.355337 0
0 0.353841 0
0 0.352026 0
0 0.349584 0
0.00131228 0.346349 0
0.129793 0.342077 0
0.232898 0.336446 0
0.324819 0.329091 0
0.41416 0.319554 0
0.503639 0.307378 0
0.593927 0.291981 0
0.68452 0.272862 0
0.774105 0.249516 0
0.860883 0.221515 0
0.942824 0.188418 0
1 0.149554 0
1 0.103304 0
1 0.0485847 0
1 0 0
1 0 0
1 0 0
1 0 0
1 0 0
1 0 0
1 0 0
1 0 0
1 0 0
1 0 0
0 0.418494 0
0 0.418494 0
0 0.418494 0
0 0.418494 0
0 0.418494 0
0 0.417212 0
0 0.41593 0
0 0.414374 0
0 0.412299 0
0 0.409552 0
0.0271611 0.405921 0
0.174197 0.40116 0
0.283482 0.394965 0
0.382147 0.386999 0
0.477668 0.376898 0
0.572183 0.364294 0
0.665888 0.348913 0
0.757839 0.330556 0
0.846433 0.309285 0
0.929778 0.285359 0
1 0.259251 0
1 0.231708 0
1 0.203494 0
1 0.175418 0
1 0.14818 0
1 0.122332 0
1 0.0982376 0
1 0.0785687 0
1 0.0785687 0
1 0.0785687 0
1 0.0785687 0
1 0.0785687 0
1 0.0785687 0
0 0.48426 0
0 0.48426 0
0 0.48426 0
0 0.48426 0
0 0.48426 0
0 0.483162 0
0 0.482063 0
0 0.48072 0
0 0.478935 0
0 0.47657 0
0 0.473442 0
0.0671397 0.469368 0
0.223026 0.464073 0
0.338445 0.457298 0
0.443305 0.448768 0
0.543969 0.438209 0
0.641993 0.425437 0
0.737133 0.410437 0
0.828122 0.393332 0
0.913298 0.374533 0
0.990982 0.354635 0
1 0.334401 0
1 0.314626 0
1 0.29604 0
1 0.27921 0
1 0.264469 0
1 0.251926 0
1 0.242741 0
1 0.242741 0
1 0.242741 0
1 0.242741 0
1 0.242741 0
1 0.242741 0
0 0.553429 0
0 0.553429 0
0 0.553429 0
0 0.553429 0
0 0.553429 0
0 0.552468 0
0 0.551507 0
0 0.550332 0
0 0.548775 0
0 0.546715 0
0 0.544015 0
0 0.540475 0
0.122683 0.535897 0
0.277028 0.530068 0
0.397772 0.522744 0
0.507622 0.513726 0
0.611734 0.502892 0
0.711192 0.490257 0
0.805356 0.476036 0
0.892897 0.460594 0
0.972381 0.444511 0
1 0.428428 0
1 0.413031 0
1 0.398871 0
1 0.386328 0
1 0.375555 0
1 0.366598 0
1 0.360143 0
1 0.360143 0
1 0.360143 0
1 0.360143 0
1 0.360143 0
1 0.360143 0
0 0.624796 0
0 0.624796 0
0 0.624796 0
0 0.624796 0
0 0.624796 0
0 0.623941 0
0 0.623102 0
0 0.622065 0
0 0.620706 0
0 0.618891 0
0 0.61651 0
0 0.613413 0
0 0.609415 0
0.18352 0.604318 0
0.336599 0.597925 0
0.461097 0.590097 0
0.573968 0.580743 0
0.679286 0.569894 0
0.7776 0.557748 0
0.868193 0.544686 0
0.949966 0.531182 0
1 0.517845 0
1 0.505196 0
1 0.49369 0
1 0.483604 0
1 0.475029 0
1 0.467964 0
1 0.462898 0
1 0.462898 0
1 0.462898 0
1 0.462898 0
1 0.462898 0
1 0.462898 0
0 0.696773 0
0 0.696773 0
0 0.696773 0
0 0.696773 0
0 0.696773 0
0 0.69601 0
0 0.695262 0
0 0.694347 0
0 0.693126 0
0 0.691524 0
0 0.689403 0
0 0.686656 0
0 0.683101 0
0 0.678599 0
0.250721 0.672953 0
0.401602 0.666056 0
0.52755 0.657832 0
0.640894 0.648341 0
0.744656 0.637766 0
0.839109 0.626429 0
0.923705 0.614816 0
0.997818 0.603387 0
1 0.59263 0
1 0.58291 0
1 0.574426 0
1 0.567269 0
1 0.561395 0
1 0.557198 0
1 0.557198 0
1 0.557198 0
1 0.557198 0
1 0.557198 0
1 0.557198 0
0 0.767468 0
0 0.767468 0
0 0.767468 0
0 0.767468 0
0 0.767468 0
0 0.766781 0
0 0.76611 0
0 0.765286 0
0 0.764187 0
0 0.762737 0
0 0.760845 0
0 0.758358 0
0 0.755169 0
0 0.751125 0
0.107622 0.746075 0
0.324422 0.739895 0
0.471275 0.73257 0
0.595804 0.724117 0
0.70663 0.714733 0
0.80592 0.704723 0
0.89395 0.694484 0
0.970565 0.684474 0
1 0.675074 0
1 0.666621 0
1 0.659266 0
1 0.653086 0
1 0.64802 0
1 0.644419 0
1 0.644419 0
1 0.644419 0
1 0.644419 0
1 0.644419 0
1 0.644419 0
0 0.834897 0
0 0.834897 0
0 0.834897 0
0 0.834897 0
0 0.834897 0
0 0.834272 0
0 0.833661 0
0 0.832898 0
0 0.831907 0
0 0.830579 0
0 0.828855 0
0 0.826596 0
0 0.823697 0
0 0.820005 0
0 0.815412 0
0.218128 0.809812 0
0.403662 0.803174 0
0.544182 0.795529 0
0.664118 0.78706 0
0.769329 0.778058 0
0.861433 0.768872 0
0.940978 0.759915 0
1 0.751522 0
1 0.743999 0
1 0.737469 0
1 0.731991 0
1 0.72752 0
1 0.72433 0
1 0.72433 0
1 0.72433 0
1 0.72433 0
1 0.72433 0
1 0.72433 0
0 0.897246 0
0 0.897246 0
0 0.897246 0
0 0.897246 0
0 0.897246 0
0 0.896666 0
0 0.896101 0
0 0.895399 0
0 0.894484 0
0 0.893263 0
0 0.891661 0
0 0.889586 0
0 0.8869 0
0 0.883497 0
0 0.879271 0
0.0264439 0.874113 0
0.321935 0.868009 0
0.486503 0.86099 0
0.618189 0.853239 0
0.73048 0.844999 0
0.827283 0.836606 0
0.910109 0.828443 0
0.979812 0.820813 0
1 0.813977 0
1 0.808057 0
1 0.803098 0
1 0.799054 0
1 0.796185 0
1 0.796185 0
1 0.796185 0
1 0.796185 0
1 0.796185 0
1 0.796185 0
0 0.953094 0
0 0.953094 0
0 0.953094 0
0 0.953094 0
0 0.953094 0
0 0.95256 0
0 0.952026 0
0 0.951385 0
0 0.950515 0
0 0.949371 0
0 0.947875 0
0 0.945937 0
0 0.943435 0
0 0.940261 0
0 0.936309 0
0 0.931502 0
0.218479 0.925811 0
0.423453 0.91928 0
0.570245 0.912062 0
0.690822 0.904418 0
0.792859 0.896635 0
0.879225 0.889067 0
0.951431 0.882017 0
1 0.8757 0
1 0.870237 0
1 0.865675 0
1 0.861936 0
1 0.859297 0
1 0.859297 0
1 0.859297 0
1 0.859297 0
1 0.859297 0
1 0.859297 0
0 1 0
0 1 0
0 1 0
0 1 0
0 1 0
0 1 0
0 1 0
0 1 0
0 0.999207 0
0 0.998123 0
0 0.996704 0
0 0.994873 0
0 0.992508 0
0 0.989502 0
0 0.985779 0
0 0.981231 0
0.0555428 0.97586 0
0.355535 0.969711 0
0.521889 0.962905 0
0.651896 0.955703 0
0.759564 0.948379 0
0.849607 0.941283 0
0.924361 0.934661 0
0.985565 0.92874 0
1 0.923629 0
1 0.919341 0
1 0.915862 0
1 0.91339 0
1 0.91339 0
1 0.91339 0
1 0.91339 0
1 0.91339 0
1 0.91339 0
0 1 0
0 1 0
0 1 0
0 1 0
0 1 0
0 1 0
0 1 0
0 1 0
0 1 0
0 1 0
0 1 0
0 1 0
0 1 0
0 1 0
0 1 0
0 1 0
0 1 0
0.282597 1 0
0.474708 1 0
0.615122 0.998825 0
0.728603 0.991852 0
0.822324 0.985092 0
0.899565 0.978805 0
0.962509 0.97319 0
1 0.968338 0
1 0.964263 0
1 0.960952 0
1 0.958618 0
1 0.958618 0
1 0.958618 0
1 0.958618 0
1 0.958618 0
1 0.958618 0
0 1 0
0 1 0
0 1 0
0 1 0
0 1 0
0 1 0
0 1 0
0 1 0
0 1 0
0 1 0
0 1 0
0 1 0
0 1 0
0 1 0
0 1 0
0 1 0
0 1 0
0.202518 1 0
0.430091 1 0
0.581643 1 0
0.700877 1 0
0.798108 1 0
0.877684 1 0
0.942229 1 0
0.993927 1 0
1 1 0
1 0.997864 0
1 0.995605 0
1 0.995605 0
1 0.995605 0
1 0.995605 0
1 0.995605 0
1 0.995605 0
0 1 0
0 1 0
0 1 0
0 1 0
0 1 0
0 1 0
0 1 0
0 1 0
0 1 0
0 1 0
0 1 0
0 1 0
0 1 0
0 1 0
0 1 0
0 1 0
0 1 0
0.106691 1 0
0.389105 1 0
0.552148 1 0
0.67686 1 0
0.777325 1 0
0.858991 1 0
0.924971 1 0
0.977691 1 0
1 1 0
1 1 0
1 1 0
1 1 0
1 1 0
1 1 0
1 1 0
1 1 0
0 1 0
0 1 0
0 1 0
0 1 0
0 1 0
0 1 0
0 1 0
0 1 0
0 1 0
0 1 0
0 1 0
0 1 0
0 1 0
0 1 0
0 1 0
0 1 0
0 1 0
0 1 0
0.352422 1 0
0.52694 1 0
0.656672 1 0
0.760006 1 0
0.843488 1 0
0.910704 1 0
0.964279 1 0
1 1 0
1 1 0
1 1 0
1 1 0
1 1 0
1 1 0
1 1 0
1 1 0
0 1 0
0 1 0
0 1 0
0 1 0
0 1 0
0 1 0
0 1 0
0 1 0
0 1 0
