MEDT/Pirringer/Unterricht/2025-02-26/Korrektur und Grading FootageFotos-20250226T115430Z-001/Korrektur und Grading FootageFotos/Bounce Color True Basic Log Conversion LUTs/RED RedLogFilm DragonColor2 to Rec.709 33x33.cube
TITLE "Generated by Resolve"
LUT_3D_SIZE 33
0 0 0
0 0 0
0 0 0
0 0 0
0.0169223 0 0
0.0386358 0 0
0.0663767 0 0
0.100343 0 0
0.135317 0 0
0.172229 0 0
0.210697 0 0
0.251621 0 0
0.295201 0 0
0.341817 0 0
0.391012 0 0
0.442496 0 0
0.496406 0 0
0.551995 0 0
0.60827 0 0
0.664683 0 0
0.719799 0 0
0.772854 0 0
0.822629 0 0
0.868589 0 0
0.910124 0 0
0.946899 0 0
0.978668 0 0
0.999802 0 0
0.999802 0 0
0.999802 0 0
0.999802 0 0
0.999802 0 0
0.999802 0 0
0 0 0
0 0 0
0 0 0
0 0 0
0.0169223 0 0
0.0386358 0 0
0.0663767 0 0
0.100343 0 0
0.135317 0 0
0.172229 0 0
0.210697 0 0
0.251621 0 0
0.295201 0 0
0.341817 0 0
0.391012 0 0
0.442496 0 0
0.496406 0 0
0.551995 0 0
0.60827 0 0
0.664683 0 0
0.719799 0 0
0.772854 0 0
0.822629 0 0
0.868589 0 0
0.910124 0 0
0.946899 0 0
0.978668 0 0
0.999802 0 0
0.999802 0 0
0.999802 0 0
0.999802 0 0
0.999802 0 0
0.999802 0 0
0 0 0
0 0 0
0 0 0
0 0 0
0.0169223 0 0
0.0386358 0 0
0.0663767 0 0
0.100343 0 0
0.135317 0 0
0.172229 0 0
0.210697 0 0
0.251621 0 0
0.295201 0 0
0.341817 0 0
0.391012 0 0
0.442496 0 0
0.496406 0 0
0.551995 0 0
0.60827 0 0
0.664683 0 0
0.719799 0 0
0.772854 0 0
0.822629 0 0
0.868589 0 0
0.910124 0 0
0.946899 0 0
0.978668 0 0
0.999802 0 0
0.999802 0 0
0.999802 0 0
0.999802 0 0
0.999802 0 0
0.999802 0 0
0 0 0
0 0 0
0 0 0
0 0 0
0.0168612 0 0
0.0385901 0 0
0.0663157 0 0
0.100313 0 0
0.135286 0 0
0.172198 0 0
0.210681 0 0
0.251606 0 0
0.295186 0 0
0.341802 0 0
0.390997 0 0
0.442481 0 0
0.496391 0 0
0.55198 0 0
0.608255 0 0
0.664668 0 0
0.719799 0 0
0.772839 0 0
0.822614 0 0
0.868589 0 0
0.910124 0 0
0.946899 0 0
0.978668 0 0
0.999802 0 0
0.999802 0 0
0.999802 0 0
0.999802 0 0
0.999802 0 0
0.999802 0 0
0 0.0160983 0
0 0.0160983 0
0 0.0160983 0
0 0.0160678 0
0.0149691 0.0149691 0
0.0369879 0.0137789 7.62951e-05
0.0645762 0.0120394 0
0.0987869 0.00991836 0
0.134295 0.00740063 4.57771e-05
0.171084 0.00401312 0
0.209873 0 0
0.250675 0 0
0.294438 0 0
0.3411 0 0
0.390433 0 0
0.441932 0 0
0.495949 0 0
0.551583 0 0
0.607935 0 0
0.664393 0 0
0.719463 0 0
0.772534 0 0
0.822324 0 0
0.868315 0 0
0.909865 0 0
0.946654 0 0
0.978424 0 0
0.999802 0 0
0.999802 0 0
0.999802 0 0
0.999802 0 0
0.999802 0 0
0.999802 0 0
0 0.0366522 0
0 0.0366522 0
0 0.0366522 0
0 0.0366217 0
0.012253 0.0356146 0
0.0343328 0.0343328 0
0.0620127 0.0327306 0
0.0966201 0.0306401 7.62951e-05
0.132494 0.0278935 0
0.169451 0.0245365 0
0.208728 0.0205386 0.000137331
0.249943 0.0153201 0
0.293965 0.00898756 0
0.340566 0.0012665 0
0.389639 0 0
0.44123 0 0
0.495445 0 0
0.551049 0 0
0.607492 0 0
0.663951 0 0
0.719036 0 0
0.772137 0 0
0.821958 0 0
0.867979 0 0
0.909545 0 0
0.946334 0 0
0.978119 0 0
0.999802 0 0
0.999802 0 0
0.999802 0 0
0.999802 0 0
0.999802 0 0
0.999802 0 0
0 0.0626078 0
0 0.0626078 0
0 0.0626078 0
0 0.0625925 0
0.00918593 0.0616312 0
0.0311284 0.0604562 7.62951e-05
0.0587167 0.0587167 0
0.09337 0.0566262 0
0.130098 0.0540627 6.10361e-05
0.167391 0.0507362 0
0.206744 0.046479 0
0.248463 0.0415198 0
0.292561 0.0350652 0
0.339467 0.0274662 0
0.388861 0.0179446 0
0.440894 0.00686656 6.10361e-05
0.494697 0 0
0.550378 0 0
0.606851 0 0
0.663386 0 0
0.718502 0 0
0.771649 0 0
0.8215 0 0
0.867536 0 0
0.909133 0 0
0.945937 0 0
0.977737 0 0
0.999802 0 0
0.999802 0 0
0.999802 0 0
0.999802 0 0
0.999802 0 0
0.999802 0 0
0 0.0953231 0
0 0.0953231 0
0 0.0953231 0
0 0.0952926 0
0.00508125 0.0944533 0.000137331
0.027039 0.0931106 1.5259e-05
0.0544289 0.0915694 0
0.0897383 0.0897383 1.5259e-05
0.126833 0.0871595 3.0518e-05
0.164889 0.0838788 0
0.204898 0.0796521 7.62951e-05
0.246509 0.0744793 0
0.290867 0.06804 0
0.338109 0.0603799 7.62951e-05
0.387549 0.0509194 0
0.439734 0.0398413 3.0518e-05
0.494102 0.0267948 0
0.549615 0.0114748 0
0.606043 0 0
0.662638 0 0
0.71783 0 0
0.771023 0 0
0.82092 0 0
0.866987 0 0
0.908598 0 0
0.945434 0 0
0.977264 0 0
0.999802 0 0
0.999802 0 0
0.999802 0 0
0.999802 0 0
0.999802 0 0
0.999802 0 0
0 0.129351 0
0 0.129351 0
0 0.129351 0
0 0.129335 0
0 0.128725 0
0.0216068 0.127687 0
0.0495308 0.126497 7.62951e-05
0.0847334 0.124926 9.15541e-05
0.122866 0.122866 0
0.161624 0.120211 0
0.201862 0.116854 0
0.244404 0.112871 6.10361e-05
0.288899 0.107561 0
0.336065 0.100801 0
0.386175 0.0924392 7.62951e-05
0.438407 0.0815442 0
0.492729 0.0682841 0
0.548806 0.0531624 7.62951e-05
0.605341 0.0361944 0
0.661936 0.01738 0
0.716976 0 0
0.77023 0 0
0.820172 0 0
0.866346 0 0
0.907942 0 0
0.944808 0 0
0.976654 0 0
0.999802 0 0
0.999802 0 0
0.999802 0 0
0.999802 0 0
0.999802 0 0
0.999802 0 0
0 0.164935 0
0 0.164935 0
0 0.164935 0
0 0.16492 0
0 0.164248 0
0.0149996 0.163607 0
0.0427405 0.162448 0
0.0778821 0.161334 7.62951e-05
0.117678 0.159609 9.15541e-05
0.157412 0.157412 0.000106813
0.198245 0.154711 0
0.241199 0.151202 0
0.286168 0.14696 0
0.334218 0.141649 9.15541e-05
0.384131 0.134951 4.57771e-05
0.436683 0.126528 0
0.491234 0.116487 0
0.547219 0.103716 0
0.604074 0.0883192 0
0.660777 0.0694285 0
0.716335 0.049546 1.5259e-05
0.769696 0.0284428 0
0.819791 0.00743114 6.10361e-05
0.865614 0 0
0.90721 0 0
0.944015 0 0
0.975891 0 0
0.999802 0 0
0.999802 0 0
0.999802 0 0
0.999802 0 0
0.999802 0 0
0.999802 0 0
0 0.202564 0
0 0.202564 0
0 0.202564 0
0 0.202548 0
0 0.201984 0
0.00686656 0.201419 0
0.0346227 0.200412 0
0.0695048 0.199268 0
0.111055 0.198093 9.15541e-05
0.15201 0.196292 1.5259e-05
0.193957 0.193957 3.0518e-05
0.237613 0.191028 4.57771e-05
0.283101 0.187472 0
0.331228 0.182971 0
0.381674 0.177447 0
0.434333 0.170718 0
0.489296 0.162753 3.0518e-05
0.545495 0.15285 0
0.602625 0.141329 7.62951e-05
0.659312 0.127474 0
0.714931 0.111635 0
0.768582 0.0934157 3.0518e-05
0.818662 0.0725567 0
0.864958 0.0518807 0
0.9066 0.0318456 0
0.943496 0.0135653 4.57771e-05
0.974929 0 0
0.999802 0 0
0.999802 0 0
0.999802 0 0
0.999802 0 0
0.999802 0 0
0.999802 0 0
0 0.242527 0
0 0.242527 0
0 0.242527 0
0 0.242512 0
0 0.242115 0
0 0.241489 0
0.024445 0.240726 0
0.0595407 0.239689 0
0.102296 0.238499 1.5259e-05
0.144961 0.236988 0
0.188174 0.235004 0
0.232563 0.232563 0
0.278767 0.229587 0
0.327459 0.225788 0
0.378454 0.221149 0
0.431739 0.21561 0
0.487068 0.209003 4.57771e-05
0.543557 0.200977 0
0.600626 0.191577 0
0.657633 0.181079 1.5259e-05
0.713466 0.168826 0
0.766903 0.155627 0
0.817349 0.141238 0
0.863645 0.125978 1.5259e-05
0.905348 0.110124 0
0.94229 0.094255 7.62951e-05
0.974166 0.0778668 0
1 0.0634165 9.15541e-05
0.999985 0.0507668 0
1 0.0400092 6.10361e-05
1 0.0310826 0.000122072
0.999954 0.0251469 0
0.999954 0.0251469 0
0 0.285054 0
0 0.285054 0
0 0.285054 0
0 0.285054 0
0 0.284627 0
0 0.284092 0
0.0119936 0.283574 3.0518e-05
0.0469215 0.282719 4.57771e-05
0.0911269 0.281651 6.10361e-05
0.136339 0.280339 0.000122072
0.18117 0.278599 0.000106813
0.226535 0.276478 0
0.273762 0.273762 0
0.323339 0.27068 7.62951e-05
0.374701 0.266712 0
0.42826 0.261936 0
0.483864 0.256245 0
0.540871 0.24976 6.10361e-05
0.598321 0.242008 1.5259e-05
0.655512 0.233188 0
0.711391 0.223392 0
0.764996 0.213092 0
0.81561 0.202029 1.5259e-05
0.861891 0.190478 0
0.903685 0.179156 0
0.940627 0.168078 0
0.972717 0.157534 0
0.999878 0.147906 0
0.999954 0.139162 0
1 0.131441 1.5259e-05
1 0.124758 0.000183108
1 0.120104 9.15541e-05
1 0.120104 9.15541e-05
0 0.330205 0
0 0.330205 0
0 0.330205 0
0 0.33019 0
0 0.329824 0
0 0.329351 0
0 0.328756 0
0.0315557 0.328084 0
0.0758068 0.327153 0
0.124712 0.326116 0
0.171893 0.324651 0
0.21915 0.32285 4.57771e-05
0.267521 0.320424 0
0.317739 0.317739 0
0.369879 0.31426 0
0.424079 0.310216 0
0.480095 0.305364 0
0.537316 0.299718 0
0.595102 0.293187 0
0.652659 0.285771 0
0.70898 0.277928 1.5259e-05
0.762661 0.269245 0
0.813397 0.260304 0
0.859846 0.251133 0
0.901915 0.242252 3.0518e-05
0.939116 0.233677 3.0518e-05
0.971038 0.225528 0
0.998306 0.218357 0
1 0.212177 6.10361e-05
1 0.206424 6.10361e-05
1 0.201846 0.000137331
1 0.198596 0.000137331
1 0.198596 0.000137331
0 0.377966 0
0 0.377966 0
0 0.377966 0
0 0.377951 0
0 0.377691 0
1.5259e-05 0.37734 1.5259e-05
1.5259e-05 0.376822 1.5259e-05
0.0128786 0.37612 0
0.0571603 0.375296 0
0.109834 0.374441 0
0.16022 0.373205 0
0.209583 0.371527 0
0.259556 0.369421 0
0.310857 0.367071 0
0.364141 0.364141 0
0.419211 0.360616 3.0518e-05
0.475746 0.356481 0
0.533639 0.351537 9.15541e-05
0.591852 0.345953 3.0518e-05
0.649561 0.339712 0
0.705867 0.332876 0
0.760021 0.325505 0
0.810727 0.317891 0
0.857664 0.31046 0
0.899489 0.302983 0
0.936812 0.296086 0
0.969055 0.289738 3.0518e-05
0.996277 0.283955 0
1 0.278935 0.000167849
0.999985 0.274495 0
1 0.270909 0.000244144
1 0.268482 6.10361e-05
1 0.268482 6.10361e-05
0 0.428275 0
0 0.428275 0
0 0.428275 0
0 0.428275 0
0 0.427985 0
0 0.427619 0
0 0.427161 0
0 0.426581 0
0.0350042 0.42591 0
0.090486 0.425101 3.0518e-05
0.145678 0.424079 0.000106813
0.197711 0.422522 0
0.249805 0.420844 0
0.30277 0.418753 1.5259e-05
0.357321 0.416159 0.000106813
0.412894 0.412894 0
0.470375 0.409232 0
0.528542 0.405051 0
0.587411 0.400153 3.0518e-05
0.64564 0.394736 0
0.702388 0.38883 0
0.756695 0.382544 0
0.807782 0.376013 0
0.854749 0.369787 7.62951e-05
0.896864 0.363455 0
0.934112 0.357763 0
0.966369 0.352178 0
0.993988 0.347463 0
1 0.343282 9.15541e-05
1 0.339864 0.00015259
1 0.336751 0.000167849
1 0.334752 6.10361e-05
1 0.334752 6.10361e-05
0 0.480583 0
0 0.480583 0
0 0.480583 0
0 0.480583 0
0 0.480323 0
0 0.480003 0
0 0.479606 0
0 0.47921 0
0.00889601 0.478645 0
0.0644236 0.477943 0
0.126589 0.476829 0
0.18323 0.47567 0
0.238148 0.474174 9.15541e-05
0.292912 0.472068 0
0.348623 0.469902 0
0.405798 0.467185 0
0.464012 0.464012 7.62951e-05
0.522835 0.46006 0
0.582238 0.455787 0
0.640925 0.451057 0
0.698039 0.44593 0
0.753002 0.440375 0
0.804044 0.434806 0
0.851209 0.429404 1.5259e-05
0.89366 0.423972 4.57771e-05
0.930953 0.41883 0
0.963378 0.414374 0
0.991028 0.410163 0
1 0.406851 7.62951e-05
1 0.403723 0.000106813
1 0.401068 0.000106813
1 0.399359 1.5259e-05
1 0.399359 1.5259e-05
0 0.534783 0
0 0.534783 0
0 0.534783 0
0 0.534783 0
0 0.5346 0
0 0.53431 0
0 0.533944 0
0 0.533471 0
0 0.532876 0
0.0345922 0.532219 0
0.102373 0.531273 0
0.165499 0.530236 7.62951e-05
0.223697 0.52874 0
0.28101 0.527184 0
0.338567 0.524987 0
0.397131 0.52253 0
0.456291 0.519783 0
0.516426 0.516426 4.57771e-05
0.576303 0.512413 0
0.635554 0.508263 0
0.693263 0.503716 0
0.748348 0.498894 0
0.799924 0.493965 0
0.847303 0.488991 0
0.890059 0.484489 3.0518e-05
0.92755 0.479957 6.10361e-05
0.959899 0.475868 0
0.987793 0.472374 3.0518e-05
1 0.469444 3.0518e-05
1 0.466697 3.0518e-05
1 0.464408 3.0518e-05
1 0.463157 1.5259e-05
1 0.463157 1.5259e-05
0 0.589609 0
0 0.589609 0
0 0.589609 0
0 0.589609 0
0 0.589395 0
0 0.589136 0
0 0.5888 0
0 0.588388 0
0 0.587854 0
0.000839246 0.587289 1.5259e-05
0.0699931 0.586435 0
0.142947 0.585382 0
0.206516 0.584329 0
0.267094 0.582635 0
0.327077 0.58088 0
0.387198 0.578607 0
0.447639 0.576028 0
0.508812 0.573068 0
0.569558 0.569558 3.0518e-05
0.629465 0.565744 0
0.687846 0.561639 0
0.743282 0.557397 0
0.795163 0.553002 1.5259e-05
0.842847 0.548608 0
0.885618 0.544366 0
0.923445 0.540673 4.57771e-05
0.956054 0.53698 1.5259e-05
0.984009 0.533974 0
1 0.531319 0.000167849
1 0.528954 0.000213626
1 0.527001 3.0518e-05
1 0.525689 3.0518e-05
1 0.525689 3.0518e-05
0 0.644327 0
0 0.644327 0
0 0.644327 0
0 0.644312 0
0 0.644129 0
0 0.643885 0
0 0.64358 0
0 0.643198 0
0 0.642725 0
0 0.642115 0
0.0329137 0.641428 0
0.115175 0.640558 0
0.186175 0.639384 0
0.251179 0.638132 0
0.313726 0.636332 0
0.375982 0.63444 9.15541e-05
0.437995 0.631937 0
0.500267 0.629282 0
0.562127 0.626261 0.000137331
0.62266 0.62266 0
0.68162 0.618982 0
0.737499 0.615183 0
0.78996 0.6112 1.5259e-05
0.837797 0.607309 0
0.880995 0.603464 0
0.918975 0.600183 0
0.951827 0.596872 0
0.979828 0.593957 0
0.999969 0.591684 0
0.999969 0.589532 0
1 0.587823 6.10361e-05
1 0.586801 0.000213626
1 0.586801 0.000213626
0 0.697932 0
0 0.697932 0
0 0.697932 0
0 0.697932 0
0 0.697765 0
0 0.697551 0
0 0.697292 0
0 0.696971 0
0 0.696529 0
0 0.695979 0
0 0.695277 0
0.0789654 0.694545 0
0.162341 0.693507 0
0.232731 0.69218 0
0.299123 0.690761 6.10361e-05
0.363409 0.688869 0
0.427497 0.686809 0
0.490898 0.684138 0
0.553689 0.681453 0
0.615518 0.678355 1.5259e-05
0.674784 0.674784 0
0.731289 0.671336 0
0.784283 0.667689 0
0.832486 0.664149 0
0.875776 0.6607 0
0.914336 0.657664 9.15541e-05
0.947234 0.654688 0
0.975204 0.652018 0
0.998932 0.649897 1.5259e-05
0.999969 0.648127 0
0.999969 0.646494 0
0.999969 0.645426 0
0.999969 0.645426 0
0 0.749615 0
0 0.749615 0
0 0.749615 0
0 0.749615 0
0 0.749477 0
0 0.74931 0
0 0.749081 0
0 0.74876 0
0 0.748348 0
0 0.747829 0
0 0.747189 0
0.0376135 0.746532 4.57771e-05
0.133959 0.74548 0
0.212314 0.744244 0
0.282918 0.743008 1.5259e-05
0.350225 0.741192 0
0.416144 0.739254 9.15541e-05
0.48101 0.73695 0
0.544976 0.734218 0
0.607706 0.731304 0
0.667796 0.728328 0
0.725063 0.725063 6.10361e-05
0.778347 0.721736 0
0.826856 0.718441 0
0.870771 0.715328 0.000122072
0.908995 0.712413 0
0.942229 0.709651 0
0.97081 0.707378 7.62951e-05
0.994354 0.705226 0
0.999969 0.703639 0
0.999969 0.702144 0
1 0.701274 6.10361e-05
1 0.701274 6.10361e-05
0 0.798108 0
0 0.798108 0
0 0.798108 0
0 0.798108 0
0 0.797955 0
0 0.797772 0
0 0.797528 0
0 0.797223 0
0 0.796841 0
0 0.796353 0
0 0.795758 0
0 0.795071 0
0.100816 0.794339 0
0.189822 0.793408 1.5259e-05
0.265599 0.792004 0
0.336095 0.790341 0
0.404318 0.788388 0
0.471061 0.786328 0
0.536049 0.783795 0
0.599756 0.78117 0
0.660655 0.778378 0
0.718303 0.775158 0
0.772091 0.772107 0
0.821103 0.7691 0
0.865217 0.76611 0
0.903883 0.763333 0
0.937407 0.76109 0
0.965698 0.758801 0
0.9897 0.757015 6.10361e-05
1 0.755535 0.000213626
1 0.754192 0.000106813
1 0.753307 3.0518e-05
1 0.753307 3.0518e-05
0 0.842863 0
0 0.842863 0
0 0.842863 0
0 0.842847 0
0 0.842725 0
0 0.842557 0
0 0.842344 0
0 0.842054 0
0 0.841688 0
0 0.84123 0
0 0.840665 0
0 0.840055 0
0.0604257 0.839368 0
0.165469 0.838209 0
0.247547 0.836988 0
0.321782 0.835416 0
0.392309 0.833906 0
0.460716 0.831739 0
0.527352 0.829404 0
0.591852 0.826856 0
0.653529 0.824292 0
0.711833 0.821225 0
0.766018 0.818402 0
0.815549 0.815549 0
0.8598 0.812802 0
0.898634 0.810239 0
0.932448 0.808103 1.5259e-05
0.961105 0.805905 0
0.985245 0.804257 7.62951e-05
1 0.802686 7.62951e-05
1 0.801694 0.000122072
1 0.800839 0.000106813
1 0.800839 0.000106813
0 0.883345 0
0 0.883345 0
0 0.883345 0
0 0.883345 0
0 0.883223 0
0 0.883055 0
0 0.882856 0
0 0.882597 0
0 0.882261 0
0 0.881834 0
0 0.881285 0
0 0.880613 0
0.0210575 0.879805 0
0.139315 0.878782 0
0.229465 0.877638 0
0.307637 0.876219 0
0.380529 0.87454 0
0.450797 0.872786 0
0.518654 0.870466 0
0.584283 0.868147 0.000106813
0.64651 0.865476 0
0.705531 0.862867 1.5259e-05
0.760494 0.860105 9.15541e-05
0.8103 0.857466 0
0.854856 0.854856 4.57771e-05
0.894041 0.852399 6.10361e-05
0.927703 0.850187 0
0.956588 0.848417 6.10361e-05
0.980591 0.846601 0
1 0.84535 0.000183108
1 0.844129 0.000183108
1 0.843351 0.000122072
1 0.843351 0.000122072
0 0.919005 0
0 0.919005 0
0 0.919005 0
0 0.919005 0
0 0.918898 0
0 0.918761 0
0 0.918593 0
0 0.918318 0
0 0.917998 0
0 0.917586 0
0 0.917067 0
0 0.916426 0
0 0.915648 0
0.111437 0.914839 0
0.211154 0.913542 0
0.293797 0.912184 0
0.369421 0.910643 0
0.441413 0.908888 9.15541e-05
0.510399 0.906737 0
0.576776 0.904555 1.5259e-05
0.640192 0.901915 0
0.699763 0.899428 0.000106813
0.754772 0.896849 0
0.805127 0.89424 4.57771e-05
0.850202 0.891722 7.62951e-05
0.889509 0.889509 0
0.923415 0.887373 0
0.952331 0.885405 0
0.976699 0.883909 6.10361e-05
0.996475 0.882628 0
1 0.881559 3.0518e-05
1 0.880934 0.00015259
1 0.880934 0.00015259
0 0.949981 0
0 0.949981 0
0 0.949981 0
0 0.949966 0
0 0.949859 0
0 0.949691 0
0 0.949493 0
0 0.949248 0
0 0.948928 0
0 0.948531 0
0 0.948028 0
0 0.947463 0
0 0.946715 0
0.0818189 0.945922 0
0.193683 0.944793 0
0.280858 0.943526 0
0.359167 0.941939 0
0.432593 0.940124 0
0.50309 0.938293 0
0.570184 0.935988 0
0.634073 0.933455 0
0.694316 0.931044 0
0.74992 0.928603 0
0.800626 0.926116 3.0518e-05
0.845762 0.923735 0.000106813
0.885222 0.921538 0
0.919432 0.919432 0
0.948592 0.91783 0.000122072
0.972839 0.916167 3.0518e-05
0.993011 0.914992 0
1 0.913985 7.62951e-05
1 0.913298 0.000122072
1 0.913298 0.000122072
0 0.976257 0
0 0.976257 0
0 0.976257 0
0 0.976257 0
0 0.976135 0
0 0.975982 0
0 0.975799 0
0 0.975586 0
0 0.975341 0
