MEDT/Pirringer/Unterricht/2025-02-26/Korrektur und Grading FootageFotos-20250226T115430Z-001/Korrektur und Grading FootageFotos/Bounce Color True Basic Log Conversion LUTs/RED RedLogFilm DragonColor2 to Rec.709 33x33.cube
TITLE "Generated by Resolve"
LUT_3D_SIZE 5
0 0 0
0.135317 0 0
0.496406 0 0
0.910124 0 0
0.999802 0 0
0 0.129351 0
0.122866 0.122866 0
0.492729 0.0682841 0
0.907942 0 0
0.999802 0 0
0 0.480583 0
0.00889601 0.478645 0
0.464012 0.464012 7.62951e-05
0.89366 0.423972 4.57771e-05
1 0.399359 1.5259e-05
0 0.883345 0
0 0.882261 0
0.380529 0.87454 0
0.854856 0.854856 4.57771e-05
1 0.843351 0.000122072
0.000137331 1 0.000137331
0.000137331 1 0.000137331
0.324392 1 0.000366217
0.831968 1 0.000213626
1 1 0.000442512
0 0 0.140276
0.133822 0 0.133822
0.495918 0 0.0834516
0.909865 0 0
0.999802 0 0
4.57771e-05 0.127932 0.127932
0.121218 0.121218 0.121218
0.492302 0.0661784 0.0662089
0.907668 0 0
0.999802 0 0
0 0.480125 0.0155947
0.00674449 0.478172 0.00677501
0.463478 0.463478 0
0.893278 0.423423 0
0.999924 0.398779 0
0 0.883085 0
0 0.881987 0
0.379858 0.874266 0
0.854582 0.854582 4.57771e-05
1 0.843076 7.62951e-05
0.000137331 1 0.000137331
0.000137331 1 0.000137331
0.323613 1 0.000366217
0.831678 1 0.000213626
1 1 0.000442512
0 0 0.508522
0.122957 0 0.506401
0.492714 0 0.492714
0.908064 0 0.455314
0.999817 0 0.432441
0 0.116411 0.504631
0.109377 0.109361 0.503075
0.488685 0.0515297 0.488685
0.906065 0 0.45069
0.999802 0 0.427863
0 0.4766 0.4766
1.5259e-05 0.474647 0.474647
0.45977 0.45977 0.45977
0.8916 0.419516 0.419532
1 0.394553 0.394568
0 0.881132 0.396048
0 0.880003 0.393408
0.375387 0.872465 0.375418
0.852613 0.852613 0.325414
0.999939 0.841031 0.292943
0.000183108 1 0.34229
0.000183108 1 0.339254
0.318364 1 0.318395
0.829755 1 0.257923
1 1 0.217029
0 0 0.93051
0.0914015 0 0.929427
0.483787 0 0.922332
0.903548 0 0.903548
0.999847 0 0.892821
0 0.08336 0.928588
0.0745251 0.0745098 0.927657
0.479957 0.0142367 0.920638
0.90135 0 0.901335
0.999832 0 0.89073
0 0.467475 0.91429
6.10361e-05 0.465492 0.913451
0.450263 0.450263 0.906065
0.886854 0.40885 0.886839
1 0.383551 0.875959
0 0.876341 0.876341
0 0.875441 0.875441
0.364172 0.867781 0.867765
0.847745 0.847745 0.847745
1 0.836118 0.836133
0.000335698 1 0.854429
0.000335698 1 0.853254
0.304723 1 0.845411
0.82475 1 0.82475
1 1 0.812848
0 0 0.999557
0.0701762 0 0.999634
0.478737 0 0.999619
0.900847 0 0.999619
0.999863 0 0.999863
6.10361e-05 0.0619669 1
0.0532845 0.0532692 1
0.474601 0 0.999802
0.898665 0 0.999603
0.999863 0 0.999863
0 0.462333 0.999863
0 0.46006 0.999863
0.444862 0.444862 1
0.884199 0.402975 1
1 0.37702 1
0 0.873884 0.999939
0 0.87277 0.999985
0.357244 0.865049 1
0.844968 0.844968 1
1 0.833387 1
0.000198367 1 1
0.000198367 1 1
0.296651 1 1
0.821942 1 1
1 1 1
