MEDT/Pirringer/Unterricht/2025-02-26/Korrektur und Grading FootageFotos-20250226T115430Z-001/Korrektur und Grading FootageFotos/Bounce Color True Basic Log Conversion LUTs/RED RedLogFilm DragonColor2 to Rec.709 33x33.cube
TITLE "Generated by Resolve"
LUT_3D_SIZE 9
0 0 0
0.0169223 0 0
0.135317 0 0
0.295201 0 0
0.496406 0 0
0.719799 0 0
0.910124 0 0
0.999802 0 0
0.999802 0 0
0 0.0160983 0
0.0149691 0.0149691 0
0.134295 0.00740063 4.57771e-05
0.294438 0 0
0.495949 0 0
0.719463 0 0
0.909865 0 0
0.999802 0 0
0.999802 0 0
0 0.129351 0
0 0.128725 0
0.122866 0.122866 0
0.288899 0.107561 0
0.492729 0.0682841 0
0.716976 0 0
0.907942 0 0
0.999802 0 0
0.999802 0 0
0 0.285054 0
0 0.284627 0
0.0911269 0.281651 6.10361e-05
0.273762 0.273762 0
0.483864 0.256245 0
0.711391 0.223392 0
0.903685 0.179156 0
0.999954 0.139162 0
1 0.120104 9.15541e-05
0 0.480583 0
0 0.480323 0
0.00889601 0.478645 0
0.238148 0.474174 9.15541e-05
0.464012 0.464012 7.62951e-05
0.698039 0.44593 0
0.89366 0.423972 4.57771e-05
1 0.406851 7.62951e-05
1 0.399359 1.5259e-05
0 0.697932 0
0 0.697765 0
0 0.696529 0
0.162341 0.693507 0
0.427497 0.686809 0
0.674784 0.674784 0
0.875776 0.6607 0
0.998932 0.649897 1.5259e-05
0.999969 0.645426 0
0 0.883345 0
0 0.883223 0
0 0.882261 0
0.0210575 0.879805 0
0.380529 0.87454 0
0.64651 0.865476 0
0.854856 0.854856 4.57771e-05
0.980591 0.846601 0
1 0.843351 0.000122072
0 0.99855 0
0 0.998444 0
3.0518e-05 0.997696 3.0518e-05
0 0.995575 0
0.341436 0.990967 0
0.624399 0.982986 0
0.838636 0.973892 0.000122072
0.966751 0.966751 4.57771e-05
1 0.963821 0.000122072
0.000137331 1 0.000137331
0.000137331 1 0.000137331
0.000137331 1 0.000137331
0.000137331 1 0.000137331
0.324392 1 0.000366217
0.615427 1 0.000289921
0.831968 1 0.000213626
0.961303 1 0.000320439
1 1 0.000442512
0 0 0.0175937
0.0165866 0 0.0165866
0.13518 0 0.00881972
0.295109 0 0
0.496345 0 0
0.719753 0 0
0.910094 0 0
0.999802 0 0
0.999802 0 0
0 0.0157321 0.0157321
0.014786 0.014786 0.014786
0.134157 0.00720226 0.00720226
0.294362 0 0
0.495903 0 0
0.719417 0 0
0.909834 0 0
0.999802 0 0
0.999802 0 0
0 0.129198 0.000503548
0 0.128511 0
0.122652 0.122652 0
0.288792 0.107347 0
0.492668 0.0680247 0
0.71693 0 0
0.907912 0 0
0.999802 0 0
0.999802 0 0
0 0.284947 0
0 0.28452 0
0.0908675 0.281544 6.10361e-05
0.273686 0.273686 0
0.483833 0.256153 0
0.711345 0.223255 0
0.903655 0.179004 0
0.999954 0.138964 0
1 0.119905 9.15541e-05
0 0.480522 0
0 0.480262 0
0.00862135 0.478584 0
0.238041 0.474113 7.62951e-05
0.463951 0.463951 6.10361e-05
0.697993 0.445869 0
0.893614 0.423911 3.0518e-05
1 0.40679 9.15541e-05
1 0.399298 0
0 0.697887 0
0 0.697719 0
0 0.696498 0
0.162173 0.693462 0
0.42742 0.686763 0
0.674739 0.674739 0
0.875746 0.660655 0
0.998901 0.649866 1.5259e-05
0.999969 0.64538 0
0 0.883314 0
0 0.883192 0
0 0.882231 0
0.0207828 0.879774 0
0.380438 0.87451 0
0.646464 0.865446 0
0.854826 0.854826 6.10361e-05
0.98056 0.846555 0
1 0.84332 0.000122072
0 0.99852 0
0 0.998428 0
3.0518e-05 0.997665 3.0518e-05
0 0.995544 0
0.341344 0.990936 0
0.624353 0.982956 0
0.83859 0.973861 0.000122072
0.96672 0.96672 4.57771e-05
1 0.96379 0.000106813
0.000137331 1 0.000137331
0.000137331 1 0.000137331
0.000137331 1 0.000137331
0.000137331 1 0.000137331
0.3243 1 0.000366217
0.615366 1 0.000289921
0.831937 1 0.000213626
0.961273 1 0.000320439
1 1 0.000442512
0 0 0.140276
0.0145724 0 0.139467
0.133822 0 0.133822
0.294484 0 0.119539
0.495918 0 0.0834516
0.719524 0 0.0121614
0.909865 0 0
0.999802 0 0
0.999802 0 0
0 0.013901 0.139116
0.0128786 0.0128786 0.138415
0.132952 0.00523384 0.132952
0.293782 0 0.1178
0.495506 0 0.0812848
0.719173 0 0.0102083
0.90959 0 0
0.999802 0 0
0.999802 0 0
4.57771e-05 0.127932 0.127932
4.57771e-05 0.127123 0.127123
0.121218 0.121218 0.121218
0.28806 0.10573 0.10573
0.492302 0.0661784 0.0662089
0.71664 0 0
0.907668 0 0
0.999802 0 0
0.999802 0 0
0 0.284184 0.0969711
0 0.283757 0.0959793
0.0890516 0.280751 0.0890516
0.273045 0.273045 0.0700084
0.483406 0.255344 0.0285191
0.711192 0.222461 4.57771e-05
0.90341 0.177859 0
0.999954 0.137591 0
1 0.118379 9.15541e-05
0 0.480125 0.0155947
0 0.479866 0.0144961
0.00674449 0.478172 0.00677501
0.237232 0.47361 6.10361e-05
0.463478 0.463478 0
0.697704 0.445365 0
0.893278 0.423423 0
1 0.406256 0.000106813
0.999924 0.398779 0
0 0.697581 0
0 0.697429 0
0 0.696178 0
0.160937 0.693156 0
0.426902 0.686442 0
0.674418 0.674418 0
0.875532 0.660319 0
0.998627 0.649546 0
0.999969 0.645045 0
0 0.883085 0
0 0.882963 0
0 0.881987 0
0.0191196 0.879545 0
0.379858 0.874266 0
0.646128 0.865202 0
0.854582 0.854582 4.57771e-05
0.980346 0.846311 0
1 0.843076 7.62951e-05
0 0.998352 0
0 0.998245 0
3.0518e-05 0.997452 3.0518e-05
0 0.995346 0
0.340688 0.990723 0
0.624002 0.982742 0
0.838331 0.973632 0.000122072
0.966506 0.966506 4.57771e-05
1 0.963577 7.62951e-05
0.000137331 1 0.000137331
0.000137331 1 0.000137331
0.000137331 1 0.000137331
0.000137331 1 0.000137331
0.323613 1 0.000366217
0.615015 1 0.000289921
0.831678 1 0.000213626
0.961044 1 0.000320439
1 1 0.000442512
0 0 0.303044
0.0101625 0 0.3028
0.130632 0 0.300084
0.292912 0 0.292912
0.494942 0 0.27631
0.718807 0 0.245838
0.909285 0 0.205585
0.99971 0 0.170626
0.99968 0 0.154391
0 0.00921645 0.302556
0.00827039 0.00827039 0.302403
0.129397 0.000701915 0.299626
0.292088 0 0.292073
0.494484 0 0.275471
0.718441 0 0.245075
0.90901 0 0.204639
0.99971 0 0.169299
0.99968 0 0.152972
0 0.124254 0.296849
0 0.123445 0.296391
0.117586 0.117586 0.29398
0.286366 0.101778 0.286366
0.491234 0.0614939 0.269657
0.715953 0 0.237903
0.907164 0 0.196384
0.999695 0 0.159655
0.999664 0 0.142504
0 0.282216 0.2822
0 0.281773 0.281773
0.0847486 0.278981 0.278981
0.271031 0.271031 0.271031
0.482368 0.253544 0.253559
0.710384 0.22031 0.220325
0.903014 0.175235 0.175265
1 0.13431 0.134371
0.999954 0.114687 0.114763
0 0.479072 0.247379
0 0.478813 0.246845
0.00233463 0.477104 0.243702
0.235065 0.472526 0.235065
0.462318 0.462318 0.214557
0.697261 0.444282 0.175723
0.892714 0.422187 0.11928
1 0.404837 0.0618601
1 0.397513 0.0364843
0 0.697063 0.175219
0 0.69688 0.174548
0 0.695567 0.16997
0.158038 0.692515 0.158068
0.425681 0.685725 0.129442
0.673793 0.673793 0.0664073
0.875074 0.65948 0
0.998016 0.648753 0
0.999985 0.644221 0
0 0.882399 0.0421149
0 0.882261 0.0410315
0 0.881422 0.0335088
0.0145418 0.879088 0.0146334
0.378515 0.873747 0
0.645289 0.864591 0
0.853956 0.853956 4.57771e-05
0.979919 0.845655 0
1 0.842466 0
3.0518e-05 0.997925 3.0518e-05
3.0518e-05 0.997803 3.0518e-05
3.0518e-05 0.996933 3.0518e-05
0 0.994842 0
0.339086 0.990204 0
0.623133 0.982208 0
0.837705 0.973098 0.000122072
0.965972 0.965972 4.57771e-05
0.999969 0.963073 0
0.000137331 1 0.000137331
0.000137331 1 0.000137331
0.000137331 1 0.000137331
0.000137331 1 0.000137331
0.321935 1 0.000366217
0.61413 1 0.000289921
0.831037 1 0.000213626
0.960494 1 0.000320439
1 1 0.000442512
0 0 0.508522
0.000122072 0 0.508339
0.122957 0 0.506401
0.288853 0 0.502281
0.492714 0 0.492714
0.717174 0 0.475731
0.908064 0 0.455314
0.999817 0 0.439277
0.999817 0 0.432441
0 0 0.508034
0 0 0.50779
0.121279 0 0.505913
0.288014 0 0.501793
0.49221 0 0.492195
0.716838 0 0.475212
0.90779 0 0.454765
0.999817 0 0.438834
0.999817 0 0.431861
0 0.116411 0.504631
0 0.115557 0.504341
0.109377 0.109361 0.503075
0.282429 0.0926986 0.498589
0.488685 0.0515297 0.488685
0.714336 0 0.471458
0.906065 0 0.45069
0.999817 0 0.434684
0.999802 0 0.427863
0 0.278279 0.496193
0 0.277867 0.495918
0.0742657 0.274723 0.494194
0.266957 0.266957 0.489708
0.479866 0.248981 0.479866
0.708766 0.215152 0.462654
0.901656 0.1691 0.441276
1 0.127031 0.424994
0.999954 0.106325 0.417716
0 0.4766 0.4766
0 0.476387 0.476387
1.5259e-05 0.474647 0.474647
0.230091 0.470039 0.470039
0.45977 0.45977 0.45977
0.695705 0.441657 0.441672
0.8916 0.419516 0.419532
1 0.401877 0.401907
1 0.394553 0.394568
0 0.695216 0.441123
0 0.695033 0.440833
0 0.69395 0.43917
0.151537 0.690883 0.43418
0.422965 0.683848 0.42298
0.672068 0.672068 0.403037
0.873915 0.657801 0.378744
0.996963 0.647013 0.359274
1 0.642542 0.35111
0 0.881132 0.396048
0 0.880995 0.395727
0 0.880003 0.393408
0.00463874 0.877882 0.388266
0.375387 0.872465 0.375418
0.643534 0.863325 0.353094
0.852613 0.852613 0.325414
0.979049 0.844465 0.302754
0.999939 0.841031 0.292943
0 0.996612 0.358572
0 0.99649 0.358221
0 0.995682 0.355673
0 0.993759 0.349615
0.335622 0.98909 0.335653
0.621454 0.981292 0.310704
0.836103 0.971893 0.27863
0.964874 0.964874 0.25272
1 0.961975 0.240955
0.000183108 1 0.34229
0.000183108 1 0.341924
0.000183108 1 0.339254
0.000167849 1 0.332815
0.318364 1 0.318395
0.612222 1 0.291905
0.829755 1 0.257923
0.95935 1 0.229633
1 1 0.217029
0 0 0.736156
0 0 0.735988
0.109133 0 0.735103
0.282032 0 0.731945
0.488563 0 0.725689
0.714397 0 0.714397
0.906142 0 0.701167
0.999817 0 0.691081
0.999878 0 0.687053
0 0 0.735821
0 0 0.735653
0.107515 0 0.734707
0.281178 0 0.731609
0.488121 0 0.725338
0.714076 0 0.714076
0.905882 0 0.700816
0.999817 0 0.690745
0.999878 0 0.686702
0 0.101884 0.733806
0 0.100969 0.733562
0.094377 0.094377 0.732738
0.27541 0.0757916 0.729686
0.48484 0.0343786 0.723156
0.711742 0 0.711727
0.903944 0 0.698253
0.999847 0 0.688426
0.999878 0 0.684077
0 0.271061 0.728054
0 0.270649 0.727932
0.0570077 0.267597 0.726696
0.259678 0.259678 0.723796
0.475868 0.241215 0.717388
0.70605 0.206363 0.706035
0.899596 0.158282 0.692607
1 0.113298 0.682185
1 0.0911421 0.678126
4.57771e-05 0.472557 0.715221
4.57771e-05 0.472297 0.715053
0 0.470405 0.713787
0.221729 0.465782 0.710933
0.455344 0.455344 0.704097
0.692668 0.437125 0.692668
0.889509 0.414679 0.678996
0.999954 0.396918 0.668345
1 0.389487 0.664149
0 0.692363 0.692348
0 0.69218 0.69218
0 0.690974 0.690974
0.139574 0.687968 0.687968
0.418082 0.681132 0.681132
0.669139 0.669139 0.669139
0.87158 0.654887 0.654902
0.995315 0.643961 0.643961
1 0.639475 0.63949
0 0.878996 0.664973
0 0.878843 0.66482
0 0.877836 0.663508
0 0.875364 0.66009
0.370214 0.870253 0.653086
0.640635 0.861128 0.64065
0.850401 0.850401 0.625483
0.976822 0.84213 0.614099
1 0.83888 0.60943
0 0.994873 0.643336
0 0.994751 0.643137
0 0.993866 0.641733
0 0.991684 0.638483
0.329671 0.987274 0.631128
0.617929 0.979294 0.617945
0.834073 0.970077 0.602625
0.962875 0.962875 0.590661
1 0.95996 0.585657
0.000350958 1 0.634775
0.000350958 1 0.634577
0.000335698 1 0.633265
0.000335698 1 0.629831
0.311986 1 0.622263
0.609079 1 0.609079
0.827344 1 0.593256
0.957351 1 0.581186
1 1 0.576303
0 0 0.93051
0 0 0.930404
0.0914015 0 0.929427
0.273823 0 0.927123
0.483787 0 0.922332
0.711238 0 0.913695
0.903548 0 0.903548
0.999847 0 0.896086
0.999847 0 0.892821
0 0 0.930312
0 0 0.930175
0.0893873 0 0.929183
0.272984 0 0.926925
0.483268 0 0.922072
0.710887 0 0.913451
0.903288 0 0.903273
0.999847 0 0.895827
0.999847 0 0.892546
0 0.08336 0.928588
0 0.0822919 0.92845
0.0745251 0.0745098 0.927657
0.26714 0.0556497 0.92549
0.479957 0.0142367 0.920638
0.708385 0 0.911528
0.90135 0 0.901335
0.999847 0 0.893874
0.999832 0 0.89073
0 0.262623 0.924041
0 0.262196 0.923827
0.0369879 0.259159 0.923293
0.250813 0.250797 0.921004
0.471031 0.231739 0.915938
0.702739 0.195514 0.907347
0.897231 0.1449 0.897215
1 0.096025 0.889525
1 0.0709392 0.886198
0 0.467475 0.91429
0 0.467201 0.914168
6.10361e-05 0.465492 0.913451
0.211551 0.460685 0.910872
0.450263 0.450263 0.906065
0.68954 0.431785 0.897383
0.886854 0.40885 0.886839
1 0.391135 0.879042
1 0.383551 0.875959
0 0.689219 0.897063
0 0.689052 0.89691
0 0.687739 0.895933
0.124804 0.684688 0.89369
0.41265 0.677745 0.888533
0.665827 0.665827 0.879835
0.869169 0.651514 0.869154
0.992874 0.640314 0.860807
1 0.635966 0.857984
0 0.876341 0.876341
0 0.876234 0.876219
0 0.875441 0.875441
0 0.872999 0.872999
0.364172 0.867781 0.867765
0.636866 0.858457 0.858457
0.847745 0.847745 0.847745
0.974487 0.839384 0.839384
1 0.836118 0.836133
0 0.992569 0.860456
0 0.992447 0.860319
0 0.991562 0.859281
0 0.989563 0.85716
0.322667 0.98497 0.851499
0.614527 0.977142 0.842496
0.831312 0.967712 0.831312
0.96051 0.96051 0.822766
1 0.95761 0.819303
0.000335698 1 0.854429
0.000335698 1 0.854292
0.000335698 1 0.853254
0.000320439 1 0.850904
0.304723 1 0.845411
0.60531 1 0.835874
0.82475 1 0.82475
0.955169 1 0.816312
1 1 0.812848
0 0 0.999557
0 0 0.999557
0.076463 0 0.99968
0.267704 0 0.999664
0.480018 0 0.999603
0.708736 0 0.999588
0.90164 0 0.999619
0.999863 0 0.999863
0.999863 0 0.999863
0 0 0.999557
0 0 0.999557
0.074403 0 0.999649
0.266789 0 0.999664
0.479515 0 0.999619
0.708385 0 0.999588
0.901381 0 0.999619
0.999863 0 0.999863
0.999863 0 0.999863
0 0.0681315 0.999847
0 0.0670481 0.999847
0.0594339 0.0594186 0.999893
0.260746 0.0405585 1
0.476112 0 0.999771
0.705867 0 0.999588
0.899428 0 0.999619
0.999863 0 0.999863
0.999863 0 0.999863
0 0.256168 0.999893
0 0.25568 0.999893
0.0218051 0.252537 0.999985
0.244022 0.244022 0.999985
0.467231 0.224506 1
0.700282 0.187137 1
0.895476 0.134264 1
1 0.0816663 1
1 0.0560311 1
0 0.463874 0.999969
0 0.46363 0.999924
0 0.461662 0.999863
0.203845 0.456947 1
0.446525 0.446525 1
0.686931 0.427665 1
0.884993 0.404807 1
1 0.386572 1
1 0.378973 1
0 0.686671 0.999863
0 0.686488 0.999863
0 0.685176 0.999863
0.113024 0.682292 1
0.408316 0.675151 1
0.663233 0.663233 1
0.867018 0.64889 0.998154
0.991165 0.637583 0.99115
1 0.63328 0.988571
0 0.874556 0.999802
0 0.874434 0.999817
0 0.873579 0.999985
0 0.871092 0.999985
0.359182 0.865858 0.996933
0.634134 0.85658 0.989044
0.845731 0.845731 0.979995
0.972778 0.837354 0.972778
1 0.834134 0.970138
0 0.990875 0.99086
0 0.990753 0.990753
0 0.989868 0.989868
4.57771e-05 0.987961 0.987961
0.31754 0.983413 0.983398
0.611673 0.975448 0.975433
0.829267 0.965988 0.965988
0.958785 0.958785 0.958785
1 0.955871 0.955871
0.000213626 1 0.985641
0.000213626 1 0.985534
0.000228885 1 0.984649
0.000259403 1 0.982513
0.299077 1 0.978134
0.602396 1 0.970092
0.822675 1 0.96051
0.953429 1 0.953429
1 1 0.950286
0 0 0.999557
0 0 0.999557
0.0701762 0 0.999634
0.265003 0 0.999664
0.478737 0 0.999619
0.707713 0 0.999588
0.900847 0 0.999619
0.999863 0 0.999863
0.999863 0 0.999863
0 0 0.999557
0 0 0.999557
0.0681926 0 0.999588
0.264088 0 0.999664
0.478248 0 0.999649
0.707362 0 0.999588
0.900587 0 0.999619
0.999863 0 0.999863
0.999863 0 0.999863
6.10361e-05 0.0619669 1
0.000106813 0.060914 1
0.0532845 0.0532692 1
0.257847 0.034287 0.999939
0.474601 0 0.999802
0.704921 0 0.999588
0.898665 0 0.999603
0.999863 0 0.999863
0.999863 0 0.999863
0 0.253559 0.999954
0 0.253193 0.999954
0.01561 0.249638 0.999924
0.241093 0.241093 0.999985
0.465553 0.221393 1
0.699245 0.183474 1
0.894514 0.12961 1
1 0.0753338 1
1 0.0496986 1
0 0.462333 0.999863
0 0.462058 0.999863
0 0.46006 0.999863
0.200244 0.45539 0.999863
0.444862 0.444862 1
0.685863 0.42594 1
0.884199 0.402975 1
1 0.384924 1
1 0.37702 1
0 0.685618 0.999863
0 0.685435 0.999863
0 0.684108 0.999863
0.107744 0.681224 0.999985
0.406806 0.674128 1
0.662135 0.662135 1
0.866377 0.647745 1
0.990509 0.636484 0.999939
1 0.632227 1
0 0.873884 0.999939
0 0.873762 0.999969
0 0.87277 0.999985
0 0.870268 0.999985
0.357244 0.865049 1
0.633082 0.855787 0.999985
0.844968 0.844968 1
0.972229 0.836561 1
1 0.833387 1
0 0.990219 0.999908
0 0.990097 0.999908
0 0.989212 0.999908
0 0.987335 0.999954
0.315312 0.982773 1
0.610376 0.974624 1
0.828519 0.965362 1
0.958175 0.958175 1
1 0.955306 1
0.000198367 1 1
0.000198367 1 1
0.000198367 1 1
0.000198367 1 1
0.296651 1 1
0.60119 1 1
0.821942 1 1
0.952575 1 1
1 1 1
