MEDT/Pirringer/Unterricht/2025-02-26/Korrektur und Grading FootageFotos-20250226T115430Z-001/Korrektur und Grading FootageFotos/Bounce Color True Basic Log Conversion LUTs/Sony S-Log3 to Rec.709 LUT 33x33.cube
TITLE "Generated by Resolve"
LUT_3D_SIZE 33
0 0 0
0 0 0
0 0 0
0.00134279 0 0
0.0493324 0 0
0.0963302 0 0
0.142794 0 0
0.193057 0 0
0.24567 0 0
0.301656 0 0
0.361685 0 0
0.426108 0 0
0.495048 0 0
0.568231 0 0
0.64506 0 0
0.724483 0 0
0.80502 0 0
0.884901 0 0
0.962158 0 0
1 0 0
1 0 0
1 0 0
1 0 0
1 0 0
1 0 0
1 0 0
1 0 0
1 0 0
1 0 0
1 0 0
1 0 0
1 0 0
1 0 0
0 0 0
0 0 0
0 0 0
0.00134279 0 0
0.0493324 0 0
0.0963302 0 0
0.142794 0 0
0.193057 0 0
0.24567 0 0
0.301656 0 0
0.361685 0 0
0.426108 0 0
0.495048 0 0
0.568231 0 0
0.64506 0 0
0.724483 0 0
0.80502 0 0
0.884901 0 0
0.962158 0 0
1 0 0
1 0 0
1 0 0
1 0 0
1 0 0
1 0 0
1 0 0
1 0 0
1 0 0
1 0 0
1 0 0
1 0 0
1 0 0
1 0 0
0 0 0
0 0 0
0 0 0
0.00134279 0 0
0.0493324 0 0
0.0963302 0 0
0.142794 0 0
0.193057 0 0
0.24567 0 0
0.301656 0 0
0.361685 0 0
0.426108 0 0
0.495048 0 0
0.568231 0 0
0.64506 0 0
0.724483 0 0
0.80502 0 0
0.884901 0 0
0.962158 0 0
1 0 0
1 0 0
1 0 0
1 0 0
1 0 0
1 0 0
1 0 0
1 0 0
1 0 0
1 0 0
1 0 0
1 0 0
1 0 0
1 0 0
0 0.000961318 0
0 0.000961318 0
0 0.000961318 0
0.00077821 0.000839246 0
0.0487678 0 0
0.0958114 0 0
0.142382 0 0
0.192737 0 0
0.245411 0 0
0.301442 0 0
0.361501 0 0
0.425956 0 0
0.494911 0 0
0.568124 0 0
0.644968 0 0
0.724392 0 0
0.804944 0 0
0.884825 0 0
0.962081 0 0
1 0 0
1 0 0
1 0 0
1 0 0
1 0 0
1 0 0
1 0 0
1 0 0
1 0 0
1 0 0
1 0 0
1 0 0
1 0 0
1 0 0
0 0.0354925 0
0 0.0354925 0
0 0.0354925 0
0 0.0353704 0
0.0284733 0.0308537 0
0.0759747 0.0263828 0
0.127611 0.0208438 0
0.181186 0.0132143 0
0.236042 0.00329595 0
0.29369 0 0
0.354986 0 0
0.420417 0 0
0.49015 0 0
0.564004 0 0
0.641352 0 0
0.721202 0 0
0.802106 0 0
0.882261 0 0
0.959762 0 0
1 0 0
1 0 0
1 0 0
1 0 0
1 0 0
1 0 0
1 0 0
1 0 0
1 0 0
1 0 0
1 0 0
1 0 0
1 0 0
1 0 0
0 0.0696727 0
0 0.0696727 0
0 0.0696727 0
0 0.0695354 0
0.00839246 0.0650187 0
0.0558938 0.0605478 0
0.111727 0.055024 0
0.169131 0.0473793 0
0.226444 0.0374609 0
0.285832 0.0246738 0
0.348424 0.00830091 0
0.414862 0 0
0.485405 0 0
0.559884 0 0
0.637766 0 0
0.718044 0 0
0.799283 0 0
0.879728 0 0
0.957443 0 0
1 0 0
1 0 0
1 0 0
1 0 0
1 0 0
1 0 0
1 0 0
1 0 0
1 0 0
1 0 0
1 0 0
1 0 0
1 0 0
1 0 0
0 0.109483 0
0 0.109483 0
0 0.109483 0
0 0.109377 0
0 0.105547 0
0.0310521 0.101656 0
0.0897993 0.0967269 0
0.153246 0.089662 0
0.214084 0.0797131 0
0.275822 0.0669261 0
0.340139 0.0505684 0
0.407889 0.0298466 0
0.479454 0.00395209 0
0.554772 0 0
0.63331 0 0
0.714107 0 0
0.795773 0 0
0.87657 0 0
0.954574 0 0
1 0 0
1 0 0
1 0 0
1 0 0
1 0 0
1 0 0
1 0 0
1 0 0
1 0 0
1 0 0
1 0 0
1 0 0
1 0 0
1 0 0
0 0.152834 0
0 0.152834 0
0 0.152834 0
0 0.152743 0
0 0.149722 0
0 0.14667 0
0.0554665 0.14284 0
0.129046 0.137423 0
0.195941 0.130159 0
0.261448 0.120348 0
0.328374 0.106966 0
0.398062 0.088304 0
0.471122 0.0623331 0
0.547601 0.0305333 0
0.62707 0 0
0.708629 0 0
0.790906 0 0
0.872206 0 0
0.950591 0 0
1 0 0
1 0 0
1 0 0
1 0 0
1 0 0
1 0 0
1 0 0
1 0 0
1 0 0
1 0 0
1 0 0
1 0 0
1 0 0
1 0 0
0 0.198199 0
0 0.198199 0
0 0.198199 0
0 0.198123 0
0 0.195666 0
0 0.193194 0
0.0109102 0.190097 0
0.0919356 0.185763 0
0.170138 0.180026 0
0.241657 0.172381 0
0.31249 0.162203 0
0.384939 0.148592 0
0.460075 0.130175 0
0.538155 0.104707 0
0.618891 0.0680095 0
0.701457 0.0229953 0
0.784543 0 0
0.866484 0 0
0.945388 0 0
1 0 0
1 0 0
1 0 0
1 0 0
1 0 0
1 0 0
1 0 0
1 0 0
1 0 0
1 0 0
1 0 0
1 0 0
1 0 0
1 0 0
0 0.246479 0
0 0.246479 0
0 0.246479 0
0 0.246418 0
0 0.244373 0
0 0.242329 0
0 0.239765 0
0.0346075 0.23621 0
0.131533 0.231525 0
0.213855 0.225345 0
0.290806 0.217227 0
0.367346 0.206561 0
0.445411 0.192584 0
0.525704 0.174182 0
0.608164 0.149783 0
0.692088 0.116732 0
0.776257 0.0693523 0
0.859052 0.0125124 0
0.938643 0 0
1 0 0
1 0 0
1 0 0
1 0 0
1 0 0
1 0 0
1 0 0
1 0 0
1 0 0
1 0 0
1 0 0
1 0 0
1 0 0
1 0 0
0 0.298222 0
0 0.298222 0
0 0.298222 0
0 0.298177 0
0 0.296452 0
0 0.294728 0
0 0.292592 0
0 0.289616 0
0.0664378 0.28571 0
0.173129 0.280598 0
0.260716 0.27393 0
0.343572 0.265278 0
0.425925 0.254093 0
0.509331 0.239734 0
0.594156 0.221393 0
0.679896 0.198047 0
0.765499 0.168276 0
0.849439 0.129763 0
0.929931 0.0769665 0
1 0.0147707 0
1 0 0
1 0 0
1 0 0
1 0 0
1 0 0
1 0 0
1 0 0
1 0 0
1 0 0
1 0 0
1 0 0
1 0 0
1 0 0
0 0.35378 0
0 0.35378 0
0 0.35378 0
0 0.35375 0
0 0.35227 0
0 0.350805 0
0 0.348989 0
0 0.346471 0
0 0.343175 0
0.107225 0.338872 0
0.217533 0.333288 0
0.311025 0.326085 0
0.399893 0.316884 0
0.4878 0.305226 0
0.575891 0.290608 0
0.664134 0.272526 0
0.751659 0.250462 0
0.837095 0.223896 0
0.918776 0.192248 0
0.995026 0.154665 0
1 0.1093 0
1 0.0534218 0
1 0.000106813 0
1 0 0
1 0 0
1 0 0
1 0 0
1 0 0
1 0 0
1 0 0
1 0 0
1 0 0
1 0 0
0 0.41323 0
0 0.41323 0
0 0.41323 0
0 0.413184 0
0 0.411917 0
0 0.410666 0
0 0.40911 0
0 0.406943 0
0 0.40412 0
0 0.400458 0
0.150484 0.395712 0
0.265293 0.389624 0
0.364858 0.381888 0
0.459449 0.372168 0
0.552193 0.360128 0
0.643839 0.34548 0
0.733959 0.327977 0
0.821393 0.307546 0
0.904616 0.284276 0
0.982071 0.258442 0
1 0.230488 0
1 0.200961 0
1 0.170428 0
1 0.139361 0
1 0.108064 0
1 0.0763561 0
1 0.0486152 0
1 0.0293889 0
1 0.0293889 0
1 0.0293889 0
1 0.0293889 0
1 0.0293889 0
1 0.0293889 0
0 0.476341 0
0 0.476341 0
0 0.476341 0
0 0.47631 0
0 0.475212 0
0 0.474113 0
0 0.47277 0
0 0.470909 0
0 0.468467 0
0 0.465293 0
0.0239414 0.461219 0
0.197055 0.456001 0
0.316777 0.449393 0
0.422004 0.441138 0
0.521553 0.430991 0
0.617945 0.418769 0
0.711559 0.404349 0
0.801617 0.387793 0
0.886885 0.369345 0
0.965911 0.349447 0
1 0.328679 0
1 0.307759 0
1 0.287388 0
1 0.268208 0
1 0.250706 0
1 0.235203 0
1 0.221805 0
1 0.212116 0
1 0.212116 0
1 0.212116 0
1 0.212116 0
1 0.212116 0
1 0.212116 0
0 0.54258 0
0 0.54258 0
0 0.54258 0
0 0.54255 0
0 0.541588 0
0 0.540642 0
0 0.539467 0
0 0.537835 0
0 0.535698 0
0 0.532952 0
0 0.529397 0
0.0719615 0.524865 0
0.247852 0.519158 0
0.372015 0.512032 0
0.482002 0.503334 0
0.585168 0.492912 0
0.683528 0.48072 0
0.777096 0.466865 0
0.865003 0.451621 0
0.946029 0.435431 0
1 0.41883 0
1 0.402441 0
1 0.386862 0
1 0.372549 0
1 0.359823 0
1 0.348837 0
1 0.339574 0
1 0.333028 0
1 0.333028 0
1 0.333028 0
1 0.333028 0
1 0.333028 0
1 0.333028 0
0 0.611048 0
0 0.611048 0
0 0.611048 0
0 0.611032 0
0 0.610178 0
0 0.609339 0
0 0.608301 0
0 0.606867 0
0 0.60499 0
0 0.602564 0
0 0.599435 0
0 0.595453 0
0.135027 0.590448 0
0.303395 0.584237 0
0.430838 0.576654 0
0.543999 0.56762 0
0.648951 0.557107 0
0.747158 0.545251 0
0.838468 0.532296 0
0.922072 0.518654 0
0.99707 0.504829 0
1 0.491325 0
1 0.47863 0
1 0.467109 0
1 0.456992 0
1 0.448341 0
1 0.441138 0
1 0.436072 0
1 0.436072 0
1 0.436072 0
1 0.436072 0
1 0.436072 0
1 0.436072 0
0 0.680507 0
0 0.680507 0
0 0.680507 0
0 0.680476 0
0 0.679728 0
0 0.678981 0
0 0.67805 0
0 0.676768 0
0 0.67509 0
0 0.672938 0
0 0.670161 0
0 0.666621 0
0 0.662181 0
0.201205 0.656687 0
0.363806 0.649989 0
0.492653 0.642039 0
0.606897 0.632822 0
0.711315 0.622461 0
0.807004 0.611215 0
0.893828 0.599435 0
0.971237 0.587579 0
1 0.576074 0
1 0.565347 0
1 0.555673 0
1 0.547219 0
1 0.540047 0
1 0.534096 0
1 0.529931 0
1 0.529931 0
1 0.529931 0
1 0.529931 0
1 0.529931 0
1 0.529931 0
0 0.749371 0
0 0.749371 0
0 0.749371 0
0 0.749355 0
0 0.748684 0
0 0.747997 0
0 0.747158 0
0 0.746014 0
0 0.744503 0
0 0.742565 0
0 0.740063 0
0 0.736889 0
0 0.732906 0
0 0.727977 0
0.272145 0.721981 0
0.428672 0.714885 0
0.556512 0.706676 0
0.669261 0.69749 0
0.770596 0.687541 0
0.861418 0.677165 0
0.941772 0.666758 0
1 0.656718 0
1 0.647395 0
1 0.639017 0
1 0.631724 0
1 0.625559 0
1 0.620462 0
1 0.616907 0
1 0.616907 0
1 0.616907 0
1 0.616907 0
1 0.616907 0
1 0.616907 0
0 0.815991 0
0 0.815991 0
0 0.815991 0
0 0.815976 0
0 0.815351 0
0 0.81474 0
0 0.813977 0
0 0.812924 0
0 0.811551 0
0 0.809781 0
0 0.807507 0
0 0.804623 0
0 0.800992 0
0 0.796521 0
0.124773 0.791089 0
0.347845 0.784665 0
0.496971 0.777249 0
0.621088 0.768963 0
0.729595 0.760021 0
0.825315 0.750729 0
0.909178 0.741421 0
0.981567 0.732479 0
1 0.724193 0
1 0.716762 0
1 0.710323 0
1 0.70489 0
1 0.700404 0
1 0.697292 0
1 0.697292 0
1 0.697292 0
1 0.697292 0
1 0.697292 0
1 0.697292 0
0 0.878706 0
0 0.878706 0
0 0.878706 0
0 0.878691 0
0 0.878111 0
0 0.877546 0
0 0.876844 0
0 0.875868 0
0 0.874601 0
0 0.872969 0
0 0.870878 0
0 0.868223 0
0 0.864897 0
0 0.860777 0
0 0.855802 0
0.239994 0.849897 0
0.427146 0.843107 0
0.567147 0.835538 0
0.684749 0.827375 0
0.786374 0.818891 0
0.874327 0.810437 0
0.949645 0.802335 0
1 0.794827 0
1 0.788113 0
1 0.782315 0
1 0.777417 0
1 0.773388 0
1 0.770581 0
1 0.770581 0
1 0.770581 0
1 0.770581 0
1 0.770581 0
1 0.770581 0
0 0.93611 0
0 0.93611 0
0 0.93611 0
0 0.936095 0
0 0.935561 0
0 0.935027 0
0 0.934371 0
0 0.933471 0
0 0.93228 0
0 0.93077 0
0 0.928817 0
0 0.926345 0
0 0.923232 0
0 0.919417 0
0 0.914778 0
0.0539559 0.9093 0
0.344823 0.902998 0
0.508095 0.895979 0
0.637186 0.888426 0
0.745785 0.880583 0
0.838361 0.872786 0
0.91693 0.865309 0
0.982818 0.858396 0
1 0.852247 0
1 0.846922 0
1 0.842435 0
1 0.838743 0
1 0.836164 0
1 0.836164 0
1 0.836164 0
1 0.836164 0
1 0.836164 0
1 0.836164 0
0 0.987213 0
0 0.987213 0
0 0.987213 0
0 0.987198 0
0 0.986694 0
0 0.986191 0
0 0.98558 0
0 0.984726 0
0 0.983612 0
0 0.982177 0
0 0.980346 0
0 0.978012 0
0 0.975082 0
0 0.971481 0
0 0.967132 0
0 0.961975 0
0.243915 0.956069 0
0.444663 0.949477 0
0.588266 0.942382 0
0.704906 0.935058 0
0.802594 0.927749 0
0.884642 0.920775 0
0.953002 0.914321 0
1 0.908583 0
1 0.903609 0
1 0.899443 0
1 0.895994 0
1 0.893614 0
1 0.893614 0
1 0.893614 0
1 0.893614 0
1 0.893614 0
1 0.893614 0
0 1 0
0 1 0
0 1 0
0 1 0
0 1 0
0 1 0
0 1 0
0 1 0
0 1 0
0 1 0
0 1 0
0 1 0
0 1 0
0 1 0
0 1 0
0 1 0
0.098024 1 0
0.377417 0.995651 0
0.539437 0.988937 0
0.665125 0.981979 0
0.768261 0.975082 0
0.85391 0.96846 0
0.924773 0.962371 0
0.982788 0.956939 0
1 0.952255 0
1 0.948318 0
1 0.945083 0
1 0.942824 0
1 0.942824 0
1 0.942824 0
1 0.942824 0
1 0.942824 0
1 0.942824 0
0 1 0
0 1 0
0 1 0
0 1 0
0 1 0
0 1 0
0 1 0
0 1 0
0 1 0
0 1 0
0 1 0
0 1 0
0 1 0
0 1 0
0 1 0
0 1 0
0 1 0
0.30634 1 0
0.492088 1 0
0.62771 1 0
0.736446 1 0
0.825681 1 0
0.898985 1 0
0.958724 0.997574 0
1 0.993103 0
1 0.989349 0
1 0.986252 0
1 0.9841 0
1 0.9841 0
1 0.9841 0
1 0.9841 0
1 0.9841 0
1 0.9841 0
0 1 0
0 1 0
0 1 0
0 1 0
0 1 0
0 1 0
0 1 0
0 1 0
0 1 0
0 1 0
0 1 0
0 1 0
0 1 0
0 1 0
0 1 0
0 1 0
0 1 0
0.230045 1 0
0.447379 1 0
0.593591 1 0
0.707912 1 0
0.80058 1 0
0.876173 1 0
0.937514 1 0
0.986862 1 0
1 1 0
1 1 0
1 1 0
1 1 0
1 1 0
1 1 0
1 1 0
1 1 0
0 1 0
0 1 0
0 1 0
0 1 0
0 1 0
0 1 0
0 1 0
0 1 0
0 1 0
0 1 0
0 1 0
0 1 0
0 1 0
0 1 0
0 1 0
0 1 0
0 1 0
0.143328 1 0
0.406195 1 0
0.563378 1 0
0.68304 1 0
0.778897 1 0
0.85658 1 0
0.919356 1 0
0.969711 1 0
1 1 0
1 1 0
1 1 0
1 1 0
1 1 0
1 1 0
1 1 0
1 1 0
0 1 0
0 1 0
0 1 0
0 1 0
0 1 0
0 1 0
0 1 0
0 1 0
0 1 0
0 1 0
0 1 0
0 1 0
0 1 0
0 1 0
0 1 0
0 1 0
0 1 0
0.0317388 1 0
0.369131 1 0
0.537331 1 0
0.661936 1 0
0.760647 1 0
0.840162 1 0
0.904189 1 0
0.955428 1 0
0.996078 1 0
1 1 0
1 1 0
1 1 0
1 1 0
1 1 0
1 1 0
1 1 0
0 1 0
0 1 0
0 1 0
0 1 0
0 1 0
0 1 0
0 1 0
0 1 0
0 1 0
