MEDT/Pirringer/Unterricht/2025-02-26/Korrektur und Grading FootageFotos-20250226T115430Z-001/Korrektur und Grading FootageFotos/Bounce Color True Basic Log Conversion LUTs/Sony S-Log3 to Rec.709 LUT 33x33.cube
TITLE "Generated by Resolve"
LUT_3D_SIZE 5
0 0 0
0.24567 0 0
0.80502 0 0
1 0 0
1 0 0
0 0.198199 0
0.170138 0.180026 0
0.784543 0 0
1 0 0
1 0 0
0 0.680507 0
0 0.67509 0
0.606897 0.632822 0
1 0.547219 0
1 0.529931 0
0 1 0
0 1 0
0 1 0
0.986862 1 0
1 1 0
0 1 0
0 1 0
0 1 0
0.945388 1 0
1 1 0
0 0 0.180072
0.238666 0 0.177249
0.802884 0 0.154803
1 0 0.106203
1 0 0.0956283
0 0.180301 0.163607
0.160571 0.160571 0.160571
0.782361 0 0.136156
1 0 0.0812543
1 0 0.0690166
0 0.675166 0
0 0.669718 0
0.604013 0.627054 0
1 0.540505 0
1 0.522988 0
0 1 0
0 1 0
0 1 0
0.985153 1 0
1 1 0
0 1 0
0 1 0
0 1 0
0.943603 1 0
1 1 0
0 0 0.632944
0.178943 0 0.632074
0.786648 0 0.625544
1 0 0.613489
1 0 0.611261
0 0 0.628031
0.0673838 0 0.627161
0.765652 0 0.620584
1 0 0.608423
1 0 0.606165
0 0.633555 0.589776
0 0.62771 0.588846
0.581811 0.581811 0.581811
1 0.486931 0.56878
1 0.467369 0.566354
0 1 0.512642
0 1 0.511559
0 1 0.503395
0.972229 0.997406 0.488212
1 0.988449 0.485374
0 1 0.497124
0 1 0.496025
0 1 0.487602
0.930037 1 0.471901
1 1 0.468956
0 0 1
0.00350958 0 1
0.756176 0 1
1 0 1
1 0 1
0 0 1
0 0 1
0.734218 0 1
1 0 1
1 0 1
0 0.549432 1
0 0.542657 1
0.53901 0.488472 0.997528
1 0.370077 0.990311
1 0.344045 0.988983
0 1 0.960525
0 1 0.959976
0 0.998123 0.955825
0.948257 0.948257 0.948257
1 0.938781 0.946868
0 1 0.952682
0 1 0.952132
0 1 0.947951
0.90483 1 0.940307
1 1 0.938903
0 0 1
0 0 1
0.750423 0 1
1 0 1
1 0 1
0 0 1
0 0 1
0.728298 0 1
1 0 1
1 0 1
0 0.532479 1
0 0.525475 1
0.53077 0.469261 1
1 0.344442 1
1 0.316426 1
0 1 1
0 1 1
0 0.989319 1
0.943786 0.938918 1
1 0.929335 1
0 1 1
0 1 1
0 1 1
0.900114 1 1
1 1 1
