MEDT/Pirringer/Unterricht/2025-02-26/Korrektur und Grading FootageFotos-20250226T115430Z-001/Korrektur und Grading FootageFotos/Bounce Color True Basic Log Conversion LUTs/Sony S-Log3 to Rec.709 LUT 33x33.cube
TITLE "Generated by Resolve"
LUT_3D_SIZE 9
0 0 0
0.0493324 0 0
0.24567 0 0
0.495048 0 0
0.80502 0 0
1 0 0
1 0 0
1 0 0
1 0 0
0 0.0354925 0
0.0284733 0.0308537 0
0.236042 0.00329595 0
0.49015 0 0
0.802106 0 0
1 0 0
1 0 0
1 0 0
1 0 0
0 0.198199 0
0 0.195666 0
0.170138 0.180026 0
0.460075 0.130175 0
0.784543 0 0
1 0 0
1 0 0
1 0 0
1 0 0
0 0.41323 0
0 0.411917 0
0 0.40412 0
0.364858 0.381888 0
0.733959 0.327977 0
1 0.230488 0
1 0.108064 0
1 0.0293889 0
1 0.0293889 0
0 0.680507 0
0 0.679728 0
0 0.67509 0
0 0.662181 0
0.606897 0.632822 0
0.971237 0.587579 0
1 0.547219 0
1 0.529931 0
1 0.529931 0
0 0.93611 0
0 0.935561 0
0 0.93228 0
0 0.923232 0
0.344823 0.902998 0
0.838361 0.872786 0
1 0.846922 0
1 0.836164 0
1 0.836164 0
0 1 0
0 1 0
0 1 0
0 1 0
0 1 0
0.707912 1 0
0.986862 1 0
1 1 0
1 1 0
0 1 0
0 1 0
0 1 0
0 1 0
0 1 0
0.646876 1 0
0.945388 1 0
1 1 0
1 1 0
0 1 0
0 1 0
0 1 0
0 1 0
0 1 0
0.646876 1 0
0.945388 1 0
1 1 0
1 1 0
0 0 0.030869
0.0471351 0 0.0301671
0.244678 0 0.0260929
0.49453 0 0.0148623
0.804715 0 0
1 0 0
1 0 0
1 0 0
1 0 0
0 0.0309148 0.0269627
0.026276 0.026276 0.026276
0.235019 0 0.0221866
0.489632 0 0.010956
0.801785 0 0
1 0 0
1 0 0
1 0 0
1 0 0
0 0.195697 0.00383001
0 0.193133 0.00314336
0.16878 0.17731 0
0.459525 0.126726 0
0.784237 0 0
1 0 0
1 0 0
1 0 0
1 0 0
0 0.411948 0
0 0.410636 0
0 0.402823 0
0.364157 0.380514 0
0.733608 0.326375 0
1 0.22829 0
1 0.104143 0
1 0.0248112 0
1 0.0248112 0
0 0.679728 0
0 0.67895 0
0 0.674327 0
0 0.661387 0
0.606485 0.631998 0
0.970993 0.586679 0
1 0.546258 0
1 0.528939 0
1 0.528939 0
0 0.935561 0
0 0.935012 0
0 0.931746 0
0 0.922683 0
0.344091 0.902434 0
0.838071 0.872206 0
1 0.846311 0
1 0.835554 0
1 0.835554 0
0 1 0
0 1 0
0 1 0
0 1 0
0 1 0
0.707561 1 0
0.986603 1 0
1 1 0
1 1 0
0 1 0
0 1 0
0 1 0
0 1 0
0 1 0
0.646494 1 0
0.945129 1 0
1 1 0
1 1 0
0 1 0
0 1 0
0 1 0
0 1 0
0 1 0
0.646494 1 0
0.945129 1 0
1 1 0
1 1 0
0 0 0.180072
0.0340887 0 0.17966
0.238666 0 0.177249
0.491478 0 0.170474
0.802884 0 0.154803
1 0 0.129763
1 0 0.106203
1 0 0.0956283
1 0 0.0956283
0 0.00376898 0.177768
0.0132143 0 0.177356
0.228794 0 0.174914
0.486549 0 0.168078
0.799954 0 0.152224
1 0 0.126818
1 0 0.102831
1 0 0.0920272
1 0 0.0920272
0 0.180301 0.163607
0 0.177554 0.163165
0.160571 0.160571 0.160571
0.45623 0.104784 0.153246
0.782361 0 0.136156
1 0 0.108309
1 0 0.0812543
1 0 0.0690166
1 0 0.0690166
0 0.404257 0.118791
0 0.40293 0.118242
0 0.394965 0.114946
0.360006 0.372198 0.105577
0.731594 0.316716 0.082887
1 0.214832 0.0469368
1 0.0785077 0.0174105
1 0 0.00541695
1 0 0.00541695
0 0.675166 0
0 0.674388 0
0 0.669718 0
0 0.656703 0
0.604013 0.627054 0
0.969512 0.581353 0
1 0.540505 0
1 0.522988 0
1 0.522988 0
0 0.932342 0
0 0.931792 0
0 0.928512 0
0 0.919417 0
0.339712 0.899092 0
0.836316 0.868727 0
1 0.84271 0
1 0.831907 0
1 0.831907 0
0 1 0
0 1 0
0 1 0
0 1 0
0 1 0
0.705455 1 0
0.985153 1 0
1 1 0
1 1 0
0 1 0
0 1 0
0 1 0
0 1 0
0 1 0
0.64419 1 0
0.943603 1 0
1 1 0
1 1 0
0 1 0
0 1 0
0 1 0
0 1 0
0 1 0
0.64419 1 0
0.943603 1 0
1 1 0
1 1 0
0 0 0.381979
0 0 0.381765
0.221454 0 0.380529
0.482979 0 0.377111
0.797848 0 0.369497
1 0 0.358206
1 0 0.348608
1 0 0.34464
1 0 0.34464
0 0 0.380789
0 0 0.380591
0.210895 0 0.379339
0.477958 0 0.375921
0.794903 0 0.368277
1 0 0.356954
1 0 0.347311
1 0 0.343328
1 0 0.343328
0 0.131365 0.373724
0 0.127886 0.37351
0.136172 0.105745 0.372259
0.447044 0.031754 0.368765
0.777173 0 0.360983
1 0 0.349416
1 0 0.33959
1 0 0.335515
1 0 0.335515
0 0.382376 0.353613
0 0.380972 0.353384
0 0.372549 0.352056
0.348363 0.348363 0.348363
0.726024 0.28864 0.340139
1 0.173602 0.327886
1 0.00386053 0.317418
1 0 0.313085
1 0 0.313085
0 0.662455 0.305013
0 0.661662 0.304753
0 0.656886 0.303227
0 0.643595 0.298985
0.597162 0.613291 0.289448
0.965423 0.5664 0.275135
1 0.524361 0.262776
1 0.506264 0.257618
1 0.506264 0.257618
0 0.92343 0.218265
0 0.922866 0.217914
0 0.919554 0.215854
0 0.910369 0.210101
0.327382 0.889799 0.196994
0.831495 0.859083 0.176623
1 0.832746 0.158297
1 0.82179 0.150378
1 0.82179 0.150378
0 1 0.113909
0 1 0.113344
0 1 0.109972
0 1 0.100313
0 1 0.0766003
0.699657 1 0.0408789
0.98114 1 0.0113527
1 1 0
1 1 0
0 1 0.0494087
0 1 0.0487221
0 1 0.0446326
0 1 0.033402
0 1 0.00872816
0.637797 1 0
0.939391 1 0
1 1 0
1 1 0
0 1 0.0494087
0 1 0.0487221
0 1 0.0446326
0 1 0.033402
0 1 0.00872816
0.637797 1 0
0.939391 1 0
1 1 0
1 1 0
0 0 0.632944
0 0 0.632822
0.178943 0 0.632074
0.463737 0 0.630045
0.786648 0 0.625544
1 0 0.618982
1 0 0.613489
1 0 0.611261
1 0 0.611261
0 0 0.632242
0 0 0.632105
0.166278 0 0.631373
0.458503 0 0.629343
0.783658 0 0.624842
1 0 0.618265
1 0 0.612772
1 0 0.610529
1 0 0.610529
0 0 0.628031
0 0 0.627909
0.0673838 0 0.627161
0.426184 0 0.625116
0.765652 0 0.620584
1 0 0.613962
1 0 0.608423
1 0 0.606165
1 0 0.606165
0 0.329381 0.616342
0 0.327764 0.61622
0 0.317998 0.615457
0.32137 0.289616 0.613367
0.713603 0.216007 0.608743
1 0.0390478 0.601968
1 0 0.596323
1 0 0.594018
1 0 0.594018
0 0.633555 0.589776
0 0.632715 0.589639
0 0.62771 0.588846
0 0.613748 0.586648
0.581811 0.581811 0.581811
0.956359 0.532036 0.574716
1 0.486931 0.56878
1 0.467369 0.566354
1 0.467369 0.566354
0 0.903502 0.548943
0 0.902922 0.548791
0 0.899535 0.547936
0 0.890105 0.545571
0.298619 0.869017 0.540337
0.820798 0.837461 0.532677
1 0.810361 0.526253
1 0.799069 0.523613
1 0.799069 0.523613
0 1 0.512642
0 1 0.512489
0 1 0.511559
0 1 0.509026
0 1 0.503395
0.686732 1 0.495155
0.972229 0.997406 0.488212
1 0.988449 0.485374
1 0.988449 0.485374
0 1 0.497124
0 1 0.496971
0 1 0.496025
0 1 0.4934
0 1 0.487602
0.623484 1 0.479072
0.930037 1 0.471901
1 1 0.468956
1 1 0.468956
0 1 0.497124
0 1 0.496971
0 1 0.496025
0 1 0.4934
0 1 0.487602
0.623484 1 0.479072
0.930037 1 0.471901
1 1 0.468956
1 1 0.468956
0 0 0.872953
0 0 0.872862
0.0972915 0 0.872343
0.434363 0 0.870909
0.770123 0 0.867735
1 0 0.863127
1 0 0.859312
1 0 0.85774
1 0 0.85774
0 0 0.87245
0 0 0.872358
0.0770275 0 0.871839
0.428779 0 0.870405
0.767056 0 0.867231
1 0 0.862623
1 0 0.858793
1 0 0.857237
1 0 0.857237
0 0 0.86949
0 0 0.869398
0 0 0.868879
0.394049 0 0.86743
0.748623 0 0.864256
1 0 0.859632
1 0 0.855787
1 0 0.854215
1 0 0.854215
0 0.234119 0.861295
0 0.231922 0.861204
0 0.218448 0.86067
0.278065 0.177218 0.859205
0.695201 0.0426184 0.856001
1 0 0.851331
1 0 0.84744
1 0 0.845853
1 0 0.845853
0 0.589059 0.842954
0 0.588159 0.842863
0 0.582757 0.842329
0 0.56762 0.840833
0.558801 0.532799 0.837537
0.943069 0.477791 0.832746
1 0.426917 0.828779
1 0.404456 0.827146
1 0.404456 0.827146
0 0.873762 0.815625
0 0.873167 0.815534
0 0.869642 0.814969
0 0.859861 0.813428
0.25182 0.837934 0.81001
0.805035 0.805035 0.805035
1 0.776699 0.800916
1 0.764874 0.799222
1 0.764874 0.799222
0 1 0.792248
0 1 0.792157
0 1 0.791577
0 1 0.789975
0 1 0.78645
0.667536 0.993194 0.781323
0.959197 0.97084 0.77705
1 0.961608 0.775311
1 0.961608 0.775311
0 1 0.782559
0 1 0.782452
0 1 0.781872
0 1 0.78024
0 1 0.776669
0.602152 1 0.771481
0.916335 1 0.767147
1 1 0.765377
1 1 0.765377
0 1 0.782559
0 1 0.782452
0 1 0.781872
0 1 0.78024
0 1 0.776669
0.602152 1 0.771481
0.916335 1 0.767147
1 1 0.765377
1 1 0.765377
0 0 1
0 0 1
0.00350958 0 1
0.408499 0 1
0.756176 0 1
1 0 1
1 0 1
1 0 1
1 0 1
0 0 1
0 0 1
0 0 1
0.402564 0 1
0.753048 0 1
1 0 1
1 0 1
1 0 1
1 0 1
0 0 1
0 0 1
0 0 1
0.365408 0 1
0.734218 0 1
1 0 1
1 0 1
1 0 1
1 0 1
0 0.116777 1
0 0.112993 1
0 0.0886702 1
0.237003 0.0128328 1
0.679591 0 1
1 0 1
1 0 1
1 0 1
1 0 1
0 0.549432 1
0 0.54847 1
0 0.542657 1
0 0.526329 1
0.53901 0.488472 0.997528
0.93193 0.42771 0.993591
1 0.370077 0.990311
1 0.344045 0.988983
1 0.344045 0.988983
0 0.84831 0.979538
0 0.8477 0.979461
0 0.844053 0.979004
0 0.833951 0.977737
0.206378 0.811261 0.974945
0.79176 0.777127 0.970901
1 0.747631 0.967544
1 0.735302 0.966171
1 0.735302 0.966171
0 1 0.960525
0 1 0.960433
0 1 0.959976
0 1 0.958679
0 0.998123 0.955825
0.651209 0.971176 0.95169
0.948257 0.948257 0.948257
1 0.938781 0.946868
1 0.938781 0.946868
0 1 0.952682
0 1 0.952605
0 1 0.952132
0 1 0.95082
0 1 0.947951
0.583902 1 0.943786
0.90483 1 0.940307
1 1 0.938903
1 1 0.938903
0 1 0.952682
0 1 0.952605
0 1 0.952132
0 1 0.95082
0 1 0.947951
0.583902 1 0.943786
0.90483 1 0.940307
1 1 0.938903
1 1 0.938903
0 0 1
0 0 1
0 0 1
0.397543 0 1
0.750423 0 1
1 0 1
1 0 1
1 0 1
1 0 1
0 0 1
0 0 1
0 0 1
0.39144 0 1
0.74728 0 1
1 0 1
1 0 1
1 0 1
1 0 1
0 0 1
0 0 1
0 0 1
0.353155 0 1
0.728298 0 1
1 0 1
1 0 1
1 0 1
1 0 1
0 0.0411536 1
0 0.0364996 1
0 0.00894179 1
0.218463 0 1
0.673136 0 1
1 0 1
1 0 1
1 0 1
1 0 1
0 0.532479 1
0 0.531487 1
0 0.525475 1
0 0.508583 1
0.53077 0.469261 1
0.927367 0.405631 1
1 0.344442 1
1 0.316426 1
1 0.316426 1
0 0.837736 1
0 0.837125 1
0 0.833432 1
0 0.823178 1
0.185367 0.800153 1
0.786297 0.765484 1
1 0.735485 1
1 0.722927 1
1 0.722927 1
0 1 1
0 1 1
0 1 1
0 1 1
0 0.989319 1
0.644465 0.962097 1
0.943786 0.938918 1
1 0.929335 1
1 0.929335 1
0 1 1
0 1 1
0 1 1
0 1 1
0 1 1
0.576318 1 1
0.900114 1 1
1 1 1
1 1 1
0 1 1
0 1 1
0 1 1
0 1 1
0 1 1
0.576318 1 1
0.900114 1 1
1 1 1
1 1 1
0 0 1
0 0 1
0 0 1
0.397543 0 1
0.750423 0 1
1 0 1
1 0 1
1 0 1
1 0 1
0 0 1
0 0 1
0 0 1
0.39144 0 1
0.74728 0 1
1 0 1
1 0 1
1 0 1
1 0 1
0 0 1
0 0 1
0 0 1
0.353155 0 1
0.728298 0 1
1 0 1
1 0 1
1 0 1
1 0 1
0 0.0411536 1
0 0.0364996 1
0 0.00894179 1
0.218463 0 1
0.673136 0 1
1 0 1
1 0 1
1 0 1
1 0 1
0 0.532479 1
0 0.531487 1
0 0.525475 1
0 0.508583 1
0.53077 0.469261 1
0.927367 0.405631 1
1 0.344442 1
1 0.316426 1
1 0.316426 1
0 0.837736 1
0 0.837125 1
0 0.833432 1
0 0.823178 1
0.185367 0.800153 1
0.786297 0.765484 1
1 0.735485 1
1 0.722927 1
1 0.722927 1
0 1 1
0 1 1
0 1 1
0 1 1
0 0.989319 1
0.644465 0.962097 1
0.943786 0.938918 1
1 0.929335 1
1 0.929335 1
0 1 1
0 1 1
0 1 1
0 1 1
0 1 1
0.576318 1 1
0.900114 1 1
1 1 1
1 1 1
0 1 1
0 1 1
0 1 1
0 1 1
0 1 1
0.576318 1 1
0.900114 1 1
1 1 1
1 1 1
