MEDT/Pirringer/Unterricht/2025-02-26/fotos/LUTs/Blackmagic 4.6K Film Gen3 to Rec.709 LUT 33x33.cube
TITLE "Generated by Resolve"
LUT_3D_SIZE 5
0 0 0
0.22884 0 0
0.58233 0 0
0.90164 0 0
1 0 0
0.0348058 0.238758 0
0.245121 0.229358 0
0.589151 0.186999 0
0.905928 0.0895857 0
1 0.00791943 0
0.157153 0.60296 0
0.303532 0.599161 0
0.616175 0.583413 0
0.923156 0.555901 0
1 0.538735 0
0.277211 0.93193 0
0.383261 0.929564 0
0.658946 0.919829 0
0.951339 0.903227 0
1 0.893126 0
0.330709 1 0
0.424109 1 0
0.683192 1 0
0.967773 1 0
1 1 0
0 0 0.242237
0.197986 0 0.225513
0.570306 0 0.142245
0.894163 0 0
1 0 0
0 0.226108 0.233539
0.216236 0.216236 0.216236
0.577279 0.171313 0.128695
0.898482 0.0629435 0
1 0 0
0.113298 0.597879 0.194675
0.280064 0.594049 0.174319
0.604852 0.578149 0.0599222
0.915877 0.550362 0
1 0.533013 0
0.25156 0.928771 0.109239
0.364675 0.92639 0.0762646
0.648417 0.916625 0
0.944305 0.899947 0
1 0.889799 0
0.309163 1 0.0349889
0.40734 1 0
0.67306 1 0
0.960876 1 0
1 1 0
0 0 0.610193
0 0 0.60351
0.518212 0 0.575402
0.862928 0 0.524681
1 0 0.491737
0 0.166629 0.606668
0.0341955 0.153857 0.599954
0.525902 0.0906386 0.571664
0.86743 0 0.520562
1 0 0.487327
0 0.576638 0.592096
0.156756 0.572671 0.585199
0.55613 0.55613 0.55613
0.885481 0.527138 0.503395
1 0.50898 0.468925
0.106905 0.915709 0.56672
0.276951 0.913283 0.559503
0.603387 0.903365 0.528969
0.914946 0.886412 0.473121
1 0.876097 0.436255
0.201251 1 0.550942
0.330495 1 0.543511
0.629923 1 0.511986
0.932097 1 0.454032
1 1 0.415457
0 0 0.94255
0 0 0.938399
0.41593 0 0.921187
0.807477 0 0.891478
0.965179 0 0.873152
0 0.00921645 0.940352
0 0 0.936187
0.425483 0 0.918944
0.812299 0 0.889143
0.969146 0 0.870756
0 0.53901 0.93135
0 0.534737 0.927123
0.462455 0.51696 0.909697
0.831678 0.485573 0.879545
0.985168 0.465751 0.860945
0 0.893278 0.915984
0.00112917 0.890806 0.911681
0.518608 0.880598 0.893919
0.863157 0.863157 0.863157
1 0.852537 0.84416
0 1 0.906645
0.134508 1 0.902296
0.549416 1 0.884321
0.881422 1 0.853193
1 1 0.833936
0 0 1
0 0 1
0.340505 0 1
0.772183 0 1
0.936385 0 1
0 0 1
0 0 1
0.352041 0 1
0.777249 0 1
0.94049 0 1
0 0.515129 1
0 0.510658 1
0.395804 0.491966 1
0.797559 0.458854 1
0.957046 0.437812 1
0 0.879561 1
0 0.877043 1
0.460197 0.866667 1
0.830457 0.848905 1
0.984161 0.838087 1
0 1 1
0 1 1
0.494743 1 1
0.849485 1 1
1 1 1
