MEDT/Pirringer/Unterricht/2025-02-26/fotos/LUTs/Blackmagic 4.6K Film Gen3 to Rec.709 LUT 33x33.cube
TITLE "Generated by Resolve"
LUT_3D_SIZE 9
0 0 0
0.0618753 0 0
0.22884 0 0
0.398718 0 0
0.58233 0 0
0.759777 0 0
0.90164 0 0
0.994293 0 0
1 0 0
0.00703441 0.0661173 0
0.0689097 0.0621042 0
0.232212 0.0462348 0
0.400748 0.0158083 0
0.583719 0 0
0.760815 0 0
0.90251 0 0
0.995071 0 0
1 0 0
0.0348058 0.238758 0
0.0961929 0.236881 0
0.245121 0.229358 0
0.408667 0.214313 0
0.589151 0.186999 0
0.76492 0.144442 0
0.905928 0.0895857 0
0.998138 0.0379187 0
1 0.00791943 0
0.0881208 0.413779 0
0.138781 0.412665 0
0.268345 0.408194 0
0.423438 0.399512 0
0.59942 0.384573 0
0.772732 0.363638 0
0.912413 0.341344 0
1 0.323552 0
1 0.312779 0
0.157153 0.60296 0
0.194186 0.602197 0
0.303532 0.599161 0
0.447013 0.593317 0
0.616175 0.583413 0
0.78558 0.569863 0
0.923156 0.555901 0
1 0.545098 0
1 0.538735 0
0.223865 0.785763 0
0.252674 0.785199 0
0.345464 0.78291 0
0.476768 0.778531 0
0.637873 0.771145 0
0.802426 0.761135 0
0.937331 0.750912 0
1 0.743099 0
1 0.738521 0
0.277211 0.93193 0
0.301457 0.931456 0
0.383261 0.929564 0
0.504906 0.925933 0
0.658946 0.919829 0
0.818998 0.911604 0
0.951339 0.903227 0
1 0.896849 0
1 0.893126 0
0.312047 1 0
0.333959 1 0
0.409567 1 0
0.525139 1 0
0.674388 1 0
0.831281 1 0
0.961776 1 0
1 0.996033 0
1 0.992721 0
0.330709 1 0
0.351522 1 0
0.424109 1 0
0.536538 1 0
0.683192 1 0
0.838315 1 0
0.967773 1 0
1 1 0
1 1 0
0 0 0.0676432
0.0496834 0 0.0604868
0.222889 0 0.0322728
0.395178 0 0
0.579919 0 0
0.757961 0 0
0.90013 0 0
0.99295 0 0
1 0 0
0 0.0607309 0.063859
0.0567178 0.0567178 0.0567178
0.226337 0.0408484 0.0284886
0.397223 0.0104372 0
0.581308 0 0
0.758999 0 0
0.900999 0 0
0.993729 0 0
1 0 0
0.0226139 0.236255 0.0489662
0.0847028 0.234363 0.0418097
0.239521 0.226764 0.0135958
0.405203 0.211551 0
0.58677 0.183902 0
0.763119 0.140673 0
0.904418 0.0843977 0
0.996796 0.0325322 0
1 0.00254826 0
0.0758221 0.412284 0.0204166
0.12987 0.411154 0.0132601
0.263172 0.406668 0
0.420096 0.397955 0
0.597086 0.382956 0
0.770947 0.361929 0
0.910933 0.339529 0
1 0.321645 0
1 0.310811 0
0.14905 0.601938 0
0.187335 0.60116 0
0.298924 0.598138 0
0.443854 0.592279 0
0.613901 0.582345 0
0.783825 0.56878 0
0.921691 0.554788 0
1 0.543969 0
1 0.537575 0
0.217807 0.785 0
0.247227 0.784421 0
0.34139 0.782147 0
0.473808 0.777752 0
0.635676 0.770352 0
0.800717 0.760342 0
0.935882 0.750103 0
1 0.74229 0
1 0.737697 0
0.272206 0.931289 0
0.296818 0.930816 0
0.379583 0.928923 0
0.502113 0.925292 0
0.656825 0.919188 0
0.817334 0.910948 0
0.94992 0.902571 0
1 0.896178 0
1 0.892454 0
0.307561 1 0
0.329747 1 0
0.406119 1 0
0.522454 1 0
0.672328 1 0
0.829633 1 0
0.960372 1 0
1 0.995438 0
1 0.992126 0
0.326467 1 0
0.347509 1 0
0.420768 1 0
0.533913 1 0
0.681163 1 0
0.836683 1 0
0.966384 1 0
1 1 0
1 1 0
0 0 0.242237
0.0015259 0 0.238941
0.197986 0 0.225513
0.380865 0 0.197665
0.570306 0 0.142245
0.750744 0 0.0339361
0.894163 0 0
0.987594 0 0
1 0 0
0 0.0394903 0.240497
0.00856031 0.0354772 0.237186
0.201785 0.0196078 0.223651
0.382986 0 0.19559
0.571725 0 0.13959
0.751812 0 0.0301518
0.895048 0 0
0.988388 0 0
1 0 0
0 0.226108 0.233539
0.0363317 0.22414 0.230121
0.216236 0.216236 0.216236
0.391257 0.200366 0.187274
0.577279 0.171313 0.128695
0.755962 0.125048 0.015259
0.898482 0.0629435 0
0.99147 0.0112917 0
1 0 0
0.0276799 0.406287 0.219654
0.0895857 0.405142 0.216068
0.241871 0.400595 0.201373
0.406653 0.391745 0.170428
0.587762 0.376516 0.105806
0.763867 0.355123 0
0.905043 0.33228 0
0.99736 0.314 0
1 0.302922 0
0.113298 0.597879 0.194675
0.15816 0.597101 0.190707
0.280064 0.594049 0.174319
0.431144 0.588144 0.138994
0.604852 0.578149 0.0599222
0.776883 0.564477 0
0.915877 0.550362 0
1 0.539452 0
1 0.533013 0
0.19237 0.781949 0.156481
0.224628 0.781369 0.151751
0.324834 0.77908 0.13193
0.461921 0.77467 0.0865492
0.626963 0.767239 0
0.793927 0.757183 0
0.930175 0.746899 0
1 0.73904 0
1 0.734432 0
0.25156 0.928771 0.109239
0.277836 0.928283 0.10312
0.364675 0.92639 0.0762646
0.490929 0.922744 0.0221866
0.648417 0.916625 0
0.810697 0.908354 0
0.944305 0.899947 0
1 0.893538 0
1 0.889799 0
0.289204 1 0.0631571
0.312612 1 0.0560006
0.392187 1 0.0277867
0.511727 1 0
0.664118 1 0
0.823102 1 0
0.954818 0.998795 0
1 0.993088 0
1 0.989761 0
0.309163 1 0.0349889
0.331243 1 0.0278477
0.40734 1 0
0.523415 1 0
0.67306 1 0
0.830213 1 0
0.960876 1 0
1 1 0
1 1 0
0 0 0.419074
0 0 0.41709
0.141283 0 0.409201
0.351873 0 0.393668
0.551385 0 0.366278
0.736721 0 0.326192
0.882612 0 0.280552
0.977264 0 0.241047
1 0 0.21529
0 0 0.418021
0 0 0.416052
0.146181 0 0.408133
0.354177 0 0.392554
0.55285 0 0.365087
0.737804 0 0.324865
0.883497 0 0.279042
0.978058 0 0.239307
1 0 0.213367
0 0.205478 0.413886
0 0.203357 0.411887
0.164431 0.194766 0.403906
0.363073 0.177371 0.388159
0.558602 0.1449 0.360372
0.742046 0.0906081 0.319585
0.886992 0.0222324 0.272938
0.98117 0 0.232303
1 0 0.205631
0 0.394568 0.405844
0 0.393378 0.403815
0.195666 0.388708 0.395666
0.379583 0.379583 0.379583
0.569451 0.363851 0.351141
0.750118 0.341711 0.309224
0.893645 0.317968 0.260914
0.987121 0.298878 0.218372
1 0.287251 0.190082
0.0242618 0.590021 0.392065
0.086305 0.589227 0.38996
0.240284 0.58613 0.381521
0.405676 0.580148 0.364828
0.587091 0.570001 0.335195
0.763363 0.55613 0.291157
0.904631 0.541787 0.239643
0.996979 0.530694 0.193256
1 0.524147 0.161593
0.133944 0.776059 0.372839
0.174807 0.775479 0.370611
0.290654 0.773175 0.361746
0.438239 0.768719 0.344137
0.609888 0.761227 0.312673
0.780743 0.75108 0.265248
0.919112 0.740719 0.208316
1 0.732784 0.154788
1 0.72813 0.11606
0.207172 0.923888 0.352468
0.237736 0.923415 0.350118
0.334356 0.921508 0.340749
0.468727 0.917845 0.322057
0.631937 0.911681 0.288365
0.797803 0.903365 0.236667
0.933425 0.894911 0.172259
1 0.888457 0.107057
1 0.884703 0.0557259
0.250721 1 0.336309
0.277058 1 0.333852
0.36408 1 0.324041
0.490486 1 0.304387
0.648081 1 0.268696
0.810422 1 0.21294
0.944076 0.994308 0.140551
1 0.988571 0.0605631
1 0.985229 0.00723278
0.273213 1 0.326574
0.297749 1 0.324056
0.380316 1 0.313954
0.502678 1 0.293675
0.657252 1 0.256657
0.81767 1 0.198093
0.95021 1 0.119524
1 1 0.0324102
1 1 0
0 0 0.610193
0 0 0.608835
0 0 0.60351
0.297627 0 0.593149
0.518212 0 0.575402
0.712642 0 0.550729
0.862928 0 0.524681
0.959716 0 0.504097
1 0 0.491737
0 0 0.609476
0 0 0.608133
0.00642405 0 0.602792
0.300298 0 0.592416
0.519768 0 0.574655
0.713756 0 0.549935
0.863844 0 0.523842
0.960525 0 0.503227
1 0 0.490837
0 0.166629 0.606668
0 0.164111 0.605325
0.0341955 0.153857 0.599954
0.310658 0.132647 0.589517
0.525902 0.0906386 0.571664
0.718151 0.0226902 0.546807
0.86743 0 0.520562
0.963714 0 0.499794
1 0 0.487327
0 0.374182 0.601251
0 0.372946 0.599893
0.0875257 0.368017 0.594476
0.329656 0.358373 0.583932
0.537423 0.341711 0.565896
0.726513 0.31812 0.540764
0.874235 0.292607 0.514199
0.969787 0.271916 0.493156
1 0.259205 0.480522
0 0.576638 0.592096
0 0.575845 0.590707
0.156756 0.572671 0.585199
0.359258 0.566522 0.574487
0.55613 0.55613 0.55613
0.740215 0.541878 0.53051
0.885481 0.527138 0.503395
0.979828 0.515724 0.48188
1 0.50898 0.468925
0 0.766125 0.579583
0.0510414 0.76553 0.578164
0.22356 0.763195 0.572534
0.395575 0.758679 0.561578
0.580194 0.75108 0.542763
0.75816 0.74078 0.516472
0.900313 0.730251 0.488548
0.993103 0.72221 0.466331
1 0.717479 0.452934
0.106905 0.915709 0.56672
0.153124 0.915221 0.56527
0.276951 0.913283 0.559503
0.429084 0.90959 0.548272
0.603387 0.903365 0.528969
0.775769 0.894957 0.50193
0.914946 0.886412 0.473121
1 0.879911 0.450141
1 0.876097 0.436255
0.171267 1 0.556802
0.206241 1 0.555322
0.311818 1 0.549432
0.452766 1 0.537987
0.62031 1 0.518288
0.788769 0.994354 0.490654
0.925841 0.986755 0.461143
1 0.980972 0.437537
1 0.9776 0.423224
0.201251 1 0.550942
0.232456 1 0.549447
0.330495 1 0.543511
0.465965 1 0.531929
0.629923 1 0.511986
0.796231 1 0.483986
0.932097 1 0.454032
1 1 0.43003
1 1 0.415457
0 0 0.794888
0 0 0.793866
0 0 0.789868
0.20621 0 0.782116
0.470039 0 0.768994
0.67895 0 0.751049
0.835798 0 0.732494
0.935653 0 0.718151
0.988586 0 0.709682
0 0 0.794354
0 0 0.793332
0 0 0.789319
0.209873 0 0.781567
0.471763 0 0.768444
0.68014 0 0.750484
0.836728 0 0.731914
0.936492 0 0.717556
0.989364 0 0.709087
0 0.099855 0.792233
0 0.0962539 0.791226
0 0.0808728 0.787198
0.22388 0.0504616 0.779431
0.478523 0 0.766262
0.684764 0 0.748226
0.840436 0 0.72961
0.939757 0 0.715206
0.992462 0 0.706691
0 0.345098 0.788174
0 0.343755 0.787152
0 0.338415 0.783108
0.248844 0.327962 0.77528
0.491188 0.309758 0.762036
0.693538 0.283726 0.743908
0.847486 0.255146 0.72517
0.946014 0.231525 0.710658
0.998337 0.216815 0.702083
0 0.558221 0.781338
0 0.557382 0.780301
0 0.554101 0.776211
0.286198 0.547753 0.768322
0.511635 0.536965 0.75494
0.707942 0.522179 0.736629
0.859129 0.506859 0.717678
0.956329 0.494957 0.702998
1 0.487907 0.694331
0 0.752605 0.772076
0 0.751995 0.771038
0.0890211 0.749615 0.766888
0.33019 0.745007 0.758892
0.537758 0.737255 0.745327
0.726741 0.726741 0.726741
0.874434 0.715999 0.707515
0.969955 0.707774 0.692622
1 0.702937 0.683803
0 0.904601 0.762646
0 0.904112 0.761578
0.176944 0.902159 0.757382
0.369497 0.898405 0.749279
0.562783 0.892103 0.735531
0.745159 0.883574 0.71667
0.889555 0.874907 0.697139
0.983459 0.868299 0.681987
1 0.864439 0.67303
0 1 0.755428
0.0548714 1 0.75436
0.225437 1 0.750118
0.396689 0.997421 0.741924
0.580941 0.991806 0.728023
0.75874 0.984237 0.708949
0.900786 0.976547 0.689189
0.99353 0.970703 0.673854
1 0.967285 0.664775
0.0454719 1 0.751202
0.105608 1 0.750134
0.249928 1 0.745861
0.411673 1 0.737621
0.591226 1 0.723629
0.766491 1 0.704433
0.907225 1 0.68452
0.999313 1 0.669078
1 1 0.659922
0 0 0.94255
0 0 0.941711
0 0 0.938399
0.0535286 0 0.931991
0.41593 0 0.921187
0.643153 0 0.906508
0.807477 0 0.891478
0.910735 0 0.879927
0.965179 0 0.873152
0 0 0.942107
0 0 0.941268
0 0 0.937942
0.0605631 0 0.931548
0.417884 0 0.920745
0.644404 0 0.90605
0.808454 0 0.891005
0.911589 0 0.879454
0.965988 0 0.872663
0 0.00921645 0.940352
0 0.00520333 0.939513
0 0 0.936187
0.088426 0 0.929763
0.425483 0 0.918944
0.649317 0 0.904219
0.812299 0 0.889143
0.914961 0 0.877562
0.969146 0 0.870756
0 0.313252 0.936996
0 0.311788 0.936141
0 0.305928 0.932799
0.132723 0.294408 0.92636
0.439704 0.274189 0.915496
0.658595 0.2448 0.90071
0.819608 0.211765 0.885557
0.921401 0.183642 0.87393
0.975189 0.165621 0.867094
0 0.53901 0.93135
0 0.538155 0.930495
0 0.534737 0.927123
0.189517 0.528145 0.920638
0.462455 0.51696 0.909697
0.673793 0.501564 0.894804
0.831678 0.485573 0.879545
0.932021 0.473121 0.867826
0.985168 0.465751 0.860945
0 0.73872 0.92372
0 0.738109 0.922866
0 0.735668 0.919463
0.248966 0.730968 0.912917
0.491249 0.723064 0.901869
0.693584 0.712322 0.886839
0.847532 0.701335 0.871427
0.946044 0.692927 0.859586
0.998367 0.687984 0.852628
0 0.893278 0.915984
0 0.89279 0.915114
0.00112917 0.890806 0.911681
0.298299 0.886992 0.905074
0.518608 0.880598 0.893919
0.712917 0.871962 0.878737
0.863157 0.863157 0.863157
0.959915 0.856458 0.851194
1 0.852537 0.84416
0 0.992859 0.910079
0 0.992416 0.909209
0.0914168 0.990662 0.90576
0.331075 0.987274 0.899107
0.538308 0.981598 0.887861
0.727138 0.973938 0.872557
0.874754 0.966155 0.85687
0.970245 0.960235 0.8448
1 0.956786 0.837705
0 1 0.906645
0 1 0.90576
0.134508 1 0.902296
0.348791 1 0.895613
0.549416 1 0.884321
0.735271 1 0.868955
0.881422 1 0.853193
0.976196 1 0.841062
1 1 0.833936
0 0 1
0 0 1
0 0 1
0 0 1
0.36994 0 1
0.614664 0 1
0.785351 0 0.993423
0.891417 0 0.983185
0.947082 0 0.977203
0 0 1
0 0 1
0 0 1
0 0 1
0.372122 0 1
0.615976 0 1
0.786358 0 0.992996
0.892287 0 0.982773
0.947906 0 0.976776
0 0 1
0 0 1
0 0 1
0 0 1
0.380621 0 1
0.621118 0 1
0.790326 0 0.991348
0.895735 0 0.981094
0.951141 0 0.975082
0 0.287053 1
0 0.285466 1
0 0.279103 1
0 0.266545 1
0.396429 0.244282 1
0.630838 0.211398 1
0.797864 0.173327 0.988174
0.902327 0.139559 0.97789
0.95729 0.11693 0.971862
0 0.524025 1
0 0.52314 1
0 0.519631 1
0.0737163 0.51284 1
0.4215 0.501289 1
0.646738 0.48539 0.996368
0.810269 0.468849 0.982849
0.913191 0.45594 0.972503
0.967483 0.44828 0.96643
0 0.728054 1
0 0.727428 1
0 0.724956 1
0.167208 0.72018 1
0.452934 0.712139 1
0.667384 0.701228 0.989303
0.826581 0.690059 0.975677
0.92752 0.681483 0.96524
0.980941 0.676463 0.959121
0 0.884627 1
0 0.884123 1
0 0.882124 1
0.231876 0.878279 1
0.48249 0.871809 0.99559
0.687495 0.863066 0.982132
0.842634 0.85417 0.968383
0.941711 0.847395 0.95787
0.994278 0.843427 0.95169
0 0.985168 1
0 0.984726 1
0 0.98294 1
0.271962 0.979538 1
0.503639 0.9738 0.990219
0.702281 0.966079 0.976684
0.854536 0.958221 0.962844
0.952255 0.952255 0.952255
1 0.948775 0.946044
0 1 1
0 1 1
0 1 1
0.292973 1 0.997086
0.515511 1 0.987076
0.710704 1 0.973495
0.861372 1 0.959609
0.958328 1 0.948989
1 1 0.942748
0 0 1
0 0 1
0 0 1
0 0 1
0.340505 0 1
0.597467 0 1
0.772183 0 1
0.879973 0 1
0.936385 0 1
0 0 1
0 0 1
0 0 1
0 0 1
0.34287 0 1
0.59881 0 1
0.77322 0 1
0.880858 0 1
0.937224 0 1
0 0 1
0 0 1
0 0 1
0 0 1
0.352041 0 1
0.604105 0 1
0.777249 0 1
0.884367 0 1
0.94049 0 1
0 0.270802 1
0 0.269123 1
0 0.262409 1
0 0.249088 1
0.369024 0.22536 1
0.614115 0.189807 1
0.784924 0.14757 1
0.891035 0.108583 1
0.946731 0.0808728 1
0 0.515129 1
0 0.514229 1
0 0.510658 1
0 0.503731 1
0.395804 0.491966 1
0.630457 0.475746 1
0.797559 0.458854 1
0.902052 0.445655 1
0.957046 0.437812 1
0 0.721782 1
0 0.721157 1
0 0.718654 1
0.100664 0.713832 1
0.429099 0.705715 1
0.651652 0.694697 1
0.814145 0.683406 1
0.916579 0.674754 1
0.970672 0.669673 1
0 0.879561 1
0 0.879057 1
0 0.877043 1
0.184375 0.873167 1
0.460197 0.866667 1
0.672267 0.857862 1
0.830457 0.848905 1
0.930953 0.842069 1
0.984161 0.838087 1
0 0.980667 1
0 0.980224 1
0 0.978439 1
0.231571 0.975006 1
0.482338 0.969253 1
0.687404 0.961486 1
0.842557 0.953597 1
0.941634 0.947585 1
0.994217 0.944076 1
0 1 1
0 1 1
0 1 1
0.255558 1 1
0.494743 1 1
0.696025 1 1
0.849485 1 1
0.947768 1 1
1 1 1
