MEDT/Pirringer/Unterricht/2025-02-26/fotos/LUTs/Blackmagic 4.6K Film Gen3 to Rec.709 LUT 33x33.cube
TITLE "Generated by Resolve"
LUT_3D_SIZE 33
0 0 0
0 0 0
0 0 0
0.0235599 0 0
0.0618753 0 0
0.10602 0 0
0.147784 0 0
0.188357 0 0
0.22884 0 0
0.269856 0 0
0.311757 0 0
0.354696 0 0
0.398718 0 0
0.443732 0 0
0.489555 0 0
0.535882 0 0
0.58233 0 0
0.628458 0 0
0.673747 0 0
0.717693 0 0
0.759777 0 0
0.799542 0 0
0.836606 0 0
0.870695 0 0
0.90164 0 0
0.929397 0 0
0.953994 0 0
0.975555 0 0
0.994293 0 0
1 0 0
1 0 0
1 0 0
1 0 0
0 0 0
0 0 0
0 0 0
0.0235599 0 0
0.0618753 0 0
0.10602 0 0
0.147784 0 0
0.188357 0 0
0.22884 0 0
0.269856 0 0
0.311757 0 0
0.354696 0 0
0.398718 0 0
0.443732 0 0
0.489555 0 0
0.535882 0 0
0.58233 0 0
0.628458 0 0
0.673747 0 0
0.717693 0 0
0.759777 0 0
0.799542 0 0
0.836606 0 0
0.870695 0 0
0.90164 0 0
0.929397 0 0
0.953994 0 0
0.975555 0 0
0.994293 0 0
1 0 0
1 0 0
1 0 0
1 0 0
0 0 0
0 0 0
0 0 0
0.0235599 0 0
0.0618753 0 0
0.10602 0 0
0.147784 0 0
0.188357 0 0
0.22884 0 0
0.269856 0 0
0.311757 0 0
0.354696 0 0
0.398718 0 0
0.443732 0 0
0.489555 0 0
0.535882 0 0
0.58233 0 0
0.628458 0 0
0.673747 0 0
0.717693 0 0
0.759777 0 0
0.799542 0 0
0.836606 0 0
0.870695 0 0
0.90164 0 0
0.929397 0 0
0.953994 0 0
0.975555 0 0
0.994293 0 0
1 0 0
1 0 0
1 0 0
1 0 0
0.00268559 0.0251774 0
0.00268559 0.0251774 0
0.00268559 0.0251774 0
0.0262455 0.0236515 0
0.0645609 0.0211643 0
0.108293 0.0181735 0
0.149599 0.0146029 0
0.189868 0.0103456 0
0.230121 0.00529488 0
0.27097 0 0
0.312734 0 0
0.355566 0 0
0.399496 0 0
0.444434 0 0
0.490181 0 0
0.536446 0 0
0.582864 0 0
0.628946 0 0
0.674205 0 0
0.71812 0 0
0.760174 0 0
0.799908 0 0
0.836957 0 0
0.871031 0 0
0.901976 0 0
0.929717 0 0
0.954299 0 0
0.97586 0 0
0.994598 0 0
1 0 0
1 0 0
1 0 0
1 0 0
0.00703441 0.0661173 0
0.00703441 0.0661173 0
0.00703441 0.0661173 0
0.0306096 0.0645914 0
0.0689097 0.0621042 0
0.11194 0.0591135 0
0.152529 0.0555428 0
0.192309 0.0512856 0
0.232212 0.0462348 0
0.272786 0.0402686 0
0.314321 0.0332952 0
0.35697 0.0251774 0
0.400748 0.0158083 0
0.445563 0.00514229 0
0.491203 0 0
0.537392 0 0
0.583719 0 0
0.62974 0 0
0.674937 0 0
0.718807 0 0
0.760815 0 0
0.800519 0 0
0.837537 0 0
0.871595 0 0
0.90251 0 0
0.930236 0 0
0.954803 0 0
0.976364 0 0
0.995071 0 0
1 0 0
1 0 0
1 0 0
1 0 0
0.0122683 0.11223 0
0.0122683 0.11223 0
0.0122683 0.11223 0
0.0358282 0.110964 0
0.0741436 0.108873 0
0.116197 0.10634 0
0.155978 0.103273 0
0.195193 0.0995193 0
0.234684 0.0949569 0
0.274937 0.0894026 0
0.316213 0.0826429 0
0.358648 0.0742809 0
0.402258 0.0649271 0
0.446921 0.0542458 0
0.492439 0.0422217 0
0.538506 0.0288243 0
0.584741 0.0141451 0
0.630686 0 0
0.675822 0 0
0.719631 0 0
0.761593 0 0
0.801251 0 0
0.838239 0 0
0.872267 0 0
0.903151 0 0
0.930846 0 0
0.955413 0 0
0.976944 0 0
0.995651 0 0
1 0 0
1 0 0
1 0 0
1 0 0
0.0185245 0.155261 0
0.0185245 0.155261 0
0.0185245 0.155261 0
0.0420844 0.154253 0
0.0803998 0.15259 0
0.121172 0.150591 0
0.160037 0.14818 0
0.198611 0.145251 0
0.237629 0.141741 0
0.277485 0.137499 0
0.318471 0.132418 0
0.360647 0.126329 0
0.404044 0.119051 0
0.448524 0.110384 0
0.493904 0.100038 0
0.539849 0.0876936 0
0.585977 0.0728923 0
0.631815 0.0570535 0
0.676875 0.0402686 0
0.720607 0.0227817 0
0.762524 0.00491341 0
0.802136 0 0
0.839078 0 0
0.87306 0 0
0.903929 0 0
0.931594 0 0
0.95613 0 0
0.977646 0 0
0.996353 0 0
1 0 0
1 0 0
1 0 0
1 0 0
0.0259709 0.197055 0
0.0259709 0.197055 0
0.0259709 0.197055 0
0.0495308 0.196216 0
0.087953 0.194842 0
0.126925 0.193194 0
0.164782 0.191196 0
0.202625 0.1888 0
0.241077 0.185931 0
0.280507 0.182498 0
0.321126 0.178408 0
0.363027 0.173556 0
0.406165 0.167834 0
0.450446 0.16112 0
0.495628 0.153277 0
0.541436 0.144183 0
0.587427 0.133715 0
0.633158 0.121736 0
0.678126 0.108095 0
0.721782 0.092607 0
0.763622 0.0749218 0
0.803174 0.0570382 0
0.84007 0.0394598 0
0.874006 0.0225376 0
0.90483 0.00653086 0
0.932479 0 0
0.956985 0 0
0.978485 0 0
0.997162 0 0
1 0 0
1 0 0
1 0 0
1 0 0
0.0348058 0.238758 0
0.0348058 0.238758 0
0.0348058 0.238758 0
0.058381 0.238056 0
0.0961929 0.236881 0
0.133532 0.235492 0
0.17026 0.233799 0
0.207294 0.231785 0
0.245121 0.229358 0
0.284047 0.226474 0
0.324254 0.223056 0
0.365805 0.219028 0
0.408667 0.214313 0
0.452705 0.208804 0
0.497688 0.202472 0
0.543297 0.195209 0
0.589151 0.186999 0
0.63476 0.177783 0
0.679606 0.167605 0
0.723171 0.156466 0
0.76492 0.144442 0
0.80441 0.131624 0
0.841245 0.118135 0
0.875135 0.104082 0
0.905928 0.0895857 0
0.933532 0.0746777 0
0.958007 0.0610666 0
0.979492 0.0488136 0
0.998138 0.0379187 0
1 0.0283513 0
1 0.0200351 0
1 0.0128634 0
1 0.00791943 0
0.0452277 0.281025 0
0.0452277 0.281025 0
0.0452277 0.281025 0
0.0688029 0.280415 0
0.105394 0.279408 0
0.141024 0.278187 0
0.176562 0.276738 0
0.212696 0.274998 0
0.249821 0.272923 0
0.288182 0.270451 0
0.327916 0.267521 0
0.369085 0.264088 0
0.411612 0.260075 0
0.45536 0.255436 0
0.500099 0.250126 0
0.54551 0.244083 0
0.59118 0.237308 0
0.636637 0.229801 0
0.681346 0.221607 0
0.724804 0.212802 0
0.766461 0.203479 0
0.805875 0.193774 0
0.842634 0.183841 0
0.876463 0.173846 0
0.907195 0.163973 0
0.934768 0.15436 0
0.959213 0.145174 0
0.980652 0.136522 0
0.999283 0.128481 0
1 0.121126 0
1 0.114488 0
1 0.108553 0
1 0.104326 0
0.0574502 0.324193 0
0.0574502 0.324193 0
0.0574502 0.324193 0
0.0812695 0.323644 0
0.115587 0.322774 0
0.149462 0.321706 0
0.183734 0.320439 0
0.218891 0.318914 0
0.255222 0.317098 0
0.292943 0.314946 0
0.332158 0.312413 0
0.372869 0.309422 0
0.415015 0.305959 0
0.458442 0.301961 0
0.502907 0.297398 0
0.548074 0.292241 0
0.593545 0.286488 0
0.638819 0.280156 0
0.683391 0.273304 0
0.726711 0.266011 0
0.768261 0.258366 0
0.807568 0.250492 0
0.844251 0.242557 0
0.878019 0.234684 0
0.90869 0.227008 0
0.936217 0.219699 0
0.960616 0.212818 0
0.982025 0.206455 0
1 0.200656 0
1 0.195453 0
1 0.190829 0
1 0.186786 0
1 0.183948 0
0.0716564 0.368429 0
0.0716564 0.368429 0
0.0716564 0.368429 0
0.0948653 0.367956 0
0.126726 0.367178 0
0.158862 0.366232 0
0.191806 0.365118 0
0.22591 0.363775 0
0.261387 0.362173 0
0.298405 0.360265 0
0.337026 0.358038 0
0.377234 0.355413 0
0.418952 0.352377 0
0.462013 0.348882 0
0.506157 0.3449 0
0.551049 0.340414 0
0.596277 0.335439 0
0.641352 0.329976 0
0.685756 0.324102 0
0.728923 0.317876 0
0.770336 0.311391 0
0.809537 0.304784 0
0.846128 0.298146 0
0.87982 0.29163 0
0.91043 0.285328 0
0.937896 0.279362 0
0.962249 0.273808 0
0.983627 0.268727 0
1 0.264118 0
1 0.260029 0
1 0.256413 0
1 0.253269 0
1 0.251072 0
0.0881208 0.413779 0
0.0881208 0.413779 0
0.0881208 0.413779 0
0.109209 0.413352 0
0.138781 0.412665 0
0.169192 0.411826 0
0.200763 0.410819 0
0.233768 0.409628 0
0.268345 0.408194 0
0.304585 0.406516 0
0.34255 0.404517 0
0.382208 0.402197 0
0.423438 0.399512 0
0.466087 0.396414 0
0.50988 0.392889 0
0.554467 0.388952 0
0.59942 0.384573 0
0.644266 0.379797 0
0.688457 0.37467 0
0.731456 0.369253 0
0.772732 0.363638 0
0.81181 0.357931 0
0.848295 0.352255 0
0.881895 0.346685 0
0.912413 0.341344 0
0.939818 0.336309 0
0.964126 0.33164 0
0.985443 0.327382 0
1 0.323552 0
1 0.32015 0
1 0.317159 0
1 0.31458 0
1 0.312779 0
0.105058 0.460166 0
0.105058 0.460166 0
0.105058 0.460166 0
0.124224 0.459785 0
0.151675 0.459159 0
0.180407 0.458396 0
0.21062 0.457496 0
0.242466 0.456428 0
0.276066 0.455146 0
0.311498 0.453635 0
0.34876 0.45185 0
0.387793 0.449775 0
0.428504 0.447364 0
0.470695 0.444587 0
0.514076 0.441459 0
0.558328 0.437934 0
0.602991 0.434058 0
0.647562 0.429816 0
0.691539 0.425284 0
0.73434 0.420508 0
0.775448 0.415564 0
0.814389 0.410574 0
0.850752 0.4056 0
0.884245 0.400748 0
0.914687 0.396124 0
0.942016 0.39176 0
0.966262 0.387732 0
0.987533 0.38407 0
1 0.380789 0
1 0.377874 0
1 0.375341 0
1 0.373129 0
1 0.371603 0
0.122271 0.507362 0
0.122271 0.507362 0
0.122271 0.507362 0
0.139788 0.507027 0
0.165316 0.506447 0
0.192432 0.505776 0
0.221271 0.504952 0
0.251957 0.503975 0
0.284566 0.502831 0
0.319127 0.501457 0
0.355627 0.499855 0
0.394003 0.497963 0
0.434134 0.495796 0
0.475822 0.493309 0
0.518776 0.490486 0
0.562646 0.487327 0
0.606973 0.483833 0
0.65127 0.480034 0
0.694987 0.475975 0
0.737575 0.471717 0
0.7785 0.467323 0
0.817288 0.462882 0
0.853513 0.458488 0
0.886885 0.4542 0
0.917235 0.450111 0
0.944488 0.446265 0
0.968658 0.442741 0
0.989883 0.439521 0
1 0.436652 0
1 0.434104 0
1 0.431891 0
1 0.429969 0
1 0.428641 0
0.139696 0.555093 0
0.139696 0.555093 0
0.139696 0.555093 0
0.155764 0.554772 0
0.179538 0.554269 0
0.205127 0.553643 0
0.232654 0.552895 0
0.262165 0.55201 0
0.293751 0.550958 0
0.327413 0.549706 0
0.363119 0.548257 0
0.400809 0.546548 0
0.44033 0.544564 0
0.481483 0.542306 0
0.523964 0.539742 0
0.567407 0.536889 0
0.611383 0.53373 0
0.65536 0.530297 0
0.698802 0.526635 0
0.741161 0.522789 0
0.781888 0.518837 0
0.820493 0.514855 0
0.856565 0.510903 0
0.88983 0.507057 0
0.920073 0.50341 0
0.947219 0.499992 0
0.971328 0.496834 0
0.992477 0.49398 0
1 0.491432 0
1 0.489174 0
1 0.487205 0
1 0.485512 0
1 0.484337 0
0.157153 0.60296 0
0.157153 0.60296 0
0.157153 0.60296 0
0.171984 0.60267 0
0.194186 0.602197 0
0.218357 0.601617 0
0.244587 0.600946 0
0.272969 0.600122 0
0.303532 0.599161 0
0.336278 0.598016 0
0.371176 0.596689 0
0.408133 0.595117 0
0.447013 0.593317 0
0.487602 0.591241 0
0.52958 0.588907 0
0.572595 0.586297 0
0.616175 0.583413 0
0.659815 0.580285 0
0.702968 0.576959 0
0.745068 0.573465 0
0.78558 0.569863 0
0.823987 0.566247 0
0.859907 0.562676 0
0.893034 0.559197 0
0.923156 0.555901 0
0.950225 0.552819 0
0.974227 0.549966 0
0.995315 0.547402 0
1 0.545098 0
1 0.543084 0
1 0.541314 0
1 0.539788 0
1 0.538735 0
0.174502 0.650477 0
0.174502 0.650477 0
0.174502 0.650477 0
0.188251 0.650202 0
0.209033 0.649775 0
0.231891 0.649241 0
0.256931 0.648615 0
0.284215 0.647868 0
0.313771 0.646983 0
0.345602 0.64593 0
0.379675 0.644694 0
0.4159 0.643244 0
0.454124 0.641581 0
0.494118 0.639689 0
0.535576 0.637537 0
0.578119 0.635126 0
0.621302 0.632486 0
0.664591 0.629602 0
0.707439 0.626551 0
0.749264 0.623346 0
0.789532 0.620066 0
0.827756 0.616754 0
0.863508 0.613489 0
0.896483 0.610315 0
0.926482 0.607294 0
0.953429 0.604486 0
0.977371 0.601892 0
0.998383 0.599557 0
1 0.597467 0
1 0.595636 0
1 0.594034 0
1 0.592645 0
1 0.591684 0
0.191531 0.697139 0
0.191531 0.697139 0
0.191531 0.697139 0
0.204349 0.696895 0
0.22388 0.696483 0
0.245563 0.695994 0
0.269474 0.695415 0
0.29572 0.694728 0
0.3243 0.693889 0
0.355245 0.692912 0
0.388495 0.691768 0
0.423987 0.69044 0
0.46154 0.688899 0
0.500938 0.687129 0
0.541863 0.68513 0
0.583932 0.682902 0
0.626688 0.680461 0
0.669612 0.677806 0
0.712139 0.674983 0
0.753689 0.672023 0
0.793713 0.668986 0
0.831724 0.665934 0
0.867292 0.662913 0
0.900114 0.659998 0
0.929992 0.657221 0
0.956832 0.654643 0
0.980667 0.652262 0
1 0.650111 0
1 0.648203 0
1 0.64651 0
1 0.645045 0
1 0.643763 0
1 0.642893 0
0.208057 0.742412 0
0.208057 0.742412 0
0.208057 0.742412 0
0.220066 0.742184 0
0.238499 0.741802 0
0.259113 0.741344 0
0.282002 0.740795 0
0.307256 0.740154 0
0.33492 0.739376 0
0.365011 0.73846 0
0.397482 0.737392 0
0.432242 0.736156 0
0.469139 0.734707 0
0.507927 0.733059 0
0.548318 0.731197 0
0.589914 0.729122 0
0.632242 0.726848 0
0.6748 0.724376 0
0.716991 0.721736 0
0.758251 0.71899 0
0.798032 0.716167 0
0.835828 0.713329 0
0.871214 0.710521 0
0.903883 0.70782 0
0.933623 0.705242 0
0.960357 0.702846 0
0.9841 0.700648 0
1 0.69865 0
1 0.69688 0
1 0.695323 0
1 0.69395 0
1 0.692775 0
1 0.691966 0
0.223865 0.785763 0
0.223865 0.785763 0
0.223865 0.785763 0
0.235203 0.78555 0
0.252674 0.785199 0
0.272343 0.784772 0
0.294301 0.784253 0
0.318654 0.783642 0
0.345464 0.78291 0
0.374746 0.782055 0
0.406455 0.781048 0
0.440513 0.779873 0
0.476768 0.778531 0
0.514977 0.776989 0
0.554833 0.775235 0
0.595956 0.773281 0
0.637873 0.771145 0
0.680049 0.768826 0
0.72192 0.766354 0
0.76289 0.763775 0
0.802426 0.761135 0
0.840009 0.75848 0
0.875212 0.755856 0
0.907713 0.753323 0
0.937331 0.750912 0
0.963943 0.748669 0
0.987594 0.746624 0
1 0.744762 0
1 0.743099 0
1 0.74165 0
1 0.740383 0
1 0.739284 0
1 0.738521 0
0.238819 0.826734 0
0.238819 0.826734 0
0.238819 0.826734 0
0.249561 0.826535 0
0.266209 0.826185 0
0.285023 0.825788 0
0.306157 0.825299 0
0.329702 0.82472 0
0.355718 0.824033 0
0.384253 0.823224 0
0.415244 0.822278 0
0.448646 0.821164 0
0.484291 0.819883 0
0.521935 0.818433 0
0.561288 0.81677 0
0.601953 0.814939 0
0.643458 0.812909 0
0.685267 0.810727 0
0.726802 0.808392 0
0.767514 0.805966 0
0.80679 0.803464 0
0.84416 0.800961 0
0.879179 0.798489 0
0.911543 0.796109 0
0.941009 0.793835 0
0.967514 0.79173 0
0.991073 0.789792 0
1 0.788037 0
1 0.78648 0
1 0.785107 0
1 0.783917 0
1 0.782895 0
1 0.782177 0
0.25275 0.864927 0
0.25275 0.864927 0
0.25275 0.864927 0
0.263005 0.864729 0
0.278935 0.864408 0
0.297017 0.864027 0
0.317418 0.863554 0
0.34023 0.863005 0
0.36553 0.862348 0
0.393362 0.861585 0
0.423713 0.860685 0
0.456489 0.859632 0
0.491554 0.858412 0
0.528679 0.857023 0
0.567559 0.855451 0
0.607782 0.853697 0
0.64889 0.851774 0
0.690349 0.849699 0
0.731579 0.847486 0
0.772015 0.845167 0
0.811063 0.842802 0
0.848234 0.840421 0
0.88307 0.838087 0
0.915267 0.835828 0
0.944625 0.833677 0
0.971023 0.831678 0
0.994476 0.829831 0
1 0.828183 0
1 0.826703 0
1 0.825406 0
1 0.824277 0
1 0.823301 0
1 0.822629 0
0.265568 0.900053 0
0.265568 0.900053 0
0.265568 0.900053 0
0.275395 0.899855 0
0.2907 0.89955 0
0.308156 0.899184 0
0.327916 0.898741 0
0.350072 0.898207 0
0.374746 0.897581 0
0.401968 0.896849 0
0.431708 0.895979 0
0.463935 0.894972 0
0.498466 0.893812 0
0.535103 0.892485 0
0.573526 0.89099 0
0.613336 0.889311 0
0.654078 0.887465 0
0.695201 0.885481 0
0.736156 0.88336 0
0.776333 0.881163 0
0.815152 0.878904 0
0.852125 0.876631 0
0.886793 0.874388 0
0.918853 0.872236 0
0.948074 0.870176 0
0.97438 0.868269 0
0.997757 0.866514 0
1 0.864942 0
1 0.863539 0
1 0.862303 0
1 0.861219 0
1 0.860288 0
1 0.859648 0
0.277211 0.93193 0
0.277211 0.93193 0
0.277211 0.93193 0
0.286671 0.931746 0
0.301457 0.931456 0
0.318364 0.931105 0
0.33756 0.930678 0
0.359152 0.930175 0
0.383261 0.929564 0
0.409934 0.928862 0
0.439155 0.928023 0
0.470848 0.927047 0
0.504906 0.925933 0
0.5411 0.924651 0
0.57911 0.923217 0
0.61854 0.921599 0
0.658946 0.919829 0
0.699779 0.917922 0
0.740444 0.915892 0
0.780377 0.913771 0
0.818998 0.911604 0
0.855787 0.909422 0
0.890303 0.907271 0
0.922225 0.905196 0
0.951339 0.903227 0
0.977539 0.901396 0
1 0.899718 0
1 0.898207 0
1 0.896849 0
1 0.895659 0
1 0.894636 0
1 0.893736 0
1 0.893126 0
0.287648 0.960525 0
0.287648 0.960525 0
0.287648 0.960525 0
0.296803 0.960342 0
0.311147 0.960067 0
0.327596 0.959716 0
0.346303 0.959304 0
0.367407 0.958816 0
0.391028 0.958236 0
0.417197 0.957549 0
0.445945 0.956741 0
0.477195 0.95581 0
0.510826 0.954726 0
0.546609 0.95349 0
0.584237 0.952087 0
0.623346 0.95053 0
0.663432 0.948837 0
0.70399 0.946975 0
0.744411 0.945022 0
0.784131 0.942977 0
0.822553 0.940871 0
0.859174 0.938766 0
0.893553 0.93669 0
0.925353 0.934691 0
0.95436 0.932784 0
0.980468 0.931029 0
1 0.929397 0
1 0.927947 0
1 0.926635 0
1 0.92549 0
1 0.924498 0
1 0.923644 0
1 0.923049 0
0.296895 0.98587 0
0.296895 0.98587 0
0.296895 0.98587 0
0.305791 0.985702 0
0.319768 0.985412 0
0.335821 0.985077 0
0.354116 0.98468 0
0.374792 0.984207 0
0.397986 0.983642 0
0.423743 0.982971 0
0.452079 0.982193 0
0.482933 0.981277 0
0.516167 0.980224 0
0.551598 0.979034 0
0.588907 0.977676 0
0.627695 0.976165 0
0.667521 0.974502 0
0.70782 0.972717 0
0.748028 0.97081 0
0.787549 0.968826 0
0.825803 0.966781 0
0.862272 0.964736 0
0.896513 0.962737 0
0.928206 0.960784 0
0.957107 0.958938 0
0.983139 0.957229 0
1 0.955657 0
1 0.954238 0
1 0.952972 0
1 0.951873 0
1 0.950896 0
1 0.950072 0
1 0.949493 0
0.304997 1 0
0.304997 1 0
0.304997 1 0
0.313695 1 0
0.327352 1 0
0.343069 1 0
0.361013 1 0
0.381338 1 0
0.40415 1 0
