MEDT/Pirringer/Unterricht/2025-02-26/fotos/LUTs/BMPCC 4K BMDFilm Gen4 to Arri Log-C LUT 33x33.cube
TITLE "Generated by Resolve"
LUT_3D_SIZE 5
0.0928054 0.0928054 0.0928054
0.285023 0.0861219 0.0829023
0.470024 0.0505989 0.0303349
0.646265 0 0
0.90164 0 0
0.0961624 0.289128 0.0870985
0.285969 0.287282 0.0772106
0.470192 0.276951 0.0246281
0.646311 0.199832 0
0.90164 0 0
0.113985 0.474632 0.0568093
0.290867 0.474311 0.0469062
0.471092 0.472572 0
0.646479 0.463279 0
0.901656 0 0
0.193866 0.65098 0
0.312734 0.650919 0
0.475517 0.650584 0
0.647364 0.648875 0
0.901747 0.62562 0
0.413993 0.906355 0
0.438849 0.906355 0
0.51841 0.906325 0
0.657496 0.906172 0
0.902724 0.90425 0
0.102525 0.0977951 0.292851
0.287739 0.0911116 0.290211
0.470512 0.0555886 0.274983
0.646372 0 0.120775
0.90164 0 0
0.105882 0.290486 0.291341
0.288655 0.288655 0.288655
0.47068 0.278462 0.273198
0.646403 0.202914 0.115068
0.901656 0 0
0.123705 0.474876 0.282918
0.293431 0.474556 0.280018
0.471565 0.472816 0.263157
0.646571 0.463554 0.0847639
0.901671 0 0
0.200122 0.651026 0.22565
0.314839 0.650965 0.220661
0.47599 0.650629 0.18938
0.647456 0.64892 0
0.901747 0.625681 0
0.414816 0.906371 0
0.439506 0.906355 0
0.51873 0.906325 0
0.657588 0.906172 0
0.902739 0.90425 0
0.154025 0.124285 0.478798
0.301122 0.117601 0.47834
0.473075 0.0820783 0.475853
0.646876 0 0.462257
0.901701 0 0
0.157198 0.297383 0.478538
0.301946 0.295689 0.47808
0.473243 0.286168 0.475578
0.646906 0.217945 0.461952
0.901701 0 0
0.172656 0.476143 0.477119
0.306172 0.475822 0.476646
0.474113 0.474113 0.474113
0.647074 0.464973 0.460288
0.901717 0 0
0.228305 0.65127 0.469581
0.325368 0.651209 0.469078
0.478431 0.650874 0.466361
0.647959 0.649165 0.451423
0.901793 0.626001 0
0.419089 0.906386 0.239963
0.442924 0.906386 0.235615
0.520378 0.906355 0.208942
0.658045 0.906203 0
0.902785 0.90428 0
0.283452 0.224857 0.655222
0.351186 0.221485 0.655131
0.485222 0.201556 0.654658
0.649393 0.0363317 0.652216
0.90193 0 0.617044
0.284413 0.326863 0.655177
0.351705 0.325567 0.655085
0.485374 0.318441 0.654612
0.649424 0.272496 0.652155
0.90193 0 0.616968
0.289387 0.482383 0.654902
0.354391 0.482078 0.65481
0.486152 0.480461 0.654337
0.649592 0.471855 0.651881
0.901946 0.0150301 0.616587
0.311528 0.652522 0.653498
0.367025 0.652461 0.653407
0.490013 0.652125 0.652934
0.650446 0.650446 0.650446
0.902037 0.627573 0.614572
0.438483 0.906508 0.634897
0.458732 0.906493 0.634791
0.528344 0.906462 0.634226
0.660319 0.90631 0.631266
0.903014 0.904402 0.586725
0.525216 0.4551 0.910628
0.534707 0.454719 0.910613
0.574578 0.452628 0.910567
0.676005 0.441337 0.910353
0.904768 0 0.907607
0.525307 0.473396 0.910613
0.534798 0.47306 0.910613
0.574639 0.471305 0.910567
0.676036 0.461906 0.910338
0.904768 0 0.907607
0.525841 0.538384 0.910597
0.535286 0.538201 0.910582
0.574975 0.53724 0.910536
0.676173 0.532265 0.910323
0.904784 0.439918 0.907576
0.528527 0.666621 0.91046
0.537758 0.66656 0.91046
0.576684 0.66627 0.910414
0.676829 0.664805 0.910185
0.90486 0.645075 0.907439
0.55668 0.907912 0.908904
0.563836 0.907912 0.908888
0.595483 0.907881 0.908843
0.684627 0.907713 0.908614
0.905821 0.905821 0.905821
