MEDT/Pirringer/Unterricht/2025-02-26/fotos/LUTs/BMPCC 4K BMDFilm Gen4 to Arri Log-C LUT 33x33.cube
TITLE "Generated by Resolve"
LUT_3D_SIZE 33
0.0928054 0.0928054 0.0928054
0.0928054 0.0928054 0.0928054
0.0928054 0.0928054 0.0928054
0.117327 0.0923171 0.0920729
0.157702 0.0914778 0.090837
0.195453 0.090486 0.0893721
0.228199 0.0892958 0.087602
0.257725 0.0878462 0.085481
0.285023 0.0861219 0.0829023
0.310719 0.0840314 0.0798199
0.335256 0.0815137 0.0760967
0.358907 0.0784772 0.0715953
0.381903 0.074815 0.0661631
0.404379 0.0703746 0.0596017
0.426505 0.0650034 0.0516518
0.448356 0.0585031 0.0420233
0.470024 0.0505989 0.0303349
0.491585 0.0409705 0.016083
0.51313 0.0292363 0
0.534722 0.014847 0
0.556435 0 0
0.578332 0 0
0.600534 0 0
0.623133 0 0
0.646265 0 0
0.670115 0 0
0.694911 0 0
0.720974 0 0
0.74876 0 0
0.778973 0 0
0.812772 0 0
0.852201 0 0
0.90164 0 0
0.0928054 0.0928054 0.0928054
0.0928054 0.0928054 0.0928054
0.0928054 0.0928054 0.0928054
0.117327 0.0923171 0.0920729
0.157702 0.0914778 0.090837
0.195453 0.090486 0.0893721
0.228199 0.0892958 0.087602
0.257725 0.0878462 0.085481
0.285023 0.0861219 0.0829023
0.310719 0.0840314 0.0798199
0.335256 0.0815137 0.0760967
0.358907 0.0784772 0.0715953
0.381903 0.074815 0.0661631
0.404379 0.0703746 0.0596017
0.426505 0.0650034 0.0516518
0.448356 0.0585031 0.0420233
0.470024 0.0505989 0.0303349
0.491585 0.0409705 0.016083
0.51313 0.0292363 0
0.534722 0.014847 0
0.556435 0 0
0.578332 0 0
0.600534 0 0
0.623133 0 0
0.646265 0 0
0.670115 0 0
0.694911 0 0
0.720974 0 0
0.74876 0 0
0.778973 0 0
0.812772 0 0
0.852201 0 0
0.90164 0 0
0.0928054 0.0928054 0.0928054
0.0928054 0.0928054 0.0928054
0.0928054 0.0928054 0.0928054
0.117327 0.0923171 0.0920729
0.157702 0.0914778 0.090837
0.195453 0.090486 0.0893721
0.228199 0.0892958 0.087602
0.257725 0.0878462 0.085481
0.285023 0.0861219 0.0829023
0.310719 0.0840314 0.0798199
0.335256 0.0815137 0.0760967
0.358907 0.0784772 0.0715953
0.381903 0.074815 0.0661631
0.404379 0.0703746 0.0596017
0.426505 0.0650034 0.0516518
0.448356 0.0585031 0.0420233
0.470024 0.0505989 0.0303349
0.491585 0.0409705 0.016083
0.51313 0.0292363 0
0.534722 0.014847 0
0.556435 0 0
0.578332 0 0
0.600534 0 0
0.623133 0 0
0.646265 0 0
0.670115 0 0
0.694911 0 0
0.720974 0 0
0.74876 0 0
0.778973 0 0
0.812772 0 0
0.852201 0 0
0.90164 0 0
0.0930648 0.118425 0.0923781
0.0930648 0.118425 0.0923781
0.0930648 0.118425 0.0923781
0.117571 0.117922 0.0916457
0.157946 0.117098 0.0904097
0.195621 0.116106 0.0889448
0.228321 0.114916 0.0871748
0.257816 0.113466 0.0850538
0.285084 0.111742 0.0824903
0.31078 0.109651 0.0793927
0.335302 0.107134 0.0756695
0.358938 0.104097 0.0711681
0.381933 0.100435 0.0657359
0.40441 0.0959945 0.0591745
0.42652 0.0906233 0.0512398
0.448371 0.084123 0.0415961
0.470039 0.0762188 0.0299077
0.4916 0.0665904 0.0156558
0.513146 0.0548562 0
0.534722 0.0404669 0
0.556435 0.0227512 0
0.578347 0.000869764 0
0.600534 0 0
0.623133 0 0
0.646281 0 0
0.67013 0 0
0.694911 0 0
0.720974 0 0
0.74876 0 0
0.778973 0 0
0.812772 0 0
0.852201 0 0
0.90164 0 0
0.0934768 0.160403 0.0916762
0.0934768 0.160403 0.0916762
0.0934768 0.160403 0.0916762
0.117998 0.159945 0.0909438
0.158328 0.159182 0.0897078
0.19588 0.158282 0.0882429
0.228519 0.157168 0.0864729
0.257969 0.15581 0.0843366
0.285206 0.154162 0.0817731
0.310872 0.152148 0.0786908
0.335378 0.14966 0.0749523
0.358999 0.146624 0.0704662
0.381979 0.142947 0.0650339
0.40444 0.138521 0.0584726
0.426551 0.13315 0.0505226
0.448386 0.12665 0.0408942
0.470054 0.118746 0.0291905
0.491615 0.109117 0.0149538
0.513161 0.0973678 0
0.534737 0.0829786 0
0.556451 0.0652781 0
0.578347 0.0433967 0
0.600549 0.016144 0
0.623148 0 0
0.646281 0 0
0.67013 0 0
0.694926 0 0
0.720974 0 0
0.74876 0 0
0.778973 0 0
0.812772 0 0
0.852201 0 0
0.90164 0 0
0.0939803 0.198749 0.0908217
0.0939803 0.198749 0.0908217
0.0939803 0.198749 0.0908217
0.118486 0.198428 0.0900893
0.158785 0.19791 0.0888685
0.196216 0.197269 0.0873884
0.228763 0.19649 0.0856184
0.258152 0.19556 0.0834974
0.285344 0.19443 0.0809339
0.310979 0.193042 0.0778363
0.33547 0.191348 0.0741131
0.359075 0.189273 0.0696117
0.382025 0.186709 0.0641794
0.404501 0.18352 0.0576181
0.426596 0.179522 0.0496834
0.448417 0.174487 0.0400549
0.470085 0.168017 0.0283513
0.491646 0.159594 0.0140993
0.513176 0.148318 0
0.534752 0.133928 0
0.556451 0.116228 0
0.578363 0.0943313 0
0.600549 0.0670939 0
0.623148 0.0329137 0
0.646281 0 0
0.67013 0 0
0.694926 0 0
0.720974 0 0
0.74876 0 0
0.778973 0 0
0.812772 0 0
0.852201 0 0
0.90164 0 0
0.0945754 0.231876 0.0898146
0.0945754 0.231876 0.0898146
0.0945754 0.231876 0.0898146
0.119097 0.231647 0.0890669
0.159335 0.23125 0.0878462
0.196597 0.230793 0.0863661
0.229053 0.230228 0.0846113
0.258366 0.229541 0.082475
0.285527 0.228717 0.0799115
0.311116 0.22771 0.0768139
0.335576 0.22649 0.0730907
0.359167 0.224994 0.0685893
0.382101 0.223163 0.0631723
0.404547 0.220905 0.056611
0.426642 0.218097 0.048661
0.448463 0.214603 0.0390326
0.470115 0.210208 0.0273289
0.491661 0.204578 0.0130922
0.513191 0.197299 0
0.534768 0.18764 0
0.556466 0.174441 0
0.578363 0.155474 0
0.600565 0.128405 0
0.623148 0.0942245 0
0.646296 0.0509346 0
0.67013 0 0
0.694926 0 0
0.720989 0 0
0.74876 0 0
0.778988 0 0
0.812772 0 0
0.852201 0 0
0.90164 0 0
0.0952926 0.261646 0.0885786
0.0952926 0.261646 0.0885786
0.0952926 0.261646 0.0885786
0.119814 0.261479 0.0878462
0.159991 0.261173 0.0866102
0.197055 0.260822 0.0851453
0.229389 0.260395 0.0833753
0.258625 0.259892 0.0812543
0.285725 0.259266 0.0786755
0.311284 0.258518 0.0755932
0.335698 0.257588 0.07187
0.359258 0.256474 0.0673686
0.382177 0.255116 0.0619364
0.404623 0.253437 0.055375
0.426688 0.251377 0.047425
0.448508 0.248829 0.0377966
0.470146 0.24564 0.0261082
0.491691 0.241627 0.0118563
0.513222 0.23653 0
0.534783 0.229923 0
0.556481 0.221195 0
0.578378 0.209308 0
0.600565 0.192432 0
0.623163 0.166613 0
0.646296 0.124727 0
0.670146 0.0691844 0
0.694926 0 0
0.720989 0 0
0.748775 0 0
0.778988 0 0
0.812772 0 0
0.852216 0 0
0.90164 0 0
0.0961624 0.289128 0.0870985
0.0961624 0.289128 0.0870985
0.0961624 0.289128 0.0870985
0.120684 0.288991 0.0863661
0.160784 0.288762 0.0851453
0.19762 0.288487 0.0836652
0.229801 0.288167 0.0818952
0.258946 0.28777 0.0797742
0.285969 0.287282 0.0772106
0.311467 0.286702 0.0741131
0.335851 0.286 0.0703899
0.35938 0.285145 0.0658885
0.382284 0.284108 0.0604562
0.4047 0.282826 0.0538949
0.426749 0.28127 0.0459602
0.448554 0.279332 0.0363165
0.470192 0.276951 0.0246281
0.491722 0.27396 0.0103761
0.513252 0.270207 0
0.534813 0.265431 0
0.556512 0.259236 0
0.578393 0.251041 0
0.60058 0.239887 0
0.623178 0.224018 0
0.646311 0.199832 0
0.670146 0.157748 0
0.694942 0.0856184 0
0.720989 0 0
0.748775 0 0
0.778988 0 0
0.812772 0 0
0.852216 0 0
0.90164 0 0
0.0972152 0.314961 0.0853285
0.0972152 0.314961 0.0853285
0.0972152 0.314961 0.0853285
0.121736 0.314855 0.0845808
0.161715 0.314672 0.08336
0.198291 0.314458 0.0818799
0.230304 0.314214 0.0801251
0.259312 0.313893 0.0779889
0.286259 0.313527 0.0754253
0.311696 0.313069 0.0723278
0.336034 0.31252 0.0686046
0.359533 0.311849 0.0641184
0.382406 0.31104 0.0586862
0.404791 0.310048 0.0521248
0.426841 0.308827 0.0441749
0.448615 0.307347 0.0345464
0.470237 0.305516 0.0228428
0.491768 0.303227 0.00860609
0.513283 0.300389 0
0.534844 0.296788 0
0.556527 0.292195 0
0.578424 0.286229 0
0.600595 0.278309 0
0.623194 0.267475 0
0.646311 0.251957 0
0.670161 0.228061 0
0.694942 0.185855 0
0.721004 0.0961929 0
0.748775 0 0
0.778988 0 0
0.812772 0 0
0.852216 0 0
0.90164 0 0
0.0984817 0.33959 0.0831769
0.0984817 0.33959 0.0831769
0.0984817 0.33959 0.0831769
0.122988 0.339513 0.0824445
0.162844 0.339361 0.0812085
0.199084 0.339193 0.0797436
0.2309 0.338994 0.0779736
0.25977 0.33875 0.0758373
0.28661 0.338445 0.0732738
0.311986 0.338094 0.0701915
0.336263 0.337652 0.066453
0.359716 0.337118 0.0619669
0.382544 0.336477 0.0565347
0.404913 0.335698 0.0499733
0.426932 0.334752 0.0420233
0.448707 0.333577 0.0323949
0.470314 0.332143 0.0206912
0.491829 0.330373 0.00645457
0.513329 0.328176 0
0.534874 0.325414 0
0.556558 0.321904 0
0.578439 0.317418 0
0.600626 0.311543 0
0.623209 0.3037 0
0.646326 0.292866 0
0.670161 0.277134 0
0.694957 0.252399 0
0.721004 0.206928 0
0.748775 0.0930343 0
0.778988 0 0
0.812787 0 0
0.852216 0 0
0.90164 0 0
0.100008 0.363317 0.0805829
0.100008 0.363317 0.0805829
0.100008 0.363317 0.0805829
0.124514 0.363256 0.0798505
0.164187 0.363149 0.0786145
0.200046 0.363012 0.0771496
0.231601 0.362844 0.0753796
0.260319 0.362646 0.0732433
0.287037 0.362402 0.0706798
0.312322 0.362112 0.0675975
0.336522 0.361776 0.0638743
0.35993 0.361349 0.0593729
0.382727 0.36083 0.0539406
0.405051 0.36022 0.0473793
0.427039 0.359457 0.0394293
0.448798 0.358526 0.0298009
0.47039 0.357397 0.0181125
0.49189 0.355993 0.00386053
0.513375 0.354269 0
0.53492 0.352102 0
0.556588 0.349386 0
0.57847 0.345922 0
0.600641 0.341451 0
0.623224 0.335561 0
0.646342 0.327626 0
0.670176 0.316472 0
0.694957 0.299947 0
0.721004 0.273045 0
0.748791 0.219898 0
0.779004 0.0602579 0
0.812787 0 0
0.852216 0 0
0.90164 0 0
0.101839 0.386374 0.0774548
0.101839 0.386374 0.0774548
0.101839 0.386374 0.0774548
0.12636 0.386313 0.0767224
0.165774 0.386221 0.0754864
0.20119 0.386114 0.0740215
0.232456 0.385977 0.0722515
0.260975 0.385824 0.0701152
0.287556 0.385626 0.0675517
0.312718 0.385397 0.0644694
0.336843 0.385122 0.0607462
0.360189 0.384787 0.0562448
0.382925 0.384375 0.0508125
0.405219 0.383871 0.0442512
0.427192 0.383261 0.0363012
0.448905 0.382528 0.0266728
0.470481 0.381613 0.0149844
0.491966 0.380499 0.000732433
0.513436 0.379126 0
0.534966 0.377417 0
0.556634 0.375265 0
0.5785 0.372564 0
0.600671 0.369085 0
0.62324 0.364569 0
0.646357 0.358557 0
0.670192 0.350317 0
0.694972 0.338506 0
0.721019 0.320455 0
0.748791 0.289418 0
0.779004 0.219669 0
0.812787 0 0
0.852216 0 0
0.90164 0 0
0.104067 0.408911 0.0736706
0.104067 0.408911 0.0736706
0.104067 0.408911 0.0736706
0.128588 0.408865 0.0729381
0.167681 0.408789 0.0717174
0.202564 0.408698 0.0702373
0.233478 0.408591 0.0684672
0.261753 0.408469 0.0663462
0.288167 0.408301 0.0637827
0.313207 0.408118 0.0606851
0.33724 0.407889 0.0569619
0.360494 0.407614 0.0524605
0.383185 0.407294 0.0470283
0.405432 0.406882 0.0404669
0.427359 0.406394 0.0325322
0.449042 0.405798 0.0228885
0.470588 0.405066 0.0112001
0.492058 0.404166 0
0.513512 0.403067 0
0.535027 0.401709 0
0.55668 0.4 0
0.578546 0.397848 0
0.600702 0.395117 0
0.62327 0.391592 0
0.646387 0.386938 0
0.670207 0.380667 0
0.694987 0.371893 0
0.721035 0.358968 0
0.748806 0.338277 0
0.779004 0.299504 0
0.812787 0.18497 0
0.852216 0 0
0.901656 0 0
0.106767 0.431067 0.0690929
0.106767 0.431067 0.0690929
0.106767 0.431067 0.0690929
0.131273 0.431022 0.0683604
0.169924 0.430961 0.0671397
0.204196 0.4309 0.0656596
0.234714 0.430808 0.0638895
0.262699 0.430701 0.0617685
0.288899 0.430579 0.059205
0.313787 0.430426 0.0561074
0.337713 0.430243 0.0523842
0.360876 0.430014 0.0478828
0.38349 0.42974 0.0424506
0.405676 0.429419 0.0358892
0.427558 0.429023 0.0279545
0.44921 0.428534 0.0183108
0.470726 0.427955 0.00662242
0.492164 0.427222 0
0.513603 0.426337 0
0.535103 0.425238 0
0.556741 0.423865 0
0.578592 0.422156 0
0.600748 0.419974 0
0.623301 0.417182 0
0.646403 0.41355 0
0.670237 0.408682 0
0.695003 0.401984 0
0.72105 0.39237 0
0.748806 0.377615 0
0.779019 0.352285 0
0.812802 0.29723 0
0.852232 0 0
0.901656 0 0
0.110033 0.452934 0.0635538
0.110033 0.452934 0.0635538
0.110033 0.452934 0.0635538
0.134539 0.452903 0.0628061
0.172595 0.452857 0.0615854
0.206134 0.452796 0.0601053
0.236179 0.452735 0.0583505
0.263844 0.452644 0.0562142
0.289799 0.452537 0.0536507
0.314504 0.452415 0.0505531
0.338277 0.452262 0.0468299
0.361334 0.452079 0.0423438
0.383856 0.451865 0.0369116
0.405982 0.451606 0.0303502
0.427802 0.451286 0.0224002
0.449409 0.450889 0.0127718
0.470893 0.450401 0.00106813
0.492302 0.449821 0
0.51371 0.449104 0
0.535195 0.448218 0
0.556817 0.447105 0
0.578653 0.445731 0
0.600793 0.443992 0
0.623346 0.441764 0
0.646433 0.43888 0
0.670253 0.43505 0
0.695018 0.429847 0
0.721065 0.422507 0
0.748821 0.411551 0
0.779019 0.393713 0
0.812802 0.359518 0
0.852232 0.256626 0
0.901656 0 0
0.113985 0.474632 0.0568093
0.113985 0.474632 0.0568093
0.113985 0.474632 0.0568093
0.138506 0.474617 0.0560616
0.175753 0.474571 0.0548409
0.208453 0.474525 0.0533761
0.237934 0.474464 0.051606
0.265202 0.474388 0.0494698
0.290867 0.474311 0.0469062
0.315343 0.474205 0.0438239
0.338949 0.474083 0.0400854
0.361883 0.473945 0.0355993
0.384298 0.473762 0.0301671
0.406348 0.473548 0.0236057
0.428092 0.473274 0.0156558
0.449653 0.472953 0.00602731
0.471092 0.472572 0
0.49247 0.472099 0
0.513848 0.471504 0
0.535302 0.470787 0
0.556909 0.469902 0
0.578729 0.468788 0
0.600855 0.467384 0
0.623392 0.465599 0
0.646479 0.463279 0
0.670283 0.460258 0
0.695048 0.456168 0
0.72108 0.450462 0
0.748837 0.442115 0
0.779034 0.428977 0
0.812818 0.405493 0
0.852232 0.350347 0
0.901656 0 0
0.118822 0.496223 0.0486
0.118822 0.496223 0.0486
0.118822 0.496223 0.0486
0.143343 0.496208 0.0478676
0.179477 0.496178 0.0466316
0.211215 0.496132 0.0451667
0.24004 0.496086 0.0433967
0.266835 0.496025 0.0412604
0.292149 0.495964 0.0386969
0.316381 0.495872 0.0356146
0.339773 0.495781 0.0318914
0.362554 0.495659 0.0273899
0.384848 0.495506 0.0219577
0.40679 0.495338 0.0153964
0.428458 0.495125 0.0074464
0.449943 0.49485 0
0.471321 0.494545 0
0.492668 0.494148 0
0.514015 0.493675 0
0.535439 0.493095 0
0.557015 0.492363 0
0.57882 0.491463 0
0.600931 0.490333 0
0.623453 0.488884 0
0.646525 0.487037 0
0.670329 0.484611 0
0.695079 0.481361 0
0.721096 0.476875 0
0.748852 0.470405 0
0.779049 0.460456 0
0.812818 0.443458 0
0.852247 0.407874 0
0.901656 0.260166 0
0.124712 0.517784 0.0385748
0.124712 0.517784 0.0385748
0.124712 0.517784 0.0385748
0.149233 0.517769 0.0378424
0.183856 0.517739 0.0366217
0.214481 0.517708 0.0351415
0.242542 0.517678 0.0333715
0.268788 0.517617 0.0312505
0.293706 0.517571 0.028687
0.317617 0.517494 0.0255894
0.34078 0.517418 0.0218662
0.363363 0.517311 0.0173648
0.385504 0.517205 0.0119478
0.407324 0.517052 0.00537118
0.428901 0.516884 0
0.450309 0.51667 0
0.471626 0.516411 0
0.492897 0.516091 0
0.514214 0.515709 0
0.535607 0.515221 0
0.557153 0.514641 0
0.578927 0.513909 0
0.601007 0.512978 0
0.623514 0.511818 0
0.646586 0.510323 0
0.670375 0.508385 0
0.695109 0.505791 0
0.721126 0.50222 0
0.748882 0.497154 0
0.779065 0.489479 0
0.812833 0.476753 0
0.852247 0.451865 0
0.901671 0.378286 0
0.131945 0.539391 0.0263066
0.131945 0.539391 0.0263066
0.131945 0.539391 0.0263066
0.156252 0.539376 0.0255741
0.188983 0.539345 0.0243381
0.218357 0.53933 0.0228733
0.245548 0.5393 0.0211032
0.271153 0.539254 0.018967
0.295567 0.539208 0.0164034
0.319112 0.539147 0.0133211
0.341985 0.539086 0.00959792
0.36434 0.53901 0.00509651
0.386297 0.538903 0
0.40798 0.538796 0
0.429435 0.538643 0
0.450752 0.538476 0
0.471977 0.538262 0
0.493202 0.538003 0
0.514443 0.537682 0
0.535805 0.537301 0
0.557305 0.536812 0
0.579049 0.536217 0
0.601114 0.53547 0
0.623606 0.534539 0
0.646647 0.533333 0
0.670436 0.531762 0
0.695155 0.529671 0
0.721172 0.526833 0
0.748913 0.52282 0
0.77908 0.516823 0
0.812848 0.507103 0
0.852262 0.488899 0
0.901671 0.44242 0
0.140826 0.561105 0.0112154
0.140826 0.561105 0.0112154
0.140826 0.561105 0.0112154
0.164294 0.56109 0.0104677
0.194965 0.561074 0.00924697
0.22295 0.561059 0.00776684
0.249119 0.561028 0.0059968
0.273976 0.560998 0.00387579
0.297826 0.560952 0.00131228
0.320928 0.560906 0
0.343465 0.560861 0
0.36553 0.5608 0
0.387274 0.560708 0
0.408774 0.560616 0
0.430091 0.560494 0
0.451286 0.560357 0
0.472419 0.560189 0
0.493553 0.559976 0
0.514748 0.559716 0
0.536049 0.559396 0
0.557504 0.559014 0
0.579217 0.558526 0
0.601251 0.557916 0
0.623713 0.557153 0
0.646738 0.556176 0
0.670497 0.55491 0
0.695216 0.553231 0
0.721202 0.550973 0
0.748943 0.547768 0
0.77911 0.543038 0
0.812863 0.5355 0
0.852277 0.521813 0
0.901686 0.489693 0
0.151781 0.583017 0
0.151781 0.583017 0
0.151781 0.583017 0
0.17348 0.583017 0
0.201938 0.583001 0
0.228367 0.582986 0
0.253391 0.582956 0
0.277363 0.582925 0
0.300557 0.582895 0
0.32314 0.582864 0
0.345251 0.582818 0
0.366995 0.582773 0
0.388479 0.582696 0
0.409751 0.58262 0
0.430884 0.582528 0
0.451942 0.582406 0
0.472969 0.582269 0
0.494011 0.582101 0
0.515114 0.581888 0
0.536339 0.581628 0
0.557748 0.581323 0
0.579416 0.580926 0
0.601419 0.580438 0
0.62385 0.579812 0
0.646845 0.579019 0
0.670588 0.577996 0
0.695277 0.576654 0
0.721263 0.574823 0
0.748989 0.572274 0
0.779141 0.568536 0
0.812894 0.562631 0
0.852293 0.552148 0
0.901686 0.528878 0
0.164416 0.605219 0
0.164416 0.605219 0
0.164416 0.605219 0
0.183902 0.605219 0
0.210025 0.605203 0
0.23473 0.605188 0
0.258473 0.605173 0
0.281453 0.605158 0
0.303868 0.605127 0
0.325826 0.605097 0
0.347433 0.605066 0
0.368795 0.60502 0
0.389944 0.604974 0
0.410956 0.604898 0
0.431876 0.604822 0
0.45275 0.60473 0
0.47364 0.604623 0
0.49456 0.604486 0
0.515572 0.604303 0
0.536721 0.604105 0
0.558053 0.603845 0
0.579675 0.603525 0
0.601617 0.603128 0
0.624018 0.602625 0
0.646983 0.601984 0
0.670695 0.60116 0
0.695369 0.600076 0
0.721325 0.598611 0
0.749035 0.596567 0
0.779187 0.593591 0
0.812924 0.588952 0
0.852308 0.580835 0
0.901701 0.563485 0
0.178408 0.627832 0
0.178408 0.627832 0
0.178408 0.627832 0
0.195697 0.627832 0
0.219379 0.627817 0
0.242237 0.627802 0
0.264515 0.627787 0
0.286366 0.627771 0
0.307866 0.627756 0
0.329091 0.627726 0
0.350118 0.627695 0
0.370993 0.627665 0
0.39176 0.627619 0
0.412451 0.627573 0
0.433112 0.627512 0
0.453773 0.627436 0
0.474464 0.627344 0
0.495247 0.627222 0
0.516136 0.627085 0
0.537179 0.626917 0
0.558434 0.626719 0
0.57998 0.626459 0
0.601877 0.626139 0
0.624216 0.625727 0
0.64715 0.625208 0
0.670817 0.624552 0
0.695476 0.623682 0
0.721416 0.622507 0
0.749096 0.620874 0
0.779232 0.618509 0
0.812955 0.614847 0
0.852338 0.60853 0
0.901717 0.595376 0
0.193866 0.65098 0
0.193866 0.65098 0
0.193866 0.65098 0
0.208988 0.650965 0
0.230167 0.650965 0
0.251041 0.65095 0
0.271717 0.650935 0
0.292271 0.650935 0
0.312734 0.650919 0
0.333104 0.650889 0
0.353429 0.650874 0
0.373724 0.650843 0
0.394003 0.650813 0
0.414313 0.650767 0
0.434653 0.650721 0
0.455039 0.65066 0
0.475517 0.650584 0
0.496117 0.650492 0
0.516838 0.65037 0
0.537774 0.650248 0
0.558923 0.65008 0
0.580377 0.649866 0
0.602197 0.649607 0
0.624475 0.649287 0
0.647364 0.648875 0
0.671 0.648341 0
0.695613 0.647639 0
0.721523 0.646708 0
0.749187 0.645411 0
0.779293 0.643519 0
0.813001 0.640635 0
0.852369 0.635691 0
0.901747 0.62562 0
0.21091 0.67483 0
0.21091 0.67483 0
0.21091 0.67483 0
0.223941 0.67483 0
0.242588 0.674815 0
0.261372 0.674815 0
0.280308 0.6748 0
0.299413 0.674784 0
0.318669 0.674784 0
0.338033 0.674769 0
0.357519 0.674739 0
0.377127 0.674723 0
0.396841 0.674693 0
0.416648 0.674662 0
0.436591 0.674617 0
0.456657 0.674571 0
0.476844 0.67451 0
0.497215 0.674434 0
0.517754 0.674357 0
0.538521 0.674235 0
0.559533 0.674113 0
0.58088 0.673945 0
0.602609 0.673732 0
0.624811 0.673472 0
0.647623 0.673152 0
0.671214 0.672724 0
0.695781 0.67216 0
0.72166 0.671427 0
0.749279 0.67039 0
0.77937 0.66891 0
0.813062 0.666621 0
0.852399 0.662776 0
0.901762 0.655024 0
0.229709 0.699626 0
0.229709 0.699626 0
0.229709 0.699626 0
0.240757 0.699626 0
0.256901 0.699626 0
0.273503 0.699611 0
0.290578 0.699611 0
0.308064 0.699596 0
0.325948 0.69958 0
0.344152 0.69958 0
0.362646 0.699565 0
0.381415 0.699535 0
0.400412 0.699519 0
0.419638 0.699489 0
0.439078 0.699458 0
0.458717 0.699428 0
0.478569 0.699382 0
0.498634 0.699321 0
0.518929 0.699245 0
0.539483 0.699168 0
0.560327 0.699062 0
0.581537 0.698924 0
0.603143 0.698756 0
0.625254 0.698558 0
0.647974 0.698299 0
0.671489 0.697963 0
0.69601 0.69752 0
0.721828 0.696925 0
0.749416 0.696117 0
0.779477 0.694957 0
0.813138 0.693172 0
0.852461 0.690166 0
0.901793 0.684215 0
0.250538 0.725689 0
0.250538 0.725689 0
0.250538 0.725689 0
0.259709 0.725689 0
0.273396 0.725689 0
0.287785 0.725673 0
0.302876 0.725673 0
0.318608 0.725658 0
0.334936 0.725658 0
