MEDT/Pirringer/Unterricht/2025-02-26/fotos/LUTs/BMPCC 4K BMDFilm Gen4 to Arri Log-C LUT 33x33.cube
TITLE "Generated by Resolve"
LUT_3D_SIZE 9
0.0928054 0.0928054 0.0928054
0.157702 0.0914778 0.090837
0.285023 0.0861219 0.0829023
0.381903 0.074815 0.0661631
0.470024 0.0505989 0.0303349
0.556435 0 0
0.646265 0 0
0.74876 0 0
0.90164 0 0
0.0934768 0.160403 0.0916762
0.158328 0.159182 0.0897078
0.285206 0.154162 0.0817731
0.381979 0.142947 0.0650339
0.470054 0.118746 0.0291905
0.556451 0.0652781 0
0.646281 0 0
0.74876 0 0
0.90164 0 0
0.0961624 0.289128 0.0870985
0.160784 0.288762 0.0851453
0.285969 0.287282 0.0772106
0.382284 0.284108 0.0604562
0.470192 0.276951 0.0246281
0.556512 0.259236 0
0.646311 0.199832 0
0.748775 0 0
0.90164 0 0
0.101839 0.386374 0.0774548
0.165774 0.386221 0.0754864
0.287556 0.385626 0.0675517
0.382925 0.384375 0.0508125
0.470481 0.381613 0.0149844
0.556634 0.375265 0
0.646357 0.358557 0
0.748791 0.289418 0
0.90164 0 0
0.113985 0.474632 0.0568093
0.175753 0.474571 0.0548409
0.290867 0.474311 0.0469062
0.384298 0.473762 0.0301671
0.471092 0.472572 0
0.556909 0.469902 0
0.646479 0.463279 0
0.748837 0.442115 0
0.901656 0 0
0.140826 0.561105 0.0112154
0.194965 0.561074 0.00924697
0.297826 0.560952 0.00131228
0.387274 0.560708 0
0.472419 0.560189 0
0.557504 0.559014 0
0.646738 0.556176 0
0.748943 0.547768 0
0.901686 0.489693 0
0.193866 0.65098 0
0.230167 0.650965 0
0.312734 0.650919 0
0.394003 0.650813 0
0.475517 0.650584 0
0.558923 0.65008 0
0.647364 0.648875 0
0.749187 0.645411 0
0.901747 0.62562 0
0.273777 0.753475 0
0.292546 0.753475 0
0.346151 0.75346 0
0.410986 0.753414 0
0.483803 0.753323 0
0.562814 0.753124 0
0.649088 0.752667 0
0.749844 0.751369 0
0.9019 0.744411 0
0.413993 0.906355 0
0.419409 0.906355 0
0.438849 0.906355 0
0.471046 0.90634 0
0.51841 0.906325 0
0.580789 0.906279 0
0.657496 0.906172 0
0.753231 0.905852 0
0.902724 0.90425 0
0.0947433 0.0937972 0.16286
0.159487 0.0924697 0.16112
0.285573 0.0871138 0.153735
0.382116 0.0758068 0.137072
0.470115 0.0515908 0.101228
0.556466 0 0.0220951
0.646296 0 0
0.748775 0 0
0.90164 0 0
0.0953994 0.161288 0.161868
0.160098 0.160098 0.160098
0.285756 0.155108 0.152636
0.382193 0.143938 0.135943
0.470146 0.119738 0.100099
0.556481 0.0662699 0.0209659
0.646296 0 0
0.748775 0 0
0.90164 0 0
0.0981003 0.289403 0.157702
0.162509 0.289036 0.155856
0.286503 0.287556 0.148104
0.382498 0.284382 0.131365
0.470283 0.277256 0.0955215
0.556542 0.259586 0.0163882
0.646326 0.200443 0
0.748775 0 0
0.90164 0 0
0.103777 0.386481 0.148363
0.167422 0.386328 0.146395
0.28809 0.385748 0.13846
0.383154 0.384482 0.121721
0.470573 0.381735 0.0858778
0.55668 0.375387 0.00674449
0.646372 0.358694 0
0.748806 0.289693 0
0.901656 0 0
0.115923 0.474678 0.127718
0.177264 0.474617 0.12575
0.291371 0.474357 0.117815
0.384527 0.473808 0.101076
0.471183 0.472618 0.0652323
0.556954 0.469947 0
0.646494 0.46334 0
0.748852 0.442176 0
0.901656 0 0
0.142748 0.56112 0.0821088
0.196231 0.56109 0.0801404
0.298314 0.560983 0.072221
0.387488 0.560739 0.0554665
0.472511 0.560204 0.0196384
0.557549 0.55903 0
0.646754 0.556207 0
0.748943 0.547799 0
0.901686 0.489738 0
0.195132 0.65098 0
0.231083 0.650965 0
0.313146 0.650919 0
0.394202 0.650813 0
0.475608 0.650584 0
0.558968 0.65008 0
0.647379 0.648875 0
0.749187 0.645411 0
0.901747 0.625635 0
0.274372 0.753475 0
0.293065 0.753475 0
0.346456 0.75346 0
0.411154 0.753414 0
0.483879 0.753323 0
0.562844 0.75314 0
0.649104 0.752682 0
0.749859 0.751369 0
0.9019 0.744411 0
0.414145 0.906355 0
0.419562 0.906355 0
0.438987 0.906355 0
0.471138 0.90634 0
0.518471 0.906325 0
0.580819 0.906279 0
0.657526 0.906172 0
0.753231 0.905852 0
0.902739 0.90425 0
0.102525 0.0977951 0.292851
0.166369 0.0964675 0.292332
0.287739 0.0911116 0.290211
0.383001 0.0798047 0.285588
0.470512 0.0555886 0.274983
0.556649 0.002121 0.247013
0.646372 0 0.120775
0.748791 0 0
0.90164 0 0
0.103197 0.164813 0.292561
0.166934 0.163653 0.292027
0.287922 0.158846 0.289906
0.383078 0.147936 0.285283
0.470542 0.123735 0.274632
0.556664 0.0702678 0.246555
0.646372 0 0.119631
0.748806 0 0
0.901656 0 0
0.105882 0.290486 0.291341
0.169192 0.29012 0.290806
0.288655 0.288655 0.288655
0.383383 0.285512 0.28397
0.47068 0.278462 0.273198
0.556725 0.261006 0.244678
0.646403 0.202914 0.115068
0.748806 0 0
0.901656 0 0
0.111559 0.386923 0.288731
0.173831 0.38677 0.288197
0.290211 0.386191 0.285985
0.384024 0.384924 0.281178
0.47097 0.382193 0.2701
0.556848 0.375875 0.240635
0.646448 0.359258 0.105425
0.748837 0.290761 0
0.901656 0 0
0.123705 0.474876 0.282918
0.183108 0.474815 0.282353
0.293431 0.474556 0.280018
0.385397 0.474006 0.274937
0.471565 0.472816 0.263157
0.557122 0.470146 0.231388
0.646571 0.463554 0.0847639
0.748882 0.442435 0
0.901671 0 0
0.15053 0.561212 0.268864
0.20116 0.561181 0.268208
0.300252 0.561074 0.265553
0.388342 0.560815 0.259709
0.472908 0.560296 0.246021
0.557733 0.559121 0.20766
0.64683 0.556298 0.0391699
0.748974 0.54789 0
0.901686 0.489906 0
0.200122 0.651026 0.22565
0.234668 0.651011 0.224689
0.314839 0.650965 0.220661
0.39501 0.650858 0.211658
0.47599 0.650629 0.18938
0.559136 0.650126 0.118593
0.647456 0.64892 0
0.749218 0.645457 0
0.901747 0.625681 0
0.276783 0.753491 0
0.295079 0.753491 0
0.347692 0.753475 0
0.411826 0.753429 0
0.48423 0.753338 0
0.563012 0.753155 0
0.64918 0.752697 0
0.749889 0.751385 0
0.901915 0.744427 0
0.414816 0.906371 0
0.420188 0.906371 0
0.439506 0.906355 0
0.471534 0.906355 0
0.51873 0.906325 0
0.580957 0.906279 0
0.657588 0.906172 0
0.753262 0.905867 0
0.902739 0.90425 0
0.118944 0.106233 0.390417
0.179568 0.104906 0.390204
0.29218 0.0995499 0.389364
0.384863 0.0882277 0.387549
0.471336 0.0640269 0.383566
0.557015 0.0105592 0.374228
0.646525 0 0.348165
0.748852 0 0.188373
0.901656 0 0
0.119615 0.171908 0.390295
0.180072 0.170825 0.390097
0.292363 0.166323 0.389242
0.384939 0.156176 0.387427
0.471366 0.132174 0.383444
0.557031 0.078706 0.374075
0.64654 0 0.347982
0.748867 0 0.187579
0.901671 0 0
0.122301 0.292729 0.389807
0.182086 0.292378 0.389609
0.293065 0.290944 0.388754
0.385229 0.287877 0.386923
0.471504 0.28098 0.382925
0.557092 0.263966 0.37351
0.646555 0.207935 0.347265
0.748867 0 0.184314
0.901671 0 0
0.127977 0.387839 0.388785
0.186206 0.387701 0.388571
0.294545 0.387106 0.387701
0.38587 0.38587 0.38587
0.471778 0.383154 0.381826
0.557214 0.376898 0.372305
0.646616 0.360449 0.345724
0.748898 0.293004 0.177096
0.901671 0 0
0.140139 0.475288 0.386526
0.194522 0.475212 0.386313
0.297658 0.474968 0.385428
0.387198 0.474418 0.383551
0.472389 0.473228 0.379416
0.557488 0.470573 0.36968
0.646738 0.464012 0.342336
0.748943 0.442985 0.159777
0.901686 0 0
0.165698 0.561395 0.381384
0.210864 0.561364 0.381155
0.304219 0.561242 0.38024
0.390097 0.560998 0.378271
0.473701 0.560479 0.373922
0.558099 0.559304 0.363638
0.646998 0.556481 0.334493
0.749035 0.548104 0.114672
0.901701 0.490257 0
0.209918 0.651102 0.368124
0.241856 0.651087 0.36788
0.318303 0.651041 0.366827
0.396658 0.650935 0.364599
0.476768 0.650706 0.35964
0.559503 0.650202 0.347814
0.647608 0.648997 0.313207
0.749279 0.645533 0.00669871
0.901762 0.625788 0
0.281697 0.753521 0.318456
0.299245 0.753521 0.318044
0.350256 0.753506 0.316381
0.413245 0.75346 0.312779
0.484947 0.753368 0.304631
0.563363 0.753185 0.284108
0.649332 0.752728 0.209934
0.74995 0.751415 0
0.90193 0.744472 0
0.41619 0.906371 0
0.4215 0.906371 0
0.440604 0.906371 0
0.472343 0.906355 0
0.519249 0.90634 0
0.581247 0.906294 0
0.65774 0.906172 0
0.753323 0.905867 0
0.902754 0.904265 0
0.154025 0.124285 0.478798
0.203342 0.122957 0.478706
0.301122 0.117601 0.47834
0.388724 0.106294 0.477562
0.473075 0.0820783 0.475853
0.557809 0.0286259 0.471992
0.646876 0 0.462257
0.748989 0 0.42884
0.901701 0 0
0.154665 0.185657 0.478752
0.203754 0.18471 0.47866
0.301289 0.180774 0.478294
0.3888 0.171954 0.477501
0.473106 0.150225 0.475792
0.557824 0.0967575 0.471931
0.646876 0 0.462196
0.748989 0 0.428748
0.901701 0 0
0.157198 0.297383 0.478538
0.205371 0.297047 0.478447
0.301946 0.295689 0.47808
0.38909 0.292744 0.477287
0.473243 0.286168 0.475578
0.557885 0.270008 0.471702
0.646906 0.217945 0.461952
0.749004 0 0.428412
0.901701 0 0
0.162356 0.389792 0.47808
0.208698 0.389639 0.477989
0.303304 0.389075 0.477623
0.3897 0.387854 0.476829
0.473518 0.385183 0.47512
0.558007 0.379049 0.471229
0.646952 0.362966 0.461418
0.74902 0.297658 0.427695
0.901701 0 0
0.172656 0.476143 0.477119
0.215488 0.476081 0.477028
0.306172 0.475822 0.476646
0.390982 0.475288 0.475837
0.474113 0.474113 0.474113
0.558282 0.471473 0.470192
0.647074 0.464973 0.460288
0.749065 0.44416 0.426139
0.901717 0 0
0.192386 0.561776 0.474937
0.229114 0.561761 0.47483
0.312245 0.561639 0.474449
0.393774 0.561395 0.47364
0.47541 0.560876 0.47187
0.558877 0.559701 0.467857
0.647334 0.556893 0.457725
0.749172 0.548547 0.422599
0.901732 0.491005 0
0.228305 0.65127 0.469581
0.255802 0.651255 0.46949
0.325368 0.651209 0.469078
0.400122 0.651102 0.468223
0.478431 0.650874 0.466361
0.560265 0.65037 0.462135
0.647959 0.649165 0.451423
0.749416 0.645716 0.413748
0.901793 0.626001 0
0.291508 0.753597 0.452903
0.307637 0.753582 0.452781
0.35555 0.753567 0.452308
0.41622 0.753521 0.451301
0.486488 0.753445 0.449119
0.564111 0.753246 0.444144
0.649668 0.752789 0.431357
0.750072 0.751476 0.383978
0.901961 0.744533 0
0.419089 0.906386 0.239963
0.424262 0.906386 0.239109
0.442924 0.906386 0.235615
0.474083 0.906371 0.227817
0.520378 0.906355 0.208942
0.581888 0.90631 0.14966
0.658045 0.906203 0
0.753445 0.905882 0
0.902785 0.90428 0
0.210636 0.163272 0.565332
0.24239 0.162097 0.565286
0.318563 0.157214 0.565118
0.39678 0.146166 0.564767
0.476829 0.121965 0.564019
0.559533 0.0684977 0.562341
0.647623 0 0.558251
0.749279 0 0.545815
0.901762 0 0.439109
0.211017 0.210956 0.565301
0.242679 0.210193 0.565255
0.3187 0.207095 0.565103
0.396857 0.200259 0.564752
0.47686 0.183978 0.563989
0.559548 0.136645 0.56231
0.647623 0.0100404 0.558221
0.749279 0 0.545785
0.901762 0 0.439033
0.212528 0.307012 0.565209
0.243793 0.306706 0.565164
0.319265 0.305455 0.564996
0.397116 0.30277 0.564645
0.476982 0.296803 0.563897
0.559594 0.282277 0.562219
0.647654 0.237217 0.558129
0.749294 0 0.545663
0.901762 0 0.438727
0.215641 0.393957 0.565011
0.246128 0.393835 0.564965
0.320424 0.393271 0.564797
0.397681 0.392096 0.564446
0.477256 0.389532 0.563699
0.559731 0.383658 0.562005
0.647715 0.368292 0.5579
0.749325 0.307256 0.545434
0.901778 0 0.438071
0.222019 0.478035 0.564569
0.250965 0.477974 0.564538
0.322866 0.477729 0.56437
0.398886 0.477195 0.564019
0.477836 0.476036 0.563256
0.559991 0.473457 0.561563
0.647822 0.467063 0.557443
0.749355 0.446693 0.544915
0.901778 0 0.436652
0.234882 0.562631 0.563607
0.260929 0.562615 0.563577
0.328084 0.562493 0.563409
0.40148 0.562249 0.563043
0.479088 0.56173 0.56228
0.560571 0.560571 0.560571
0.648081 0.557778 0.55642
0.749462 0.549508 0.543755
0.901808 0.492653 0.433463
0.260334 0.651637 0.561303
0.281392 0.651637 0.561257
0.339513 0.651576 0.56109
0.407401 0.651469 0.560723
0.482002 0.651255 0.559945
0.561944 0.650752 0.558206
0.648692 0.649546 0.553948
0.749706 0.646113 0.540978
0.901869 0.626474 0.425498
0.31046 0.753735 0.554513
0.324132 0.753735 0.554467
0.3664 0.753704 0.554284
0.422522 0.753674 0.553903
0.489815 0.753582 0.553063
0.565728 0.753384 0.551202
0.650401 0.752926 0.54667
0.750362 0.751629 0.532708
0.902022 0.744701 0.399222
0.425223 0.906416 0.510781
0.430121 0.906416 0.510704
0.447868 0.906416 0.51043
0.477791 0.906401 0.50985
0.522805 0.906386 0.508598
0.583261 0.90634 0.50576
0.658717 0.906233 0.498741
0.753719 0.905913 0.476066
0.902861 0.904311 0
0.283452 0.224857 0.655222
0.30074 0.224201 0.655207
0.351186 0.221485 0.655131
0.413764 0.215534 0.654978
0.485222 0.201556 0.654658
0.563485 0.162173 0.653941
0.649393 0.0363317 0.652216
0.749966 0 0.647211
0.90193 0 0.617044
0.28365 0.254261 0.655207
0.300908 0.253758 0.655192
0.351293 0.251713 0.655116
0.413825 0.247242 0.654978
0.485252 0.237018 0.654643
0.5635 0.210239 0.653925
0.649393 0.104463 0.652201
0.749981 0 0.647196
0.90193 0 0.617029
0.284413 0.326863 0.655177
0.301564 0.326604 0.655146
0.351705 0.325567 0.655085
0.414054 0.323354 0.654932
0.485374 0.318441 0.654612
0.563561 0.306722 0.65388
0.649424 0.272496 0.652155
0.749981 0.0225986 0.64715
0.90193 0 0.616968
0.286015 0.40325 0.655085
0.302922 0.403128 0.65507
0.35256 0.402625 0.654994
0.414542 0.401541 0.654841
0.485618 0.399191 0.654521
0.563684 0.393835 0.653803
0.64947 0.37995 0.652079
0.750011 0.327062 0.647059
0.901946 0 0.616846
0.289387 0.482383 0.654902
0.305806 0.482322 0.654871
0.354391 0.482078 0.65481
0.415564 0.481559 0.654658
0.486152 0.480461 0.654337
0.563943 0.477974 0.653605
0.649592 0.471855 0.651881
0.750057 0.452476 0.64686
0.901946 0.0150301 0.616587
0.296437 0.56463 0.65449
0.311894 0.564614 0.654459
0.358297 0.564492 0.654398
0.417792 0.564263 0.654246
0.487312 0.563745 0.65391
0.564508 0.562615 0.653193
0.649851 0.559869 0.651453
0.750149 0.551766 0.646418
0.901976 0.496452 0.615991
0.311528 0.652522 0.653498
0.325063 0.652506 0.653483
0.367025 0.652461 0.653407
0.422904 0.652354 0.653254
0.490013 0.652125 0.652934
0.565835 0.651637 0.652201
0.650446 0.650446 0.650446
0.750393 0.647028 0.64535
0.902037 0.627573 0.614572
0.345266 0.75407 0.650675
0.355322 0.75407 0.65066
0.388388 0.754055 0.650584
0.436103 0.754009 0.650431
0.497276 0.753918 0.65008
0.569482 0.753735 0.649332
0.652125 0.753277 0.647532
0.751049 0.75198 0.642298
0.90219 0.745068 0.610498
0.438483 0.906508 0.634897
0.442817 0.906508 0.634882
0.458732 0.906493 0.634791
0.486107 0.906493 0.634607
0.528344 0.906462 0.634226
0.58645 0.906416 0.633356
0.660319 0.90631 0.631266
0.754391 0.906004 0.625132
0.903014 0.904402 0.586725
0.376913 0.310979 0.757733
0.384482 0.310674 0.757733
0.410559 0.309483 0.757702
0.450828 0.306889 0.757641
0.505852 0.301152 0.757519
0.573938 0.287251 0.757244
0.654215 0.244678 0.756588
0.751888 0 0.754726
0.902403 0 0.744595
0.376989 0.325154 0.757733
0.384558 0.324895 0.757717
0.41062 0.323842 0.757702
0.450874 0.321599 0.757641
0.505882 0.316594 0.757519
0.573953 0.304662 0.757244
0.654215 0.269657 0.756588
0.751888 0.0137942 0.754711
0.902403 0 0.744595
0.37731 0.368643 0.757717
0.384863 0.368475 0.757702
0.410864 0.367773 0.757687
0.451041 0.366278 0.757626
0.505974 0.363012 0.757504
0.573999 0.355413 0.757229
0.654246 0.334966 0.756573
0.751904 0.238865 0.754696
0.902403 0 0.744579
0.377997 0.425788 0.757687
0.385489 0.425681 0.757671
0.411353 0.425269 0.757641
0.451377 0.424399 0.757595
0.506188 0.422507 0.757458
0.574121 0.418219 0.757183
0.654292 0.407309 0.756527
0.751919 0.36878 0.754665
0.902403 0 0.744533
0.379431 0.493751 0.75761
0.386831 0.493706 0.75761
0.412406 0.493477 0.75758
0.45211 0.493019 0.757519
0.506615 0.492027 0.757397
0.57435 0.489799 0.757122
0.654398 0.484337 0.756466
0.751965 0.467262 0.754589
0.902419 0.235508 0.744457
0.382544 0.570077 0.757458
0.389746 0.570047 0.757443
0.41471 0.56994 0.757412
0.453696 0.569711 0.757366
0.507576 0.569223 0.757229
0.574853 0.568154 0.756954
0.654643 0.565545 0.756298
0.752056 0.55787 0.754437
0.902449 0.506493 0.744274
0.389563 0.654948 0.757076
0.396323 0.654932 0.757061
0.419959 0.654887 0.757046
0.457374 0.65478 0.756985
0.509819 0.654566 0.756863
0.576059 0.654078 0.756573
0.655222 0.652918 0.755917
0.7523 0.649592 0.75404
0.902495 0.63064 0.743847
0.407202 0.755016 0.756008
0.412955 0.755016 0.756008
0.433509 0.755001 0.755978
0.467109 0.754955 0.755917
0.515892 0.754879 0.755795
0.579385 0.754681 0.755505
0.656825 0.754238 0.754849
0.752941 0.752941 0.752941
0.902663 0.74609 0.742641
0.468894 0.906737 0.750362
0.472175 0.906737 0.750362
0.484489 0.906737 0.750332
0.506584 0.906722 0.750271
0.54258 0.906706 0.750134
0.594965 0.906645 0.749844
0.664683 0.906538 0.749142
0.756222 0.906233 0.747127
0.903487 0.904631 0.736233
0.525216 0.4551 0.910628
0.527169 0.455024 0.910628
0.534707 0.454719 0.910613
0.549065 0.454047 0.910597
0.574578 0.452628 0.910567
0.615702 0.449393 0.910506
0.676005 0.441337 0.910353
0.761196 0.414725 0.909911
0.904768 0 0.907607
0.525231 0.458991 0.910628
0.527184 0.458915 0.910628
0.534722 0.458625 0.910613
0.549096 0.457984 0.910597
0.574594 0.456596 0.910567
0.615717 0.453498 0.910506
0.67602 0.445747 0.910353
0.761196 0.42034 0.909911
0.904768 0 0.907607
0.525307 0.473396 0.910613
0.52726 0.473335 0.910613
0.534798 0.47306 0.910613
0.549157 0.472511 0.910597
0.574639 0.471305 0.910567
0.615747 0.468605 0.910506
0.676036 0.461906 0.910338
0.761212 0.440436 0.909895
0.904768 0 0.907607
0.525475 0.498619 0.910613
0.527428 0.498573 0.910613
0.534951 0.49836 0.910597
0.549294 0.497917 0.910597
0.574746 0.496971 0.910567
0.615824 0.49485 0.910491
0.676081 0.489647 0.910338
0.761227 0.473442 0.909895
0.904768 0.280034 0.907591
0.525841 0.538384 0.910597
0.527794 0.538354 0.910597
0.535286 0.538201 0.910582
0.549584 0.537896 0.910567
0.574975 0.53724 0.910536
0.615976 0.53579 0.910475
0.676173 0.532265 0.910323
0.761273 0.521645 0.90988
0.904784 0.439918 0.907576
0.52665 0.594293 0.910552
0.528572 0.594278 0.910552
0.536034 0.594186 0.910552
0.550225 0.594018 0.910536
0.575494 0.593622 0.910506
0.616327 0.592767 0.910445
0.676371 0.590707 0.910277
0.761364 0.58468 0.909834
0.904814 0.54696 0.90753
0.528527 0.666621 0.91046
0.530419 0.666606 0.91046
0.537758 0.66656 0.91046
0.551736 0.666468 0.910445
0.576684 0.66627 0.910414
0.617151 0.665843 0.910353
0.676829 0.664805 0.910185
0.761578 0.661814 0.909743
0.90486 0.645075 0.907439
0.533654 0.759777 0.910216
0.53547 0.759762 0.910216
0.542458 0.759747 0.910201
0.555886 0.759716 0.910185
0.57998 0.759625 0.910155
0.619425 0.759441 0.910094
0.678141 0.759014 0.909941
0.762173 0.757778 0.909499
0.905028 0.751247 0.907179
0.55668 0.907912 0.908904
0.558145 0.907912 0.908888
0.563836 0.907912 0.908888
0.57496 0.907897 0.908873
0.595483 0.907881 0.908843
0.630396 0.907835 0.908782
0.684627 0.907713 0.908614
0.765179 0.907408 0.908171
0.905821 0.905821 0.905821
