MEDT/Pirringer/Unterricht/2025-02-26/fotos/LUTs/DJI D-Log to Rec.709 LUT 33x33.cube
TITLE "Generated by Resolve"
LUT_3D_SIZE 9
0 0 0
0.043473 0 0
0.231098 0 0
0.467079 0 0
0.760266 0 0
1 0 0
1 0 0
1 0 0
1 0 0
0 0.034638 0
0.0284276 0.0320897 0
0.223804 0.016434 0
0.46334 0 0
0.758022 0 0
1 0 0
1 0 0
1 0 0
1 0 0
0 0.198978 0
0 0.197604 0
0.173648 0.188907 0
0.439673 0.163775 0
0.744106 0.0946517 0
1 0 0
1 0 0
1 0 0
1 0 0
0 0.412009 0
0 0.411292 0
0 0.406867 0
0.368551 0.394736 0
0.70515 0.366842 0
1 0.322499 0
1 0.280888 0
1 0.262058 0
1 0.262058 0
0 0.676661 0
0 0.676219 0
0 0.673579 0
0.122942 0.666423 0
0.610697 0.650446 0
0.94049 0.626627 0
1 0.606134 0
1 0.597482 0
1 0.597482 0
0 0.929747 0
0 0.929442 0
0 0.927565 0
0 0.92253 0
0.437827 0.911376 0
0.842268 0.894987 0
1 0.881163 0
1 0.87541 0
1 0.87541 0
0 1 0
0 1 0
0 1 0
0 1 0
0.207553 1 0
0.75021 1 0
0.991241 1 0
1 1 0
1 1 0
0 1 0
0 1 0
0 1 0
0 1 0
0 1 0
0.708568 1 0
0.960952 1 0
1 1 0
1 1 0
0 1 0
0 1 0
0 1 0
0 1 0
0 1 0
0.708568 1 0
0.960952 1 0
1 1 0
1 1 0
0 0 0.033341
0.0410163 0 0.0322728
0.229923 0 0.0257267
0.466468 0 0.00813306
0.759899 0 0
1 0 0
1 0 0
1 0 0
1 0 0
0 0.0285039 0.0270237
0.0259556 0.0259556 0.0259556
0.222599 0.0102998 0.0194247
0.46273 0 0.00181582
0.757656 0 0
1 0 0
1 0 0
1 0 0
1 0 0
0 0.195636 0
0 0.194232 0
0.172152 0.185428 0
0.439033 0.159869 0
0.743725 0.0889296 0
1 0 0
1 0 0
1 0 0
1 0 0
0 0.410285 0
0 0.409567 0
0 0.405127 0
0.367788 0.39295 0
0.704753 0.364904 0
1 0.320317 0
1 0.278416 0
1 0.259419 0
1 0.259419 0
0 0.675624 0
0 0.675196 0
0 0.672541 0
0.121004 0.66537 0
0.610239 0.649378 0
0.9402 0.625498 0
1 0.604974 0
1 0.596307 0
1 0.596307 0
0 0.929015 0
0 0.92871 0
0 0.926833 0
0 0.921782 0
0.437171 0.910628 0
0.841947 0.894224 0
1 0.880385 0
1 0.874632 0
1 0.874632 0
0 1 0
0 1 0
0 1 0
0 1 0
0.206256 1 0
0.749844 1 0
0.990967 1 0
1 1 0
1 1 0
0 1 0
0 1 0
0 1 0
0 1 0
0 1 0
0.708171 1 0
0.960678 1 0
1 1 0
1 1 0
0 1 0
0 1 0
0 1 0
0 1 0
0 1 0
0.708171 1 0
0.960678 1 0
1 1 0
1 1 0
0 0 0.193896
0.025864 0 0.193317
0.222538 0 0.189654
0.462699 0 0.179522
0.757641 0 0.155627
1 0 0.115251
1 0 0.0728466
1 0 0.0538949
1 0 0.0538949
0 0 0.190387
0.0108034 0 0.189792
0.215 0 0.186069
0.45893 0 0.175784
0.755398 0 0.151446
1 0 0.110063
1 0 0.0665446
1 0 0.0475929
1 0 0.0475929
0 0.173999 0.167514
0 0.172457 0.166857
0.162737 0.162737 0.162737
0.435019 0.134096 0.151263
0.741421 0.0512245 0.123583
1 0 0.0738384
1 0 0.0277562
1 0 0.00880446
1 0 0.00880446
0 0.399558 0.088838
0 0.39881 0.0878157
0 0.394263 0.0814221
0.363012 0.381735 0.0635691
0.702312 0.35285 0.0250553
1 0.306615 0
1 0.262745 0
1 0.242664 0
1 0.242664 0
0 0.669245 0
0 0.668818 0
0 0.666133 0
0.108705 0.658885 0
0.607385 0.642725 0
0.938415 0.61857 0
1 0.597803 0
1 0.589029 0
1 0.589029 0
0 0.924514 0
0 0.924208 0
0 0.922332 0
0 0.91725 0
0.433158 0.90602 0
0.839933 0.889525 0
1 0.875608 0
1 0.86981 0
1 0.86981 0
0 1 0
0 1 0
0 1 0
0 1 0
0.198154 1 0
0.747555 1 0
0.989288 1 0
1 1 0
1 1 0
0 1 0
0 1 0
0 1 0
0 1 0
0 1 0
0.705745 1 0
0.958938 1 0
1 1 0
1 1 0
0 1 0
0 1 0
0 1 0
0 1 0
0 1 0
0.705745 1 0
0.958938 1 0
1 1 0
1 1 0
0 0 0.403281
0 0 0.402991
0.201587 0 0.401114
0.452415 0 0.396017
0.751537 0 0.384634
1 0 0.367605
1 0 0.352895
1 0 0.34667
1 0 0.34667
0 0 0.40148
0 0 0.401175
0.193378 0 0.399283
0.448554 0 0.394171
0.749264 0 0.382742
1 0 0.365621
1 0 0.350835
1 0 0.344564
1 0 0.344564
0 0.10132 0.390173
0 0.0990616 0.389868
0.135073 0.0844282 0.38793
0.424048 0.0420691 0.38265
0.735164 0 0.370886
1 0 0.353216
1 0 0.337911
1 0 0.331411
1 0 0.331411
0 0.369162 0.358038
0 0.368368 0.357702
0 0.363439 0.355596
0.349859 0.349859 0.349859
0.695689 0.318227 0.33698
0.995926 0.266545 0.31754
1 0.215732 0.300542
1 0.191608 0.293294
1 0.191608 0.293294
0 0.651743 0.275761
0 0.651301 0.275319
0 0.648554 0.272633
0.0702068 0.641093 0.265263
0.599634 0.62443 0.248478
0.933593 0.599512 0.222309
1 0.578012 0.198474
1 0.568933 0.187961
1 0.568933 0.187961
0 0.912276 0.0823682
0 0.911955 0.0813001
0 0.910048 0.0745098
0 0.904906 0.0569162
0.422141 0.893507 0.0184024
0.83447 0.876753 0
1 0.862608 0
1 0.856718 0
1 0.856718 0
0 1 0
0 1 0
0 1 0
0 1 0
0.174868 1 0
0.74136 1 0
0.984726 1 0
1 1 0
1 1 0
0 1 0
0 1 0
0 1 0
0 1 0
0 1 0
0.699153 1 0
0.954223 1 0
1 1 0
1 1 0
0 1 0
0 1 0
0 1 0
0 1 0
0 1 0
0.699153 1 0
0.954223 1 0
1 1 0
1 1 0
0 0 0.663432
0 0 0.663249
0.147997 0 0.66212
0.429023 0 0.659083
0.737987 0 0.652384
1 0 0.642573
1 0 0.634333
1 0 0.6309
1 0 0.6309
0 0 0.662333
0 0 0.66215
0.137469 0 0.661036
0.424949 0 0.657984
0.735683 0 0.65127
1 0 0.641443
1 0 0.633188
1 0 0.629755
1 0 0.629755
0 0 0.655634
0 0 0.655451
0.0555428 0 0.654307
0.399023 0 0.651225
0.721294 0 0.64445
1 0 0.634501
1 0 0.626154
1 0 0.622675
1 0 0.622675
0 0.292424 0.637186
0 0.291432 0.637003
0 0.285267 0.635828
0.319295 0.26807 0.632654
0.680949 0.22652 0.62565
0.986023 0.151354 0.615396
1 0.0577859 0.60676
1 0.0124056 0.603174
1 0.0124056 0.603174
0 0.611612 0.594736
0 0.611139 0.594537
0 0.608194 0.593271
0 0.600214 0.589853
0.582315 0.582315 0.582315
0.922942 0.555413 0.571237
1 0.532067 0.561898
1 0.522148 0.558007
1 0.522148 0.558007
0 0.88484 0.527123
0 0.88452 0.526894
0 0.882551 0.52546
0 0.877211 0.521584
0.396994 0.865415 0.513008
0.8224 0.848051 0.500343
1 0.833371 0.489601
1 0.827253 0.485115
1 0.827253 0.485115
0 1 0.463478
0 1 0.463203
0 1 0.46157
0 1 0.457145
0.112856 1 0.447318
0.727611 1 0.432715
0.974701 1 0.420233
1 1 0.415
1 1 0.415
0 1 0.434562
0 1 0.434272
0 1 0.432532
0 1 0.427802
0 1 0.417273
0.684489 1 0.401602
0.943832 1 0.388144
1 1 0.382467
1 1 0.382467
0 1 0.434562
0 1 0.434272
0 1 0.432532
0 1 0.427802
0 1 0.417273
0.684489 1 0.401602
0.943832 1 0.388144
1 1 0.382467
1 1 0.382467
0 0 0.9122
0 0 0.912062
0.0342412 0 0.911269
0.392813 0 0.909133
0.717937 0 0.904402
1 0 0.897551
1 0 0.891829
1 0 0.889448
1 0 0.889448
0 0 0.911437
0 0 0.911299
0.0191958 0 0.910506
0.388373 0 0.908354
0.715557 0 0.903639
1 0 0.896773
1 0 0.891035
1 0 0.88867
1 0 0.88867
0 0 0.906691
0 0 0.906569
0 0 0.90576
0.359884 0 0.903593
0.700725 0 0.898848
0.999344 0 0.891951
1 0 0.886183
1 0 0.883787
1 0 0.883787
0 0.126726 0.893812
0 0.124773 0.893675
0 0.112322 0.892866
0.269596 0.0731975 0.890669
0.659037 0 0.885832
0.971511 0 0.878813
1 0 0.872953
1 0 0.870527
1 0 0.870527
0 0.548211 0.864866
0 0.547677 0.864729
0 0.544381 0.86389
0 0.535393 0.861616
0.556298 0.51516 0.856611
0.907317 0.484428 0.849317
1 0.457374 0.843229
1 0.445777 0.840711
1 0.445777 0.840711
0 0.843488 0.821103
0 0.843153 0.820951
0 0.841077 0.820066
0 0.835447 0.817655
0.357641 0.822995 0.812345
0.804623 0.804623 0.804623
1 0.789059 0.798169
1 0.782559 0.795499
1 0.782559 0.795499
0 1 0.782818
0 1 0.782666
0 1 0.78172
0 1 0.779187
0 1 0.773587
0.70724 0.990387 0.765438
0.960006 0.978042 0.758618
1 0.972915 0.755795
1 0.972915 0.755795
0 1 0.766461
0 1 0.766308
0 1 0.765347
0 1 0.762737
0 1 0.757031
0.662699 1 0.748684
0.928588 1 0.741695
1 1 0.738796
1 1 0.738796
0 1 0.766461
0 1 0.766308
0 1 0.765347
0 1 0.762737
0 1 0.757031
0.662699 1 0.748684
0.928588 1 0.741695
1 1 0.738796
1 1 0.738796
0 0 1
0 0 1
0 0 1
0.360143 0 1
0.700862 0 1
0.99942 0 1
1 0 1
1 0 1
1 0 1
0 0 1
0 0 1
0 0 1
0.355306 0 1
0.698421 0 1
0.997772 0 1
1 0 1
1 0 1
1 0 1
0 0 1
0 0 1
0 0 1
0.324071 0 1
0.683192 0 1
0.987518 0 1
1 0 1
1 0 1
1 0 1
0 0 1
0 0 1
0 0 1
0.221134 0 1
0.640269 0 1
0.959304 0 1
1 0 1
1 0 1
1 0 1
0 0.489265 1
0 0.48867 1
0 0.484947 1
0 0.474815 1
0.533761 0.451835 1
0.894148 0.416403 1
1 0.384619 1
1 0.370779 1
1 0.370779 1
0 0.807477 0.99736
0 0.807111 0.997253
0 0.804929 0.996521
0 0.799039 0.994583
0.321584 0.785946 0.990311
0.789563 0.766613 0.984115
1 0.750195 0.978943
1 0.743328 0.976806
1 0.743328 0.976806
0 0.992645 0.96672
0 0.99237 0.966598
0 0.990631 0.96585
0 0.985946 0.963836
0 0.975586 0.959426
0.689876 0.960418 0.953002
0.947646 0.947646 0.947646
1 0.942336 0.945418
1 0.942336 0.945418
0 1 0.953796
0 1 0.953674
0 1 0.952911
0 1 0.950881
0 1 0.946395
0.644053 1 0.939864
0.915755 1 0.934417
1 1 0.932174
1 1 0.932174
0 1 0.953796
0 1 0.953674
0 1 0.952911
0 1 0.950881
0 1 0.946395
0.644053 1 0.939864
0.915755 1 0.934417
1 1 0.932174
1 1 0.932174
0 0 1
0 0 1
0 0 1
0.345846 0 1
0.693706 0 1
0.994583 0 1
1 0 1
1 0 1
1 0 1
0 0 1
0 0 1
0 0 1
0.340826 0 1
0.691234 0 1
0.99292 0 1
1 0 1
1 0 1
1 0 1
0 0 1
0 0 1
0 0 1
0.308202 0 1
0.675837 0 1
0.982605 0 1
1 0 1
1 0 1
1 0 1
0 0 1
0 0 1
0 0 1
0.198352 0 1
0.63238 0 1
0.954238 0 1
1 0 1
1 0 1
1 0 1
0 0.462791 1
0 0.462165 1
0 0.458228 1
0 0.447486 1
0.524193 0.423011 1
0.88867 0.384985 1
1 0.350454 1
1 0.335256 1
1 0.335256 1
0 0.792142 1
0 0.791775 1
0 0.789548 1
0 0.78352 1
0.305592 0.770138 1
0.783291 0.750378 1
1 0.733562 1
1 0.726528 1
1 0.726528 1
0 0.980468 1
0 0.980194 1
0 0.978424 1
0 0.973678 1
0 0.963165 1
0.682597 0.947784 1
0.942504 0.934813 1
1 0.929427 1
1 0.929427 1
0 1 1
0 1 1
0 1 1
0 1 1
0 1 1
0.63621 1 1
0.910414 1 1
1 1 1
1 1 1
0 1 1
0 1 1
0 1 1
0 1 1
0 1 1
0.63621 1 1
0.910414 1 1
1 1 1
1 1 1
0 0 1
0 0 1
0 0 1
0.345846 0 1
0.693706 0 1
0.994583 0 1
1 0 1
1 0 1
1 0 1
0 0 1
0 0 1
0 0 1
0.340826 0 1
0.691234 0 1
0.99292 0 1
1 0 1
1 0 1
1 0 1
0 0 1
0 0 1
0 0 1
0.308202 0 1
0.675837 0 1
0.982605 0 1
1 0 1
1 0 1
1 0 1
0 0 1
0 0 1
0 0 1
0.198352 0 1
0.63238 0 1
0.954238 0 1
1 0 1
1 0 1
1 0 1
0 0.462791 1
0 0.462165 1
0 0.458228 1
0 0.447486 1
0.524193 0.423011 1
0.88867 0.384985 1
1 0.350454 1
1 0.335256 1
1 0.335256 1
0 0.792142 1
0 0.791775 1
0 0.789548 1
0 0.78352 1
0.305592 0.770138 1
0.783291 0.750378 1
1 0.733562 1
1 0.726528 1
1 0.726528 1
0 0.980468 1
0 0.980194 1
0 0.978424 1
0 0.973678 1
0 0.963165 1
0.682597 0.947784 1
0.942504 0.934813 1
1 0.929427 1
1 0.929427 1
0 1 1
0 1 1
0 1 1
0 1 1
0 1 1
0.63621 1 1
0.910414 1 1
1 1 1
1 1 1
0 1 1
0 1 1
0 1 1
0 1 1
0 1 1
0.63621 1 1
0.910414 1 1
1 1 1
1 1 1
