MEDT/Pirringer/Unterricht/2025-02-26/fotos/LUTs/DJI D-Log to Rec.709 LUT 33x33.cube
TITLE "Generated by Resolve"
LUT_3D_SIZE 33
0 0 0
0 0 0
0 0 0
0.00114443 0 0
0.043473 0 0
0.0874647 0 0
0.134005 0 0
0.181384 0 0
0.231098 0 0
0.284062 0 0
0.340856 0 0
0.401846 0 0
0.467079 0 0
0.536339 0 0
0.609003 0 0
0.684108 0 0
0.760266 0 0
0.835782 0 0
0.908843 0 0
0.97763 0 0
1 0 0
1 0 0
1 0 0
1 0 0
1 0 0
1 0 0
1 0 0
1 0 0
1 0 0
1 0 0
1 0 0
1 0 0
1 0 0
0 0 0
0 0 0
0 0 0
0.00114443 0 0
0.043473 0 0
0.0874647 0 0
0.134005 0 0
0.181384 0 0
0.231098 0 0
0.284062 0 0
0.340856 0 0
0.401846 0 0
0.467079 0 0
0.536339 0 0
0.609003 0 0
0.684108 0 0
0.760266 0 0
0.835782 0 0
0.908843 0 0
0.97763 0 0
1 0 0
1 0 0
1 0 0
1 0 0
1 0 0
1 0 0
1 0 0
1 0 0
1 0 0
1 0 0
1 0 0
1 0 0
1 0 0
0 0 0
0 0 0
0 0 0
0.00114443 0 0
0.043473 0 0
0.0874647 0 0
0.134005 0 0
0.181384 0 0
0.231098 0 0
0.284062 0 0
0.340856 0 0
0.401846 0 0
0.467079 0 0
0.536339 0 0
0.609003 0 0
0.684108 0 0
0.760266 0 0
0.835782 0 0
0.908843 0 0
0.97763 0 0
1 0 0
1 0 0
1 0 0
1 0 0
1 0 0
1 0 0
1 0 0
1 0 0
1 0 0
1 0 0
1 0 0
1 0 0
1 0 0
0 0.000900282 0
0 0.000900282 0
0 0.000900282 0
0.000747692 0.000839246 0
0.0430915 0 0
0.0870832 0 0
0.133715 0 0
0.181155 0 0
0.230915 0 0
0.283894 0 0
0.340734 0 0
0.401724 0 0
0.466987 0 0
0.536248 0 0
0.608942 0 0
0.684047 0 0
0.760204 0 0
0.835737 0 0
0.908782 0 0
0.977584 0 0
1 0 0
1 0 0
1 0 0
1 0 0
1 0 0
1 0 0
1 0 0
1 0 0
1 0 0
1 0 0
1 0 0
1 0 0
1 0 0
0 0.034638 0
0 0.034638 0
0 0.034638 0
0 0.0345617 0
0.0284276 0.0320897 0
0.072282 0.0295109 0
0.122667 0.0262455 0
0.172427 0.021973 0
0.223804 0.016434 0
0.278004 0.00929274 0
0.33576 0.000183108 0
0.397498 0 0
0.46334 0 0
0.533089 0 0
0.606165 0 0
0.681605 0 0
0.758022 0 0
0.833768 0 0
0.906996 0 0
0.975921 0 0
1 0 0
1 0 0
1 0 0
1 0 0
1 0 0
1 0 0
1 0 0
1 0 0
1 0 0
1 0 0
1 0 0
1 0 0
1 0 0
0 0.0695659 0
0 0.0695659 0
0 0.0695659 0
0 0.0695048 0
0.0132448 0.0670176 0
0.0570993 0.0644541 0
0.110445 0.0611734 0
0.163012 0.0569009 0
0.216236 0.0513619 0
0.271763 0.0442359 0
0.330541 0.0351263 0
0.393072 0.0236057 0
0.459541 0.00923171 0
0.529809 0 0
0.603296 0 0
0.679057 0 0
0.755749 0 0
0.831724 0 0
0.905135 0 0
0.974212 0 0
1 0 0
1 0 0
1 0 0
1 0 0
1 0 0
1 0 0
1 0 0
1 0 0
1 0 0
1 0 0
1 0 0
1 0 0
1 0 0
0 0.111345 0
0 0.111345 0
0 0.111345 0
0 0.111284 0
0 0.109209 0
0.0377203 0.107042 0
0.0934462 0.104234 0
0.150362 0.100496 0
0.206241 0.0955215 0
0.263615 0.0888838 0
0.323751 0.0796979 0
0.387335 0.0681773 0
0.454643 0.0538033 0
0.525567 0.0361639 0
0.599603 0.0149538 0
0.675807 0 0
0.75285 0 0
0.829114 0 0
0.902754 0 0
0.972015 0 0
1 0 0
1 0 0
1 0 0
1 0 0
1 0 0
1 0 0
1 0 0
1 0 0
1 0 0
1 0 0
1 0 0
1 0 0
1 0 0
0 0.154101 0
0 0.154101 0
0 0.154101 0
0 0.15407 0
0 0.152422 0
0.0124819 0.150698 0
0.068452 0.148486 0
0.132586 0.145556 0
0.192599 0.141695 0
0.252659 0.136614 0
0.314717 0.129931 0
0.379751 0.121111 0
0.448188 0.109453 0
0.520012 0.0939651 0
0.594751 0.0730297 0
0.671534 0.0481117 0
0.74905 0.0196994 0
0.825696 0 0
0.899641 0 0
0.969146 0 0
1 0 0
1 0 0
1 0 0
1 0 0
1 0 0
1 0 0
1 0 0
1 0 0
1 0 0
1 0 0
1 0 0
1 0 0
1 0 0
0 0.198978 0
0 0.198978 0
0 0.198978 0
0 0.198947 0
0 0.197604 0
0 0.196201 0
0.0357214 0.194385 0
0.106706 0.19202 0
0.173648 0.188907 0
0.237797 0.184848 0
0.302632 0.179553 0
0.369696 0.172671 0
0.439673 0.163775 0
0.512703 0.152331 0
0.588403 0.137652 0
0.665965 0.118853 0
0.744106 0.0946517 0
0.821241 0.0635843 0
0.895582 0.0301061 0
0.965423 0 0
1 0 0
1 0 0
1 0 0
1 0 0
1 0 0
1 0 0
1 0 0
1 0 0
1 0 0
1 0 0
1 0 0
1 0 0
1 0 0
0 0.246784 0
0 0.246784 0
0 0.246784 0
0 0.246754 0
0 0.24564 0
0 0.244465 0
0 0.242969 0
0.0664836 0.241001 0
0.146548 0.238437 0
0.21738 0.235111 0
0.286381 0.230777 0
0.356329 0.225208 0
0.428458 0.218082 0
0.50312 0.209079 0
0.580118 0.197787 0
0.658701 0.183825 0
0.737667 0.166781 0
0.815457 0.146258 0
0.890333 0.121767 0
0.960586 0.0925765 0
1 0.0588235 0
1 0.0266117 0
1 0 0
1 0 0
1 0 0
1 0 0
1 0 0
1 0 0
1 0 0
1 0 0
1 0 0
1 0 0
1 0 0
0 0.298054 0
0 0.298054 0
0 0.298054 0
0 0.298039 0
0 0.297093 0
0 0.296101 0
0 0.29485 0
0.0126192 0.293187 0
0.10544 0.291035 0
0.188693 0.288243 0
0.264302 0.284642 0
0.338537 0.280034 0
0.413687 0.274174 0
0.490623 0.266819 0
0.56936 0.25774 0
0.649302 0.246708 0
0.729351 0.233555 0
0.808011 0.21825 0
0.883574 0.20087 0
0.954376 0.181659 0
1 0.160952 0
1 0.139223 0
1 0.11696 0
1 0.0945754 0
1 0.0724498 0
1 0.0536355 0
1 0.0382086 0
1 0.0270695 0
1 0.0270695 0
1 0.0270695 0
1 0.0270695 0
1 0.0270695 0
1 0.0270695 0
0 0.353109 0
0 0.353109 0
0 0.353109 0
0 0.353094 0
0 0.352285 0
0 0.351446 0
0 0.350378 0
0 0.348974 0
0.0390478 0.347143 0
0.146426 0.344778 0
0.233783 0.341726 0
0.314672 0.337835 0
0.394232 0.332921 0
0.474327 0.326802 0
0.555444 0.319295 0
0.637217 0.310262 0
0.7187 0.299641 0
0.798489 0.287495 0
0.874952 0.274006 0
0.946456 0.259525 0
1 0.24448 0
1 0.229404 0
1 0.214817 0
1 0.201175 0
1 0.1888 0
1 0.17792 0
1 0.168582 0
1 0.161593 0
1 0.161593 0
1 0.161593 0
1 0.161593 0
1 0.161593 0
1 0.161593 0
0 0.412009 0
0 0.412009 0
0 0.412009 0
0 0.411978 0
0 0.411292 0
0 0.410574 0
0 0.409644 0
0 0.408438 0
0 0.406867 0
0.0758526 0.404837 0
0.190097 0.402243 0
0.282307 0.398917 0
0.368551 0.394736 0
0.453162 0.389548 0
0.537545 0.383215 0
0.621775 0.375647 0
0.70515 0.366842 0
0.786419 0.356847 0
0.864042 0.345907 0
0.936477 0.33431 0
1 0.322499 0
1 0.310872 0
1 0.29987 0
1 0.289799 0
1 0.280888 0
1 0.273228 0
1 0.266789 0
1 0.262058 0
1 0.262058 0
1 0.262058 0
1 0.262058 0
1 0.262058 0
1 0.262058 0
0 0.474525 0
0 0.474525 0
0 0.474525 0
0 0.47451 0
0 0.473899 0
0 0.473274 0
0 0.472465 0
0 0.471427 0
0 0.470069 0
0 0.468315 0
0.121813 0.466056 0
0.237293 0.463203 0
0.334462 0.459602 0
0.425757 0.455146 0
0.514702 0.449729 0
0.602274 0.443275 0
0.688151 0.435813 0
0.771344 0.427405 0
0.850462 0.418265 0
0.924056 0.408667 0
0.990845 0.398978 0
1 0.389548 0
1 0.380713 0
1 0.372732 0
1 0.365728 0
1 0.359762 0
1 0.354788 0
1 0.351171 0
1 0.351171 0
1 0.351171 0
1 0.351171 0
1 0.351171 0
1 0.351171 0
0 0.540124 0
0 0.540124 0
0 0.540124 0
0 0.540108 0
0 0.539574 0
0 0.539025 0
0 0.538323 0
0 0.537408 0
0 0.536233 0
0 0.534691 0
0.00173953 0.532723 0
0.170764 0.530221 0
0.288548 0.527092 0
0.390265 0.523217 0
0.485771 0.518532 0
0.577874 0.512963 0
0.667079 0.506523 0
0.752773 0.499321 0
0.833799 0.491524 0
0.908873 0.483391 0
0.976806 0.475212 0
1 0.467323 0
1 0.459968 0
1 0.453361 0
1 0.447608 0
1 0.442725 0
1 0.438682 0
1 0.435737 0
1 0.435737 0
1 0.435737 0
1 0.435737 0
1 0.435737 0
1 0.435737 0
0 0.607904 0
0 0.607904 0
0 0.607904 0
0 0.607904 0
0 0.607431 0
0 0.606943 0
0 0.606332 0
0 0.605524 0
0 0.604471 0
0 0.603113 0
0 0.601389 0
0.051194 0.599176 0
0.224262 0.596429 0
0.344121 0.593027 0
0.449409 0.588907 0
0.547799 0.584024 0
0.641398 0.578408 0
0.730312 0.572137 0
0.813764 0.565377 0
0.890684 0.558343 0
0.960037 0.551308 0
1 0.544549 0
1 0.538277 0
1 0.532662 0
1 0.527779 0
1 0.523644 0
1 0.520241 0
1 0.517769 0
1 0.517769 0
1 0.517769 0
1 0.517769 0
1 0.517769 0
1 0.517769 0
0 0.676661 0
0 0.676661 0
0 0.676661 0
0 0.676646 0
0 0.676219 0
0 0.675792 0
0 0.675242 0
0 0.674525 0
0 0.673579 0
0 0.672374 0
0 0.670832 0
0 0.668879 0
0.122942 0.666423 0
0.282979 0.663401 0
0.403937 0.659739 0
0.511254 0.655421 0
0.610697 0.650446 0
0.703746 0.644907 0
0.790219 0.638956 0
0.869413 0.632776 0
0.94049 0.626627 0
1 0.620706 0
1 0.615244 0
1 0.610361 0
1 0.606134 0
1 0.602564 0
1 0.599619 0
1 0.597482 0
1 0.597482 0
1 0.597482 0
1 0.597482 0
1 0.597482 0
1 0.597482 0
0 0.744823 0
0 0.744823 0
0 0.744823 0
0 0.744823 0
0 0.744442 0
0 0.744045 0
0 0.743557 0
0 0.742901 0
0 0.742061 0
0 0.740978 0
0 0.739574 0
0 0.737819 0
0 0.735607 0
0.197162 0.732891 0
0.34699 0.729595 0
0.46746 0.725719 0
0.574777 0.721279 0
0.673075 0.71632 0
0.763302 0.710994 0
0.845228 0.705486 0
0.918379 0.700008 0
0.982345 0.694759 0
1 0.689921 0
1 0.685603 0
1 0.681865 0
1 0.678721 0
1 0.676127 0
1 0.67425 0
1 0.67425 0
1 0.67425 0
1 0.67425 0
1 0.67425 0
1 0.67425 0
0 0.810773 0
0 0.810773 0
0 0.810773 0
0 0.810758 0
0 0.810422 0
0 0.810071 0
0 0.809613 0
0 0.809018 0
0 0.808255 0
0 0.807263 0
0 0.805982 0
0 0.804379 0
0 0.802365 0
0.0463111 0.799893 0
0.274372 0.796902 0
0.415702 0.793393 0
0.5337 0.789349 0
0.638651 0.784848 0
0.73341 0.780041 0
0.818601 0.775051 0
0.894118 0.770108 0
0.959869 0.765377 0
1 0.761013 0
1 0.757122 0
1 0.753765 0
1 0.750942 0
1 0.748623 0
1 0.746944 0
1 0.746944 0
1 0.746944 0
1 0.746944 0
1 0.746944 0
1 0.746944 0
0 0.872877 0
0 0.872877 0
0 0.872877 0
0 0.872862 0
0 0.872541 0
0 0.872221 0
0 0.871794 0
0 0.871244 0
0 0.870542 0
0 0.869627 0
0 0.868452 0
0 0.866972 0
0 0.865125 0
0 0.862852 0
0.175036 0.86009 0
0.354955 0.856855 0
0.487846 0.853147 0
0.60116 0.849027 0
0.70132 0.844602 0
0.790234 0.84004 0
0.868452 0.835508 0
0.936187 0.831174 0
0.99379 0.827192 0
1 0.823636 0
1 0.820584 0
1 0.818006 0
1 0.815885 0
1 0.814359 0
1 0.814359 0
1 0.814359 0
1 0.814359 0
1 0.814359 0
1 0.814359 0
0 0.929747 0
0 0.929747 0
0 0.929747 0
0 0.929732 0
0 0.929442 0
0 0.929137 0
0 0.92874 0
0 0.928237 0
0 0.927565 0
0 0.926726 0
0 0.925628 0
0 0.924254 0
0 0.92253 0
0 0.920394 0
0.00500496 0.917845 0
0.283177 0.914824 0
0.437827 0.911376 0
0.561563 0.90753 0
0.667994 0.903426 0
0.761105 0.899199 0
0.842268 0.894987 0
0.912139 0.890974 0
0.971313 0.887282 0
1 0.884001 0
1 0.881163 0
1 0.878782 0
1 0.876829 0
1 0.87541 0
1 0.87541 0
1 0.87541 0
1 0.87541 0
1 0.87541 0
1 0.87541 0
0 0.980423 0
0 0.980423 0
0 0.980423 0
0 0.980407 0
0 0.980133 0
0 0.979843 0
0 0.979477 0
0 0.978988 0
0 0.978378 0
0 0.977569 0
0 0.976547 0
0 0.975235 0
0 0.973617 0
0 0.971618 0
0 0.969207 0
0.194797 0.966369 0
0.38436 0.963119 0
0.521065 0.959503 0
0.634638 0.955642 0
0.73228 0.951659 0
0.816541 0.947723 0
0.88864 0.943954 0
0.949416 0.94049 0
0.999863 0.937407 0
1 0.934752 0
1 0.932525 0
1 0.930678 0
1 0.929366 0
1 0.929366 0
1 0.929366 0
1 0.929366 0
1 0.929366 0
1 0.929366 0
0 1 0
0 1 0
0 1 0
0 1 0
0 1 0
0 1 0
0 1 0
0 1 0
0 1 0
0 1 0
0 1 0
0 1 0
0 1 0
0 1 0
0 1 0
0.0654765 1 0
0.328084 1 0
0.480903 1 0
0.602365 1 0
0.704753 0.997055 0
0.792187 0.993301 0
0.866499 0.989731 0
0.928878 0.98645 0
0.980484 0.98352 0
1 0.981003 0
1 0.978897 0
1 0.977157 0
1 0.975891 0
1 0.975891 0
1 0.975891 0
1 0.975891 0
1 0.975891 0
1 0.975891 0
0 1 0
0 1 0
0 1 0
0 1 0
0 1 0
0 1 0
0 1 0
0 1 0
0 1 0
0 1 0
0 1 0
0 1 0
0 1 0
0 1 0
0 1 0
0 1 0
0.269306 1 0
0.442267 1 0
0.572183 1 0
0.679393 1 0
0.769924 1 0
0.846357 1 0
0.910246 1 0
0.962966 1 0
1 1 0
1 1 0
1 1 0
1 1 0
1 1 0
1 1 0
1 1 0
1 1 0
1 1 0
0 1 0
0 1 0
0 1 0
0 1 0
0 1 0
0 1 0
0 1 0
0 1 0
0 1 0
0 1 0
0 1 0
0 1 0
0 1 0
0 1 0
0 1 0
0 1 0
0.207553 1 0
0.406119 1 0
0.544839 1 0
0.656748 1 0
0.75021 1 0
0.828611 1 0
0.893904 1 0
0.947616 1 0
0.991241 1 0
1 1 0
1 1 0
1 1 0
1 1 0
1 1 0
1 1 0
1 1 0
1 1 0
0 1 0
0 1 0
0 1 0
0 1 0
0 1 0
0 1 0
0 1 0
0 1 0
0 1 0
0 1 0
0 1 0
0 1 0
0 1 0
0 1 0
0 1 0
0 1 0
0.140551 1 0
0.373205 1 0
0.520806 1 0
0.637125 1 0
0.733257 1 0
0.813413 1 0
0.879942 1 0
0.934539 1 0
0.978805 1 0
1 1 0
1 1 0
1 1 0
1 1 0
1 1 0
1 1 0
1 1 0
1 1 0
0 1 0
0 1 0
0 1 0
0 1 0
0 1 0
0 1 0
0 1 0
0 1 0
0 1 0
0 1 0
0 1 0
0 1 0
0 1 0
0 1 0
0 1 0
0 1 0
0.0611887 1 0
0.343969 1 0
0.500191 1 0
0.620539 1 0
0.71902 1 0
0.800732 1 0
0.868315 1 0
0.923674 1 0
0.96849 1 0
1 1 0
1 1 0
1 1 0
1 1 0
1 1 0
1 1 0
1 1 0
1 1 0
0 1 0
0 1 0
0 1 0
0 1 0
0 1 0
0 1 0
0 1 0
0 1 0
0 1 0
