MEDT/Pirringer/Unterricht/2025-02-26/fotos/LUTs/DJI D-Log to Rec.709 LUT 33x33.cube
TITLE "Generated by Resolve"
LUT_3D_SIZE 5
0 0 0
0.231098 0 0
0.760266 0 0
1 0 0
1 0 0
0 0.198978 0
0.173648 0.188907 0
0.744106 0.0946517 0
1 0 0
1 0 0
0 0.676661 0
0 0.673579 0
0.610697 0.650446 0
1 0.606134 0
1 0.597482 0
0 1 0
0 1 0
0.207553 1 0
0.991241 1 0
1 1 0
0 1 0
0 1 0
0 1 0
0.960952 1 0
1 1 0
0 0 0.193896
0.222538 0 0.189654
0.757641 0 0.155627
1 0 0.0728466
1 0 0.0538949
0 0.173999 0.167514
0.162737 0.162737 0.162737
0.741421 0.0512245 0.123583
1 0 0.0277562
1 0 0.00880446
0 0.669245 0
0 0.666133 0
0.607385 0.642725 0
1 0.597803 0
1 0.589029 0
0 1 0
0 1 0
0.198154 1 0
0.989288 1 0
1 1 0
0 1 0
0 1 0
0 1 0
0.958938 1 0
1 1 0
0 0 0.663432
0.147997 0 0.66212
0.737987 0 0.652384
1 0 0.634333
1 0 0.6309
0 0 0.655634
0.0555428 0 0.654307
0.721294 0 0.64445
1 0 0.626154
1 0 0.622675
0 0.611612 0.594736
0 0.608194 0.593271
0.582315 0.582315 0.582315
1 0.532067 0.561898
1 0.522148 0.558007
0 1 0.463478
0 1 0.46157
0.112856 1 0.447318
0.974701 1 0.420233
1 1 0.415
0 1 0.434562
0 1 0.432532
0 1 0.417273
0.943832 1 0.388144
1 1 0.382467
0 0 1
0 0 1
0.700862 0 1
1 0 1
1 0 1
0 0 1
0 0 1
0.683192 0 1
1 0 1
1 0 1
0 0.489265 1
0 0.484947 1
0.533761 0.451835 1
1 0.384619 1
1 0.370779 1
0 0.992645 0.96672
0 0.990631 0.96585
0 0.975586 0.959426
0.947646 0.947646 0.947646
1 0.942336 0.945418
0 1 0.953796
0 1 0.952911
0 1 0.946395
0.915755 1 0.934417
1 1 0.932174
0 0 1
0 0 1
0.693706 0 1
1 0 1
1 0 1
0 0 1
0 0 1
0.675837 0 1
1 0 1
1 0 1
0 0.462791 1
0 0.458228 1
0.524193 0.423011 1
1 0.350454 1
1 0.335256 1
0 0.980468 1
0 0.978424 1
0 0.963165 1
0.942504 0.934813 1
1 0.929427 1
0 1 1
0 1 1
0 1 1
0.910414 1 1
1 1 1
